resources/luts/cool_blue.cube
TITLE "Cool Blue"
LUT_3D_SIZE 5
0.000000 0.020000 0.050000
0.220000 0.020000 0.050000
0.440000 0.020000 0.050000
0.660000 0.020000 0.050000
0.880000 0.020000 0.050000
0.000000 0.257500 0.050000
0.220000 0.257500 0.050000
0.440000 0.257500 0.050000
0.660000 0.257500 0.050000
0.880000 0.257500 0.050000
0.000000 0.495000 0.050000
0.220000 0.495000 0.050000
0.440000 0.495000 0.050000
0.660000 0.495000 0.050000
0.880000 0.495000 0.050000
0.000000 0.732500 0.050000
0.220000 0.732500 0.050000
0.440000 0.732500 0.050000
0.660000 0.732500 0.050000
0.880000 0.732500 0.050000
0.000000 0.970000 0.050000
0.220000 0.970000 0.050000
0.440000 0.970000 0.050000
0.660000 0.970000 0.050000
0.880000 0.970000 0.050000
0.000000 0.020000 0.337500
0.220000 0.020000 0.337500
0.440000 0.020000 0.337500
0.660000 0.020000 0.337500
0.880000 0.020000 0.337500
0.000000 0.257500 0.337500
0.220000 0.257500 0.337500
0.440000 0.257500 0.337500
0.660000 0.257500 0.337500
0.880000 0.257500 0.337500
0.000000 0.495000 0.337500
0.220000 0.495000 0.337500
0.440000 0.495000 0.337500
0.660000 0.495000 0.337500
0.880000 0.495000 0.337500
0.000000 0.732500 0.337500
0.220000 0.732500 0.337500
0.440000 0.732500 0.337500
0.660000 0.732500 0.337500
0.880000 0.732500 0.337500
0.000000 0.970000 0.337500
0.220000 0.970000 0.337500
0.440000 0.970000 0.337500
0.660000 0.970000 0.337500
0.880000 0.970000 0.337500
0.000000 0.020000 0.625000
0.220000 0.020000 0.625000
0.440000 0.020000 0.625000
0.660000 0.020000 0.625000
0.880000 0.020000 0.625000
0.000000 0.257500 0.625000
0.220000 0.257500 0.625000
0.440000 0.257500 0.625000
0.660000 0.257500 0.625000
0.880000 0.257500 0.625000
0.000000 0.495000 0.625000
0.220000 0.495000 0.625000
0.440000 0.495000 0.625000
0.660000 0.495000 0.625000
0.880000 0.495000 0.625000
0.000000 0.732500 0.625000
0.220000 0.732500 0.625000
0.440000 0.732500 0.625000
0.660000 0.732500 0.625000
0.880000 0.732500 0.625000
0.000000 0.970000 0.625000
0.220000 0.970000 0.625000
0.440000 0.970000 0.625000
0.660000 0.970000 0.625000
0.880000 0.970000 0.625000
0.000000 0.020000 0.912500
0.220000 0.020000 0.912500
0.440000 0.020000 0.912500
0.660000 0.020000 0.912500
0.880000 0.020000 0.912500
0.000000 0.257500 0.912500
0.220000 0.257500 0.912500
0.440000 0.257500 0.912500
0.660000 0.257500 0.912500
0.880000 0.257500 0.912500
0.000000 0.495000 0.912500
0.220000 0.495000 0.912500
0.440000 0.495000 0.912500
0.660000 0.495000 0.912500
0.880000 0.495000 0.912500
0.000000 0.732500 0.912500
0.220000 0.732500 0.912500
0.440000 0.732500 0.912500
0.660000 0.732500 0.912500
0.880000 0.732500 0.912500
0.000000 0.970000 0.912500
0.220000 0.970000 0.912500
0.440000 0.970000 0.912500
0.660000 0.970000 0.912500
0.880000 0.970000 0.912500
0.000000 0.020000 1.000000
0.220000 0.020000 1.000000
0.440000 0.020000 1.000000
0.660000 0.020000 1.000000
0.880000 0.020000 1.000000
0.000000 0.257500 1.000000
0.220000 0.257500 1.000000
0.440000 0.257500 1.000000
0.660000 0.257500 1.000000
0.880000 0.257500 1.000000
0.000000 0.495000 1.000000
0.220000 0.495000 1.000000
0.440000 0.495000 1.000000
0.660000 0.495000 1.000000
0.880000 0.495000 1.000000
0.000000 0.732500 1.000000
0.220000 0.732500 1.000000
0.440000 0.732500 1.000000
0.660000 0.732500 1.000000
0.880000 0.732500 1.000000
0.000000 0.970000 1.000000
0.220000 0.970000 1.000000
0.440000 0.970000 1.000000
0.660000 0.970000 1.000000
0.880000 0.970000 1.000000
