resources/luts/cool_blue.cube
TITLE "Cool Blue"
LUT_3D_SIZE 17
0.000000 0.020000 0.050000
0.055000 0.020000 0.050000
0.110000 0.020000 0.050000
0.165000 0.020000 0.050000
0.220000 0.020000 0.050000
0.275000 0.020000 0.050000
0.330000 0.020000 0.050000
0.385000 0.020000 0.050000
0.440000 0.020000 0.050000
0.495000 0.020000 0.050000
0.550000 0.020000 0.050000
0.605000 0.020000 0.050000
0.660000 0.020000 0.050000
0.715000 0.020000 0.050000
0.770000 0.020000 0.050000
0.825000 0.020000 0.050000
0.880000 0.020000 0.050000
0.000000 0.079375 0.050000
0.055000 0.079375 0.050000
0.110000 0.079375 0.050000
0.165000 0.079375 0.050000
0.220000 0.079375 0.050000
0.275000 0.079375 0.050000
0.330000 0.079375 0.050000
0.385000 0.079375 0.050000
0.440000 0.079375 0.050000
0.495000 0.079375 0.050000
0.550000 0.079375 0.050000
0.605000 0.079375 0.050000
0.660000 0.079375 0.050000
0.715000 0.079375 0.050000
0.770000 0.079375 0.050000
0.825000 0.079375 0.050000
0.880000 0.079375 0.050000
0.000000 0.138750 0.050000
0.055000 0.138750 0.050000
0.110000 0.138750 0.050000
0.165000 0.138750 0.050000
0.220000 0.138750 0.050000
0.275000 0.138750 0.050000
0.330000 0.138750 0.050000
0.385000 0.138750 0.050000
0.440000 0.138750 0.050000
0.495000 0.138750 0.050000
0.550000 0.138750 0.050000
0.605000 0.138750 0.050000
0.660000 0.138750 0.050000
0.715000 0.138750 0.050000
0.770000 0.138750 0.050000
0.825000 0.138750 0.050000
0.880000 0.138750 0.050000
0.000000 0.198125 0.050000
0.055000 0.198125 0.050000
0.110000 0.198125 0.050000
0.165000 0.198125 0.050000
0.220000 0.198125 0.050000
0.275000 0.198125 0.050000
0.330000 0.198125 0.050000
0.385000 0.198125 0.050000
0.440000 0.198125 0.050000
0.495000 0.198125 0.050000
0.550000 0.198125 0.050000
0.605000 0.198125 0.050000
0.660000 0.198125 0.050000
0.715000 0.198125 0.050000
0.770000 0.198125 0.050000
0.825000 0.198125 0.050000
0.880000 0.198125 0.050000
0.000000 0.257500 0.050000
0.055000 0.257500 0.050000
0.110000 0.257500 0.050000
0.165000 0.257500 0.050000
0.220000 0.257500 0.050000
0.275000 0.257500 0.050000
0.330000 0.257500 0.050000
0.385000 0.257500 0.050000
0.440000 0.257500 0.050000
0.495000 0.257500 0.050000
0.550000 0.257500 0.050000
0.605000 0.257500 0.050000
0.660000 0.257500 0.050000
0.715000 0.257500 0.050000
0.770000 0.257500 0.050000
0.825000 0.257500 0.050000
0.880000 0.257500 0.050000
0.000000 0.316875 0.050000
0.055000 0.316875 0.050000
0.110000 0.316875 0.050000
0.165000 0.316875 0.050000
0.220000 0.316875 0.050000
0.275000 0.316875 0.050000
0.330000 0.316875 0.050000
0.385000 0.316875 0.050000
0.440000 0.316875 0.050000
0.495000 0.316875 0.050000
0.550000 0.316875 0.050000
0.605000 0.316875 0.050000
0.660000 0.316875 0.050000
0.715000 0.316875 0.050000
0.770000 0.316875 0.050000
0.825000 0.316875 0.050000
0.880000 0.316875 0.050000
0.000000 0.376250 0.050000
0.055000 0.376250 0.050000
0.110000 0.376250 0.050000
0.165000 0.376250 0.050000
0.220000 0.376250 0.050000
0.275000 0.376250 0.050000
0.330000 0.376250 0.050000
0.385000 0.376250 0.050000
0.440000 0.376250 0.050000
0.495000 0.376250 0.050000
0.550000 0.376250 0.050000
0.605000 0.376250 0.050000
0.660000 0.376250 0.050000
0.715000 0.376250 0.050000
0.770000 0.376250 0.050000
0.825000 0.376250 0.050000
0.880000 0.376250 0.050000
0.000000 0.435625 0.050000
0.055000 0.435625 0.050000
0.110000 0.435625 0.050000
0.165000 0.435625 0.050000
0.220000 0.435625 0.050000
0.275000 0.435625 0.050000
0.330000 0.435625 0.050000
0.385000 0.435625 0.050000
0.440000 0.435625 0.050000
0.495000 0.435625 0.050000
0.550000 0.435625 0.050000
0.605000 0.435625 0.050000
0.660000 0.435625 0.050000
0.715000 0.435625 0.050000
0.770000 0.435625 0.050000
0.825000 0.435625 0.050000
0.880000 0.435625 0.050000
0.000000 0.495000 0.050000
0.055000 0.495000 0.050000
0.110000 0.495000 0.050000
0.165000 0.495000 0.050000
0.220000 0.495000 0.050000
0.275000 0.495000 0.050000
0.330000 0.495000 0.050000
0.385000 0.495000 0.050000
0.440000 0.495000 0.050000
0.495000 0.495000 0.050000
0.550000 0.495000 0.050000
0.605000 0.495000 0.050000
0.660000 0.495000 0.050000
0.715000 0.495000 0.050000
0.770000 0.495000 0.050000
0.825000 0.495000 0.050000
0.880000 0.495000 0.050000
0.000000 0.554375 0.050000
0.055000 0.554375 0.050000
0.110000 0.554375 0.050000
0.165000 0.554375 0.050000
0.220000 0.554375 0.050000
0.275000 0.554375 0.050000
0.330000 0.554375 0.050000
0.385000 0.554375 0.050000
0.440000 0.554375 0.050000
0.495000 0.554375 0.050000
0.550000 0.554375 0.050000
0.605000 0.554375 0.050000
0.660000 0.554375 0.050000
0.715000 0.554375 0.050000
0.770000 0.554375 0.050000
0.825000 0.554375 0.050000
0.880000 0.554375 0.050000
0.000000 0.613750 0.050000
0.055000 0.613750 0.050000
0.110000 0.613750 0.050000
0.165000 0.613750 0.050000
0.220000 0.613750 0.050000
0.275000 0.613750 0.050000
0.330000 0.613750 0.050000
0.385000 0.613750 0.050000
0.440000 0.613750 0.050000
0.495000 0.613750 0.050000
0.550000 0.613750 0.050000
0.605000 0.613750 0.050000
0.660000 0.613750 0.050000
0.715000 0.613750 0.050000
0.770000 0.613750 0.050000
0.825000 0.613750 0.050000
0.880000 0.613750 0.050000
0.000000 0.673125 0.050000
0.055000 0.673125 0.050000
0.110000 0.673125 0.050000
0.165000 0.673125 0.050000
0.220000 0.673125 0.050000
0.275000 0.673125 0.050000
0.330000 0.673125 0.050000
0.385000 0.673125 0.050000
0.440000 0.673125 0.050000
0.495000 0.673125 0.050000
0.550000 0.673125 0.050000
0.605000 0.673125 0.050000
0.660000 0.673125 0.050000
0.715000 0.673125 0.050000
0.770000 0.673125 0.050000
0.825000 0.673125 0.050000
0.880000 0.673125 0.050000
0.000000 0.732500 0.050000
0.055000 0.732500 0.050000
0.110000 0.732500 0.050000
0.165000 0.732500 0.050000
0.220000 0.732500 0.050000
0.275000 0.732500 0.050000
0.330000 0.732500 0.050000
0.385000 0.732500 0.050000
0.440000 0.732500 0.050000
0.495000 0.732500 0.050000
0.550000 0.732500 0.050000
0.605000 0.732500 0.050000
0.660000 0.732500 0.050000
0.715000 0.732500 0.050000
0.770000 0.732500 0.050000
0.825000 0.732500 0.050000
0.880000 0.732500 0.050000
0.000000 0.791875 0.050000
0.055000 0.791875 0.050000
0.110000 0.791875 0.050000
0.165000 0.791875 0.050000
0.220000 0.791875 0.050000
0.275000 0.791875 0.050000
0.330000 0.791875 0.050000
0.385000 0.791875 0.050000
0.440000 0.791875 0.050000
0.495000 0.791875 0.050000
0.550000 0.791875 0.050000
0.605000 0.791875 0.050000
0.660000 0.791875 0.050000
0.715000 0.791875 0.050000
0.770000 0.791875 0.050000
0.825000 0.791875 0.050000
0.880000 0.791875 0.050000
0.000000 0.851250 0.050000
0.055000 0.851250 0.050000
0.110000 0.851250 0.050000
0.165000 0.851250 0.050000
0.220000 0.851250 0.050000
0.275000 0.851250 0.050000
0.330000 0.851250 0.050000
0.385000 0.851250 0.050000
0.440000 0.851250 0.050000
0.495000 0.851250 0.050000
0.550000 0.851250 0.050000
0.605000 0.851250 0.050000
0.660000 0.851250 0.050000
0.715000 0.851250 0.050000
0.770000 0.851250 0.050000
0.825000 0.851250 0.050000
0.880000 0.851250 0.050000
0.000000 0.910625 0.050000
0.055000 0.910625 0.050000
0.110000 0.910625 0.050000
0.165000 0.910625 0.050000
0.220000 0.910625 0.050000
0.275000 0.910625 0.050000
0.330000 0.910625 0.050000
0.385000 0.910625 0.050000
0.440000 0.910625 0.050000
0.495000 0.910625 0.050000
0.550000 0.910625 0.050000
0.605000 0.910625 0.050000
0.660000 0.910625 0.050000
0.715000 0.910625 0.050000
0.770000 0.910625 0.050000
0.825000 0.910625 0.050000
0.880000 0.910625 0.050000
0.000000 0.970000 0.050000
0.055000 0.970000 0.050000
0.110000 0.970000 0.050000
0.165000 0.970000 0.050000
0.220000 0.970000 0.050000
0.275000 0.970000 0.050000
0.330000 0.970000 0.050000
0.385000 0.970000 0.050000
0.440000 0.970000 0.050000
0.495000 0.970000 0.050000
0.550000 0.970000 0.050000
0.605000 0.970000 0.050000
0.660000 0.970000 0.050000
0.715000 0.970000 0.050000
0.770000 0.970000 0.050000
0.825000 0.970000 0.050000
0.880000 0.970000 0.050000
0.000000 0.020000 0.121875
0.055000 0.020000 0.121875
0.110000 0.020000 0.121875
0.165000 0.020000 0.121875
0.220000 0.020000 0.121875
0.275000 0.020000 0.121875
0.330000 0.020000 0.121875
0.385000 0.020000 0.121875
0.440000 0.020000 0.121875
0.495000 0.020000 0.121875
0.550000 0.020000 0.121875
0.605000 0.020000 0.121875
0.660000 0.020000 0.121875
0.715000 0.020000 0.121875
0.770000 0.020000 0.121875
0.825000 0.020000 0.121875
0.880000 0.020000 0.121875
0.000000 0.079375 0.121875
0.055000 0.079375 0.121875
0.110000 0.079375 0.121875
0.165000 0.079375 0.121875
0.220000 0.079375 0.121875
0.275000 0.079375 0.121875
0.330000 0.079375 0.121875
0.385000 0.079375 0.121875
0.440000 0.079375 0.121875
0.495000 0.079375 0.121875
0.550000 0.079375 0.121875
0.605000 0.079375 0.121875
0.660000 0.079375 0.121875
0.715000 0.079375 0.121875
0.770000 0.079375 0.121875
0.825000 0.079375 0.121875
0.880000 0.079375 0.121875
0.000000 0.138750 0.121875
0.055000 0.138750 0.121875
0.110000 0.138750 0.121875
0.165000 0.138750 0.121875
0.220000 0.138750 0.121875
0.275000 0.138750 0.121875
0.330000 0.138750 0.121875
0.385000 0.138750 0.121875
0.440000 0.138750 0.121875
0.495000 0.138750 0.121875
0.550000 0.138750 0.121875
0.605000 0.138750 0.121875
0.660000 0.138750 0.121875
0.715000 0.138750 0.121875
0.770000 0.138750 0.121875
0.825000 0.138750 0.121875
0.880000 0.138750 0.121875
0.000000 0.198125 0.121875
0.055000 0.198125 0.121875
0.110000 0.198125 0.121875
0.165000 0.198125 0.121875
0.220000 0.198125 0.121875
0.275000 0.198125 0.121875
0.330000 0.198125 0.121875
0.385000 0.198125 0.121875
0.440000 0.198125 0.121875
0.495000 0.198125 0.121875
0.550000 0.198125 0.121875
0.605000 0.198125 0.121875
0.660000 0.198125 0.121875
0.715000 0.198125 0.121875
0.770000 0.198125 0.121875
0.825000 0.198125 0.121875
0.880000 0.198125 0.121875
0.000000 0.257500 0.121875
0.055000 0.257500 0.121875
0.110000 0.257500 0.121875
0.165000 0.257500 0.121875
0.220000 0.257500 0.121875
0.275000 0.257500 0.121875
0.330000 0.257500 0.121875
0.385000 0.257500 0.121875
0.440000 0.257500 0.121875
0.495000 0.257500 0.121875
0.550000 0.257500 0.121875
0.605000 0.257500 0.121875
0.660000 0.257500 0.121875
0.715000 0.257500 0.121875
0.770000 0.257500 0.121875
0.825000 0.257500 0.121875
0.880000 0.257500 0.121875
0.000000 0.316875 0.121875
0.055000 0.316875 0.121875
0.110000 0.316875 0.121875
0.165000 0.316875 0.121875
0.220000 0.316875 0.121875
0.275000 0.316875 0.121875
0.330000 0.316875 0.121875
0.385000 0.316875 0.121875
0.440000 0.316875 0.121875
0.495000 0.316875 0.121875
0.550000 0.316875 0.121875
0.605000 0.316875 0.121875
0.660000 0.316875 0.121875
0.715000 0.316875 0.121875
0.770000 0.316875 0.121875
0.825000 0.316875 0.121875
0.880000 0.316875 0.121875
0.000000 0.376250 0.121875
0.055000 0.376250 0.121875
0.110000 0.376250 0.121875
0.165000 0.376250 0.121875
0.220000 0.376250 0.121875
0.275000 0.376250 0.121875
0.330000 0.376250 0.121875
0.385000 0.376250 0.121875
0.440000 0.376250 0.121875
0.495000 0.376250 0.121875
0.550000 0.376250 0.121875
0.605000 0.376250 0.121875
0.660000 0.376250 0.121875
0.715000 0.376250 0.121875
0.770000 0.376250 0.121875
0.825000 0.376250 0.121875
0.880000 0.376250 0.121875
0.000000 0.435625 0.121875
0.055000 0.435625 0.121875
0.110000 0.435625 0.121875
0.165000 0.435625 0.121875
0.220000 0.435625 0.121875
0.275000 0.435625 0.121875
0.330000 0.435625 0.121875
0.385000 0.435625 0.121875
0.440000 0.435625 0.121875
0.495000 0.435625 0.121875
0.550000 0.435625 0.121875
0.605000 0.435625 0.121875
0.660000 0.435625 0.121875
0.715000 0.435625 0.121875
0.770000 0.435625 0.121875
0.825000 0.435625 0.121875
0.880000 0.435625 0.121875
0.000000 0.495000 0.121875
0.055000 0.495000 0.121875
0.110000 0.495000 0.121875
0.165000 0.495000 0.121875
0.220000 0.495000 0.121875
0.275000 0.495000 0.121875
0.330000 0.495000 0.121875
0.385000 0.495000 0.121875
0.440000 0.495000 0.121875
0.495000 0.495000 0.121875
0.550000 0.495000 0.121875
0.605000 0.495000 0.121875
0.660000 0.495000 0.121875
0.715000 0.495000 0.121875
0.770000 0.495000 0.121875
0.825000 0.495000 0.121875
0.880000 0.495000 0.121875
0.000000 0.554375 0.121875
0.055000 0.554375 0.121875
0.110000 0.554375 0.121875
0.165000 0.554375 0.121875
0.220000 0.554375 0.121875
0.275000 0.554375 0.121875
0.330000 0.554375 0.121875
0.385000 0.554375 0.121875
0.440000 0.554375 0.121875
0.495000 0.554375 0.121875
0.550000 0.554375 0.121875
0.605000 0.554375 0.121875
0.660000 0.554375 0.121875
0.715000 0.554375 0.121875
0.770000 0.554375 0.121875
0.825000 0.554375 0.121875
0.880000 0.554375 0.121875
0.000000 0.613750 0.121875
0.055000 0.613750 0.121875
0.110000 0.613750 0.121875
0.165000 0.613750 0.121875
0.220000 0.613750 0.121875
0.275000 0.613750 0.121875
0.330000 0.613750 0.121875
0.385000 0.613750 0.121875
0.440000 0.613750 0.121875
0.495000 0.613750 0.121875
0.550000 0.613750 0.121875
0.605000 0.613750 0.121875
0.660000 0.613750 0.121875
0.715000 0.613750 0.121875
0.770000 0.613750 0.121875
0.825000 0.613750 0.121875
0.880000 0.613750 0.121875
0.000000 0.673125 0.121875
0.055000 0.673125 0.121875
0.110000 0.673125 0.121875
0.165000 0.673125 0.121875
0.220000 0.673125 0.121875
0.275000 0.673125 0.121875
0.330000 0.673125 0.121875
0.385000 0.673125 0.121875
0.440000 0.673125 0.121875
0.495000 0.673125 0.121875
0.550000 0.673125 0.121875
0.605000 0.673125 0.121875
0.660000 0.673125 0.121875
0.715000 0.673125 0.121875
0.770000 0.673125 0.121875
0.825000 0.673125 0.121875
0.880000 0.673125 0.121875
0.000000 0.732500 0.121875
0.055000 0.732500 0.121875
0.110000 0.732500 0.121875
0.165000 0.732500 0.121875
0.220000 0.732500 0.121875
0.275000 0.732500 0.121875
0.330000 0.732500 0.121875
0.385000 0.732500 0.121875
0.440000 0.732500 0.121875
0.495000 0.732500 0.121875
0.550000 0.732500 0.121875
0.605000 0.732500 0.121875
0.660000 0.732500 0.121875
0.715000 0.732500 0.121875
0.770000 0.732500 0.121875
0.825000 0.732500 0.121875
0.880000 0.732500 0.121875
0.000000 0.791875 0.121875
0.055000 0.791875 0.121875
0.110000 0.791875 0.121875
0.165000 0.791875 0.121875
0.220000 0.791875 0.121875
0.275000 0.791875 0.121875
0.330000 0.791875 0.121875
0.385000 0.791875 0.121875
0.440000 0.791875 0.121875
0.495000 0.791875 0.121875
0.550000 0.791875 0.121875
0.605000 0.791875 0.121875
0.660000 0.791875 0.121875
0.715000 0.791875 0.121875
0.770000 0.791875 0.121875
0.825000 0.791875 0.121875
0.880000 0.791875 0.121875
0.000000 0.851250 0.121875
0.055000 0.851250 0.121875
0.110000 0.851250 0.121875
0.165000 0.851250 0.121875
0.220000 0.851250 0.121875
0.275000 0.851250 0.121875
0.330000 0.851250 0.121875
0.385000 0.851250 0.121875
0.440000 0.851250 0.121875
0.495000 0.851250 0.121875
0.550000 0.851250 0.121875
0.605000 0.851250 0.121875
0.660000 0.851250 0.121875
0.715000 0.851250 0.121875
0.770000 0.851250 0.121875
0.825000 0.851250 0.121875
0.880000 0.851250 0.121875
0.000000 0.910625 0.121875
0.055000 0.910625 0.121875
0.110000 0.910625 0.121875
0.165000 0.910625 0.121875
0.220000 0.910625 0.121875
0.275000 0.910625 0.121875
0.330000 0.910625 0.121875
0.385000 0.910625 0.121875
0.440000 0.910625 0.121875
0.495000 0.910625 0.121875
0.550000 0.910625 0.121875
0.605000 0.910625 0.121875
0.660000 0.910625 0.121875
0.715000 0.910625 0.121875
0.770000 0.910625 0.121875
0.825000 0.910625 0.121875
0.880000 0.910625 0.121875
0.000000 0.970000 0.121875
0.055000 0.970000 0.121875
0.110000 0.970000 0.121875
0.165000 0.970000 0.121875
0.220000 0.970000 0.121875
0.275000 0.970000 0.121875
0.330000 0.970000 0.121875
0.385000 0.970000 0.121875
0.440000 0.970000 0.121875
0.495000 0.970000 0.121875
0.550000 0.970000 0.121875
0.605000 0.970000 0.121875
0.660000 0.970000 0.121875
0.715000 0.970000 0.121875
0.770000 0.970000 0.121875
0.825000 0.970000 0.121875
0.880000 0.970000 0.121875
0.000000 0.020000 0.193750
0.055000 0.020000 0.193750
0.110000 0.020000 0.193750
0.165000 0.020000 0.193750
0.220000 0.020000 0.193750
0.275000 0.020000 0.193750
0.330000 0.020000 0.193750
0.385000 0.020000 0.193750
0.440000 0.020000 0.193750
0.495000 0.020000 0.193750
0.550000 0.020000 0.193750
0.605000 0.020000 0.193750
0.660000 0.020000 0.193750
0.715000 0.020000 0.193750
0.770000 0.020000 0.193750
0.825000 0.020000 0.193750
0.880000 0.020000 0.193750
0.000000 0.079375 0.193750
0.055000 0.079375 0.193750
0.110000 0.079375 0.193750
0.165000 0.079375 0.193750
0.220000 0.079375 0.193750
0.275000 0.079375 0.193750
0.330000 0.079375 0.193750
0.385000 0.079375 0.193750
0.440000 0.079375 0.193750
0.495000 0.079375 0.193750
0.550000 0.079375 0.193750
0.605000 0.079375 0.193750
0.660000 0.079375 0.193750
0.715000 0.079375 0.193750
0.770000 0.079375 0.193750
0.825000 0.079375 0.193750
0.880000 0.079375 0.193750
0.000000 0.138750 0.193750
0.055000 0.138750 0.193750
0.110000 0.138750 0.193750
0.165000 0.138750 0.193750
0.220000 0.138750 0.193750
0.275000 0.138750 0.193750
0.330000 0.138750 0.193750
0.385000 0.138750 0.193750
0.440000 0.138750 0.193750
0.495000 0.138750 0.193750
0.550000 0.138750 0.193750
0.605000 0.138750 0.193750
0.660000 0.138750 0.193750
0.715000 0.138750 0.193750
0.770000 0.138750 0.193750
0.825000 0.138750 0.193750
0.880000 0.138750 0.193750
0.000000 0.198125 0.193750
0.055000 0.198125 0.193750
0.110000 0.198125 0.193750
0.165000 0.198125 0.193750
0.220000 0.198125 0.193750
0.275000 0.198125 0.193750
0.330000 0.198125 0.193750
0.385000 0.198125 0.193750
0.440000 0.198125 0.193750
0.495000 0.198125 0.193750
0.550000 0.198125 0.193750
0.605000 0.198125 0.193750
0.660000 0.198125 0.193750
0.715000 0.198125 0.193750
0.770000 0.198125 0.193750
0.825000 0.198125 0.193750
0.880000 0.198125 0.193750
0.000000 0.257500 0.193750
0.055000 0.257500 0.193750
0.110000 0.257500 0.193750
0.165000 0.257500 0.193750
0.220000 0.257500 0.193750
0.275000 0.257500 0.193750
0.330000 0.257500 0.193750
0.385000 0.257500 0.193750
0.440000 0.257500 0.193750
0.495000 0.257500 0.193750
0.550000 0.257500 0.193750
0.605000 0.257500 0.193750
0.660000 0.257500 0.193750
0.715000 0.257500 0.193750
0.770000 0.257500 0.193750
0.825000 0.257500 0.193750
0.880000 0.257500 0.193750
0.000000 0.316875 0.193750
0.055000 0.316875 0.193750
0.110000 0.316875 0.193750
0.165000 0.316875 0.193750
0.220000 0.316875 0.193750
0.275000 0.316875 0.193750
0.330000 0.316875 0.193750
0.385000 0.316875 0.193750
0.440000 0.316875 0.193750
0.495000 0.316875 0.193750
0.550000 0.316875 0.193750
0.605000 0.316875 0.193750
0.660000 0.316875 0.193750
0.715000 0.316875 0.193750
0.770000 0.316875 0.193750
0.825000 0.316875 0.193750
0.880000 0.316875 0.193750
0.000000 0.376250 0.193750
0.055000 0.376250 0.193750
0.110000 0.376250 0.193750
0.165000 0.376250 0.193750
0.220000 0.376250 0.193750
0.275000 0.376250 0.193750
0.330000 0.376250 0.193750
0.385000 0.376250 0.193750
0.440000 0.376250 0.193750
0.495000 0.376250 0.193750
0.550000 0.376250 0.193750
0.605000 0.376250 0.193750
0.660000 0.376250 0.193750
0.715000 0.376250 0.193750
0.770000 0.376250 0.193750
0.825000 0.376250 0.193750
0.880000 0.376250 0.193750
0.000000 0.435625 0.193750
0.055000 0.435625 0.193750
0.110000 0.435625 0.193750
0.165000 0.435625 0.193750
0.220000 0.435625 0.193750
0.275000 0.435625 0.193750
0.330000 0.435625 0.193750
0.385000 0.435625 0.193750
0.440000 0.435625 0.193750
0.495000 0.435625 0.193750
0.550000 0.435625 0.193750
0.605000 0.435625 0.193750
0.660000 0.435625 0.193750
0.715000 0.435625 0.193750
0.770000 0.435625 0.193750
0.825000 0.435625 0.193750
0.880000 0.435625 0.193750
0.000000 0.495000 0.193750
0.055000 0.495000 0.193750
0.110000 0.495000 0.193750
0.165000 0.495000 0.193750
0.220000 0.495000 0.193750
0.275000 0.495000 0.193750
0.330000 0.495000 0.193750
0.385000 0.495000 0.193750
0.440000 0.495000 0.193750
0.495000 0.495000 0.193750
0.550000 0.495000 0.193750
0.605000 0.495000 0.193750
0.660000 0.495000 0.193750
0.715000 0.495000 0.193750
0.770000 0.495000 0.193750
0.825000 0.495000 0.193750
0.880000 0.495000 0.193750
0.000000 0.554375 0.193750
0.055000 0.554375 0.193750
0.110000 0.554375 0.193750
0.165000 0.554375 0.193750
0.220000 0.554375 0.193750
0.275000 0.554375 0.193750
0.330000 0.554375 0.193750
0.385000 0.554375 0.193750
0.440000 0.554375 0.193750
0.495000 0.554375 0.193750
0.550000 0.554375 0.193750
0.605000 0.554375 0.193750
0.660000 0.554375 0.193750
0.715000 0.554375 0.193750
0.770000 0.554375 0.193750
0.825000 0.554375 0.193750
0.880000 0.554375 0.193750
0.000000 0.613750 0.193750
0.055000 0.613750 0.193750
0.110000 0.613750 0.193750
0.165000 0.613750 0.193750
0.220000 0.613750 0.193750
0.275000 0.613750 0.193750
0.330000 0.613750 0.193750
0.385000 0.613750 0.193750
0.440000 0.613750 0.193750
0.495000 0.613750 0.193750
0.550000 0.613750 0.193750
0.605000 0.613750 0.193750
0.660000 0.613750 0.193750
0.715000 0.613750 0.193750
0.770000 0.613750 0.193750
0.825000 0.613750 0.193750
0.880000 0.613750 0.193750
0.000000 0.673125 0.193750
0.055000 0.673125 0.193750
0.110000 0.673125 0.193750
0.165000 0.673125 0.193750
0.220000 0.673125 0.193750
0.275000 0.673125 0.193750
0.330000 0.673125 0.193750
0.385000 0.673125 0.193750
0.440000 0.673125 0.193750
0.495000 0.673125 0.193750
0.550000 0.673125 0.193750
0.605000 0.673125 0.193750
0.660000 0.673125 0.193750
0.715000 0.673125 0.193750
0.770000 0.673125 0.193750
0.825000 0.673125 0.193750
0.880000 0.673125 0.193750
0.000000 0.732500 0.193750
0.055000 0.732500 0.193750
0.110000 0.732500 0.193750
0.165000 0.732500 0.193750
0.220000 0.732500 0.193750
0.275000 0.732500 0.193750
0.330000 0.732500 0.193750
0.385000 0.732500 0.193750
0.440000 0.732500 0.193750
0.495000 0.732500 0.193750
0.550000 0.732500 0.193750
0.605000 0.732500 0.193750
0.660000 0.732500 0.193750
0.715000 0.732500 0.193750
0.770000 0.732500 0.193750
0.825000 0.732500 0.193750
0.880000 0.732500 0.193750
0.000000 0.791875 0.193750
0.055000 0.791875 0.193750
0.110000 0.791875 0.193750
0.165000 0.791875 0.193750
0.220000 0.791875 0.193750
0.275000 0.791875 0.193750
0.330000 0.791875 0.193750
0.385000 0.791875 0.193750
0.440000 0.791875 0.193750
0.495000 0.791875 0.193750
0.550000 0.791875 0.193750
0.605000 0.791875 0.193750
0.660000 0.791875 0.193750
0.715000 0.791875 0.193750
0.770000 0.791875 0.193750
0.825000 0.791875 0.193750
0.880000 0.791875 0.193750
0.000000 0.851250 0.193750
0.055000 0.851250 0.193750
0.110000 0.851250 0.193750
0.165000 0.851250 0.193750
0.220000 0.851250 0.193750
0.275000 0.851250 0.193750
0.330000 0.851250 0.193750
0.385000 0.851250 0.193750
0.440000 0.851250 0.193750
0.495000 0.851250 0.193750
0.550000 0.851250 0.193750
0.605000 0.851250 0.193750
0.660000 0.851250 0.193750
0.715000 0.851250 0.193750
0.770000 0.851250 0.193750
0.825000 0.851250 0.193750
0.880000 0.851250 0.193750
0.000000 0.910625 0.193750
0.055000 0.910625 0.193750
0.110000 0.910625 0.193750
0.165000 0.910625 0.193750
0.220000 0.910625 0.193750
0.275000 0.910625 0.193750
0.330000 0.910625 0.193750
0.385000 0.910625 0.193750
0.440000 0.910625 0.193750
0.495000 0.910625 0.193750
0.550000 0.910625 0.193750
0.605000 0.910625 0.193750
0.660000 0.910625 0.193750
0.715000 0.910625 0.193750
0.770000 0.910625 0.193750
0.825000 0.910625 0.193750
0.880000 0.910625 0.193750
0.000000 0.970000 0.193750
0.055000 0.970000 0.193750
0.110000 0.970000 0.193750
0.165000 0.970000 0.193750
0.220000 0.970000 0.193750
0.275000 0.970000 0.193750
0.330000 0.970000 0.193750
0.385000 0.970000 0.193750
0.440000 0.970000 0.193750
0.495000 0.970000 0.193750
0.550000 0.970000 0.193750
0.605000 0.970000 0.193750
0.660000 0.970000 0.193750
0.715000 0.970000 0.193750
0.770000 0.970000 0.193750
0.825000 0.970000 0.193750
0.880000 0.970000 0.193750
0.000000 0.020000 0.265625
0.055000 0.020000 0.265625
0.110000 0.020000 0.265625
0.165000 0.020000 0.265625
0.220000 0.020000 0.265625
0.275000 0.020000 0.265625
0.330000 0.020000 0.265625
0.385000 0.020000 0.265625
0.440000 0.020000 0.265625
0.495000 0.020000 0.265625
0.550000 0.020000 0.265625
0.605000 0.020000 0.265625
0.660000 0.020000 0.265625
0.715000 0.020000 0.265625
0.770000 0.020000 0.265625
0.825000 0.020000 0.265625
0.880000 0.020000 0.265625
0.000000 0.079375 0.265625
0.055000 0.079375 0.265625
0.110000 0.079375 0.265625
