resources/luts/cool_blue.cube
TITLE "Cool Blue"
LUT_3D_SIZE 9
0.000000 0.020000 0.050000
0.110000 0.020000 0.050000
0.220000 0.020000 0.050000
0.330000 0.020000 0.050000
0.440000 0.020000 0.050000
0.550000 0.020000 0.050000
0.660000 0.020000 0.050000
0.770000 0.020000 0.050000
0.880000 0.020000 0.050000
0.000000 0.138750 0.050000
0.110000 0.138750 0.050000
0.220000 0.138750 0.050000
0.330000 0.138750 0.050000
0.440000 0.138750 0.050000
0.550000 0.138750 0.050000
0.660000 0.138750 0.050000
0.770000 0.138750 0.050000
0.880000 0.138750 0.050000
0.000000 0.257500 0.050000
0.110000 0.257500 0.050000
0.220000 0.257500 0.050000
0.330000 0.257500 0.050000
0.440000 0.257500 0.050000
0.550000 0.257500 0.050000
0.660000 0.257500 0.050000
0.770000 0.257500 0.050000
0.880000 0.257500 0.050000
0.000000 0.376250 0.050000
0.110000 0.376250 0.050000
0.220000 0.376250 0.050000
0.330000 0.376250 0.050000
0.440000 0.376250 0.050000
0.550000 0.376250 0.050000
0.660000 0.376250 0.050000
0.770000 0.376250 0.050000
0.880000 0.376250 0.050000
0.000000 0.495000 0.050000
0.110000 0.495000 0.050000
0.220000 0.495000 0.050000
0.330000 0.495000 0.050000
0.440000 0.495000 0.050000
0.550000 0.495000 0.050000
0.660000 0.495000 0.050000
0.770000 0.495000 0.050000
0.880000 0.495000 0.050000
0.000000 0.613750 0.050000
0.110000 0.613750 0.050000
0.220000 0.613750 0.050000
0.330000 0.613750 0.050000
0.440000 0.613750 0.050000
0.550000 0.613750 0.050000
0.660000 0.613750 0.050000
0.770000 0.613750 0.050000
0.880000 0.613750 0.050000
0.000000 0.732500 0.050000
0.110000 0.732500 0.050000
0.220000 0.732500 0.050000
0.330000 0.732500 0.050000
0.440000 0.732500 0.050000
0.550000 0.732500 0.050000
0.660000 0.732500 0.050000
0.770000 0.732500 0.050000
0.880000 0.732500 0.050000
0.000000 0.851250 0.050000
0.110000 0.851250 0.050000
0.220000 0.851250 0.050000
0.330000 0.851250 0.050000
0.440000 0.851250 0.050000
0.550000 0.851250 0.050000
0.660000 0.851250 0.050000
0.770000 0.851250 0.050000
0.880000 0.851250 0.050000
0.000000 0.970000 0.050000
0.110000 0.970000 0.050000
0.220000 0.970000 0.050000
0.330000 0.970000 0.050000
0.440000 0.970000 0.050000
0.550000 0.970000 0.050000
0.660000 0.970000 0.050000
0.770000 0.970000 0.050000
0.880000 0.970000 0.050000
0.000000 0.020000 0.193750
0.110000 0.020000 0.193750
0.220000 0.020000 0.193750
0.330000 0.020000 0.193750
0.440000 0.020000 0.193750
0.550000 0.020000 0.193750
0.660000 0.020000 0.193750
0.770000 0.020000 0.193750
0.880000 0.020000 0.193750
0.000000 0.138750 0.193750
0.110000 0.138750 0.193750
0.220000 0.138750 0.193750
0.330000 0.138750 0.193750
0.440000 0.138750 0.193750
0.550000 0.138750 0.193750
0.660000 0.138750 0.193750
0.770000 0.138750 0.193750
0.880000 0.138750 0.193750
0.000000 0.257500 0.193750
0.110000 0.257500 0.193750
0.220000 0.257500 0.193750
0.330000 0.257500 0.193750
0.440000 0.257500 0.193750
0.550000 0.257500 0.193750
0.660000 0.257500 0.193750
0.770000 0.257500 0.193750
0.880000 0.257500 0.193750
0.000000 0.376250 0.193750
0.110000 0.376250 0.193750
0.220000 0.376250 0.193750
0.330000 0.376250 0.193750
0.440000 0.376250 0.193750
0.550000 0.376250 0.193750
0.660000 0.376250 0.193750
0.770000 0.376250 0.193750
0.880000 0.376250 0.193750
0.000000 0.495000 0.193750
0.110000 0.495000 0.193750
0.220000 0.495000 0.193750
0.330000 0.495000 0.193750
0.440000 0.495000 0.193750
0.550000 0.495000 0.193750
0.660000 0.495000 0.193750
0.770000 0.495000 0.193750
0.880000 0.495000 0.193750
0.000000 0.613750 0.193750
0.110000 0.613750 0.193750
0.220000 0.613750 0.193750
0.330000 0.613750 0.193750
0.440000 0.613750 0.193750
0.550000 0.613750 0.193750
0.660000 0.613750 0.193750
0.770000 0.613750 0.193750
0.880000 0.613750 0.193750
0.000000 0.732500 0.193750
0.110000 0.732500 0.193750
0.220000 0.732500 0.193750
0.330000 0.732500 0.193750
0.440000 0.732500 0.193750
0.550000 0.732500 0.193750
0.660000 0.732500 0.193750
0.770000 0.732500 0.193750
0.880000 0.732500 0.193750
0.000000 0.851250 0.193750
0.110000 0.851250 0.193750
0.220000 0.851250 0.193750
0.330000 0.851250 0.193750
0.440000 0.851250 0.193750
0.550000 0.851250 0.193750
0.660000 0.851250 0.193750
0.770000 0.851250 0.193750
0.880000 0.851250 0.193750
0.000000 0.970000 0.193750
0.110000 0.970000 0.193750
0.220000 0.970000 0.193750
0.330000 0.970000 0.193750
0.440000 0.970000 0.193750
0.550000 0.970000 0.193750
0.660000 0.970000 0.193750
0.770000 0.970000 0.193750
0.880000 0.970000 0.193750
0.000000 0.020000 0.337500
0.110000 0.020000 0.337500
0.220000 0.020000 0.337500
0.330000 0.020000 0.337500
0.440000 0.020000 0.337500
0.550000 0.020000 0.337500
0.660000 0.020000 0.337500
0.770000 0.020000 0.337500
0.880000 0.020000 0.337500
0.000000 0.138750 0.337500
0.110000 0.138750 0.337500
0.220000 0.138750 0.337500
0.330000 0.138750 0.337500
0.440000 0.138750 0.337500
0.550000 0.138750 0.337500
0.660000 0.138750 0.337500
0.770000 0.138750 0.337500
0.880000 0.138750 0.337500
0.000000 0.257500 0.337500
0.110000 0.257500 0.337500
0.220000 0.257500 0.337500
0.330000 0.257500 0.337500
0.440000 0.257500 0.337500
0.550000 0.257500 0.337500
0.660000 0.257500 0.337500
0.770000 0.257500 0.337500
0.880000 0.257500 0.337500
0.000000 0.376250 0.337500
0.110000 0.376250 0.337500
0.220000 0.376250 0.337500
0.330000 0.376250 0.337500
0.440000 0.376250 0.337500
0.550000 0.376250 0.337500
0.660000 0.376250 0.337500
0.770000 0.376250 0.337500
0.880000 0.376250 0.337500
0.000000 0.495000 0.337500
0.110000 0.495000 0.337500
0.220000 0.495000 0.337500
0.330000 0.495000 0.337500
0.440000 0.495000 0.337500
0.550000 0.495000 0.337500
0.660000 0.495000 0.337500
0.770000 0.495000 0.337500
0.880000 0.495000 0.337500
0.000000 0.613750 0.337500
0.110000 0.613750 0.337500
0.220000 0.613750 0.337500
0.330000 0.613750 0.337500
0.440000 0.613750 0.337500
0.550000 0.613750 0.337500
0.660000 0.613750 0.337500
0.770000 0.613750 0.337500
0.880000 0.613750 0.337500
0.000000 0.732500 0.337500
0.110000 0.732500 0.337500
0.220000 0.732500 0.337500
0.330000 0.732500 0.337500
0.440000 0.732500 0.337500
0.550000 0.732500 0.337500
0.660000 0.732500 0.337500
0.770000 0.732500 0.337500
0.880000 0.732500 0.337500
0.000000 0.851250 0.337500
0.110000 0.851250 0.337500
0.220000 0.851250 0.337500
0.330000 0.851250 0.337500
0.440000 0.851250 0.337500
0.550000 0.851250 0.337500
0.660000 0.851250 0.337500
0.770000 0.851250 0.337500
0.880000 0.851250 0.337500
0.000000 0.970000 0.337500
0.110000 0.970000 0.337500
0.220000 0.970000 0.337500
0.330000 0.970000 0.337500
0.440000 0.970000 0.337500
0.550000 0.970000 0.337500
0.660000 0.970000 0.337500
0.770000 0.970000 0.337500
0.880000 0.970000 0.337500
0.000000 0.020000 0.481250
0.110000 0.020000 0.481250
0.220000 0.020000 0.481250
0.330000 0.020000 0.481250
0.440000 0.020000 0.481250
0.550000 0.020000 0.481250
0.660000 0.020000 0.481250
0.770000 0.020000 0.481250
0.880000 0.020000 0.481250
0.000000 0.138750 0.481250
0.110000 0.138750 0.481250
0.220000 0.138750 0.481250
0.330000 0.138750 0.481250
0.440000 0.138750 0.481250
0.550000 0.138750 0.481250
0.660000 0.138750 0.481250
0.770000 0.138750 0.481250
0.880000 0.138750 0.481250
0.000000 0.257500 0.481250
0.110000 0.257500 0.481250
0.220000 0.257500 0.481250
0.330000 0.257500 0.481250
0.440000 0.257500 0.481250
0.550000 0.257500 0.481250
0.660000 0.257500 0.481250
0.770000 0.257500 0.481250
0.880000 0.257500 0.481250
0.000000 0.376250 0.481250
0.110000 0.376250 0.481250
0.220000 0.376250 0.481250
0.330000 0.376250 0.481250
0.440000 0.376250 0.481250
0.550000 0.376250 0.481250
0.660000 0.376250 0.481250
0.770000 0.376250 0.481250
0.880000 0.376250 0.481250
0.000000 0.495000 0.481250
0.110000 0.495000 0.481250
0.220000 0.495000 0.481250
0.330000 0.495000 0.481250
0.440000 0.495000 0.481250
0.550000 0.495000 0.481250
0.660000 0.495000 0.481250
0.770000 0.495000 0.481250
0.880000 0.495000 0.481250
0.000000 0.613750 0.481250
0.110000 0.613750 0.481250
0.220000 0.613750 0.481250
0.330000 0.613750 0.481250
0.440000 0.613750 0.481250
0.550000 0.613750 0.481250
0.660000 0.613750 0.481250
0.770000 0.613750 0.481250
0.880000 0.613750 0.481250
0.000000 0.732500 0.481250
0.110000 0.732500 0.481250
0.220000 0.732500 0.481250
0.330000 0.732500 0.481250
0.440000 0.732500 0.481250
0.550000 0.732500 0.481250
0.660000 0.732500 0.481250
0.770000 0.732500 0.481250
0.880000 0.732500 0.481250
0.000000 0.851250 0.481250
0.110000 0.851250 0.481250
0.220000 0.851250 0.481250
0.330000 0.851250 0.481250
0.440000 0.851250 0.481250
0.550000 0.851250 0.481250
0.660000 0.851250 0.481250
0.770000 0.851250 0.481250
0.880000 0.851250 0.481250
0.000000 0.970000 0.481250
0.110000 0.970000 0.481250
0.220000 0.970000 0.481250
0.330000 0.970000 0.481250
0.440000 0.970000 0.481250
0.550000 0.970000 0.481250
0.660000 0.970000 0.481250
0.770000 0.970000 0.481250
0.880000 0.970000 0.481250
0.000000 0.020000 0.625000
0.110000 0.020000 0.625000
0.220000 0.020000 0.625000
0.330000 0.020000 0.625000
0.440000 0.020000 0.625000
0.550000 0.020000 0.625000
0.660000 0.020000 0.625000
0.770000 0.020000 0.625000
0.880000 0.020000 0.625000
0.000000 0.138750 0.625000
0.110000 0.138750 0.625000
0.220000 0.138750 0.625000
0.330000 0.138750 0.625000
0.440000 0.138750 0.625000
0.550000 0.138750 0.625000
0.660000 0.138750 0.625000
0.770000 0.138750 0.625000
0.880000 0.138750 0.625000
0.000000 0.257500 0.625000
0.110000 0.257500 0.625000
0.220000 0.257500 0.625000
0.330000 0.257500 0.625000
0.440000 0.257500 0.625000
0.550000 0.257500 0.625000
0.660000 0.257500 0.625000
0.770000 0.257500 0.625000
0.880000 0.257500 0.625000
0.000000 0.376250 0.625000
0.110000 0.376250 0.625000
0.220000 0.376250 0.625000
0.330000 0.376250 0.625000
0.440000 0.376250 0.625000
0.550000 0.376250 0.625000
0.660000 0.376250 0.625000
0.770000 0.376250 0.625000
0.880000 0.376250 0.625000
0.000000 0.495000 0.625000
0.110000 0.495000 0.625000
0.220000 0.495000 0.625000
0.330000 0.495000 0.625000
0.440000 0.495000 0.625000
0.550000 0.495000 0.625000
0.660000 0.495000 0.625000
0.770000 0.495000 0.625000
0.880000 0.495000 0.625000
0.000000 0.613750 0.625000
0.110000 0.613750 0.625000
0.220000 0.613750 0.625000
0.330000 0.613750 0.625000
0.440000 0.613750 0.625000
0.550000 0.613750 0.625000
0.660000 0.613750 0.625000
0.770000 0.613750 0.625000
0.880000 0.613750 0.625000
0.000000 0.732500 0.625000
0.110000 0.732500 0.625000
0.220000 0.732500 0.625000
0.330000 0.732500 0.625000
0.440000 0.732500 0.625000
0.550000 0.732500 0.625000
0.660000 0.732500 0.625000
0.770000 0.732500 0.625000
0.880000 0.732500 0.625000
0.000000 0.851250 0.625000
0.110000 0.851250 0.625000
0.220000 0.851250 0.625000
0.330000 0.851250 0.625000
0.440000 0.851250 0.625000
0.550000 0.851250 0.625000
0.660000 0.851250 0.625000
0.770000 0.851250 0.625000
0.880000 0.851250 0.625000
0.000000 0.970000 0.625000
0.110000 0.970000 0.625000
0.220000 0.970000 0.625000
0.330000 0.970000 0.625000
0.440000 0.970000 0.625000
0.550000 0.970000 0.625000
0.660000 0.970000 0.625000
0.770000 0.970000 0.625000
0.880000 0.970000 0.625000
0.000000 0.020000 0.768750
0.110000 0.020000 0.768750
0.220000 0.020000 0.768750
0.330000 0.020000 0.768750
0.440000 0.020000 0.768750
0.550000 0.020000 0.768750
0.660000 0.020000 0.768750
0.770000 0.020000 0.768750
0.880000 0.020000 0.768750
0.000000 0.138750 0.768750
0.110000 0.138750 0.768750
0.220000 0.138750 0.768750
0.330000 0.138750 0.768750
0.440000 0.138750 0.768750
0.550000 0.138750 0.768750
0.660000 0.138750 0.768750
0.770000 0.138750 0.768750
0.880000 0.138750 0.768750
0.000000 0.257500 0.768750
0.110000 0.257500 0.768750
0.220000 0.257500 0.768750
0.330000 0.257500 0.768750
0.440000 0.257500 0.768750
0.550000 0.257500 0.768750
0.660000 0.257500 0.768750
0.770000 0.257500 0.768750
0.880000 0.257500 0.768750
0.000000 0.376250 0.768750
0.110000 0.376250 0.768750
0.220000 0.376250 0.768750
0.330000 0.376250 0.768750
0.440000 0.376250 0.768750
0.550000 0.376250 0.768750
0.660000 0.376250 0.768750
0.770000 0.376250 0.768750
0.880000 0.376250 0.768750
0.000000 0.495000 0.768750
0.110000 0.495000 0.768750
0.220000 0.495000 0.768750
0.330000 0.495000 0.768750
0.440000 0.495000 0.768750
0.550000 0.495000 0.768750
0.660000 0.495000 0.768750
0.770000 0.495000 0.768750
0.880000 0.495000 0.768750
0.000000 0.613750 0.768750
0.110000 0.613750 0.768750
0.220000 0.613750 0.768750
0.330000 0.613750 0.768750
0.440000 0.613750 0.768750
0.550000 0.613750 0.768750
0.660000 0.613750 0.768750
0.770000 0.613750 0.768750
0.880000 0.613750 0.768750
0.000000 0.732500 0.768750
0.110000 0.732500 0.768750
0.220000 0.732500 0.768750
0.330000 0.732500 0.768750
0.440000 0.732500 0.768750
0.550000 0.732500 0.768750
0.660000 0.732500 0.768750
0.770000 0.732500 0.768750
0.880000 0.732500 0.768750
0.000000 0.851250 0.768750
0.110000 0.851250 0.768750
0.220000 0.851250 0.768750
0.330000 0.851250 0.768750
0.440000 0.851250 0.768750
0.550000 0.851250 0.768750
0.660000 0.851250 0.768750
0.770000 0.851250 0.768750
0.880000 0.851250 0.768750
0.000000 0.970000 0.768750
0.110000 0.970000 0.768750
0.220000 0.970000 0.768750
0.330000 0.970000 0.768750
0.440000 0.970000 0.768750
0.550000 0.970000 0.768750
0.660000 0.970000 0.768750
0.770000 0.970000 0.768750
0.880000 0.970000 0.768750
0.000000 0.020000 0.912500
0.110000 0.020000 0.912500
0.220000 0.020000 0.912500
0.330000 0.020000 0.912500
0.440000 0.020000 0.912500
0.550000 0.020000 0.912500
0.660000 0.020000 0.912500
0.770000 0.020000 0.912500
0.880000 0.020000 0.912500
0.000000 0.138750 0.912500
0.110000 0.138750 0.912500
0.220000 0.138750 0.912500
0.330000 0.138750 0.912500
0.440000 0.138750 0.912500
0.550000 0.138750 0.912500
0.660000 0.138750 0.912500
0.770000 0.138750 0.912500
0.880000 0.138750 0.912500
0.000000 0.257500 0.912500
0.110000 0.257500 0.912500
0.220000 0.257500 0.912500
0.330000 0.257500 0.912500
0.440000 0.257500 0.912500
0.550000 0.257500 0.912500
0.660000 0.257500 0.912500
0.770000 0.257500 0.912500
0.880000 0.257500 0.912500
0.000000 0.376250 0.912500
0.110000 0.376250 0.912500
0.220000 0.376250 0.912500
0.330000 0.376250 0.912500
0.440000 0.376250 0.912500
0.550000 0.376250 0.912500
0.660000 0.376250 0.912500
0.770000 0.376250 0.912500
0.880000 0.376250 0.912500
0.000000 0.495000 0.912500
0.110000 0.495000 0.912500
0.220000 0.495000 0.912500
0.330000 0.495000 0.912500
0.440000 0.495000 0.912500
0.550000 0.495000 0.912500
0.660000 0.495000 0.912500
0.770000 0.495000 0.912500
0.880000 0.495000 0.912500
0.000000 0.613750 0.912500
0.110000 0.613750 0.912500
0.220000 0.613750 0.912500
0.330000 0.613750 0.912500
0.440000 0.613750 0.912500
0.550000 0.613750 0.912500
0.660000 0.613750 0.912500
0.770000 0.613750 0.912500
0.880000 0.613750 0.912500
0.000000 0.732500 0.912500
0.110000 0.732500 0.912500
0.220000 0.732500 0.912500
0.330000 0.732500 0.912500
0.440000 0.732500 0.912500
0.550000 0.732500 0.912500
0.660000 0.732500 0.912500
0.770000 0.732500 0.912500
0.880000 0.732500 0.912500
0.000000 0.851250 0.912500
0.110000 0.851250 0.912500
0.220000 0.851250 0.912500
0.330000 0.851250 0.912500
0.440000 0.851250 0.912500
0.550000 0.851250 0.912500
0.660000 0.851250 0.912500
0.770000 0.851250 0.912500
0.880000 0.851250 0.912500
0.000000 0.970000 0.912500
0.110000 0.970000 0.912500
0.220000 0.970000 0.912500
0.330000 0.970000 0.912500
0.440000 0.970000 0.912500
0.550000 0.970000 0.912500
0.660000 0.970000 0.912500
0.770000 0.970000 0.912500
0.880000 0.970000 0.912500
0.000000 0.020000 1.000000
0.110000 0.020000 1.000000
0.220000 0.020000 1.000000
0.330000 0.020000 1.000000
0.440000 0.020000 1.000000
0.550000 0.020000 1.000000
0.660000 0.020000 1.000000
0.770000 0.020000 1.000000
0.880000 0.020000 1.000000
0.000000 0.138750 1.000000
0.110000 0.138750 1.000000
0.220000 0.138750 1.000000
0.330000 0.138750 1.000000
0.440000 0.138750 1.000000
0.550000 0.138750 1.000000
0.660000 0.138750 1.000000
0.770000 0.138750 1.000000
0.880000 0.138750 1.000000
0.000000 0.257500 1.000000
0.110000 0.257500 1.000000
0.220000 0.257500 1.000000
0.330000 0.257500 1.000000
0.440000 0.257500 1.000000
0.550000 0.257500 1.000000
0.660000 0.257500 1.000000
0.770000 0.257500 1.000000
0.880000 0.257500 1.000000
0.000000 0.376250 1.000000
0.110000 0.376250 1.000000
0.220000 0.376250 1.000000
0.330000 0.376250 1.000000
0.440000 0.376250 1.000000
0.550000 0.376250 1.000000
0.660000 0.376250 1.000000
0.770000 0.376250 1.000000
0.880000 0.376250 1.000000
0.000000 0.495000 1.000000
0.110000 0.495000 1.000000
0.220000 0.495000 1.000000
0.330000 0.495000 1.000000
0.440000 0.495000 1.000000
0.550000 0.495000 1.000000
0.660000 0.495000 1.000000
0.770000 0.495000 1.000000
0.880000 0.495000 1.000000
0.000000 0.613750 1.000000
0.110000 0.613750 1.000000
0.220000 0.613750 1.000000
0.330000 0.613750 1.000000
0.440000 0.613750 1.000000
0.550000 0.613750 1.000000
0.660000 0.613750 1.000000
0.770000 0.613750 1.000000
0.880000 0.613750 1.000000
0.000000 0.732500 1.000000
0.110000 0.732500 1.000000
0.220000 0.732500 1.000000
0.330000 0.732500 1.000000
0.440000 0.732500 1.000000
0.550000 0.732500 1.000000
0.660000 0.732500 1.000000
0.770000 0.732500 1.000000
0.880000 0.732500 1.000000
0.000000 0.851250 1.000000
0.110000 0.851250 1.000000
0.220000 0.851250 1.000000
0.330000 0.851250 1.000000
0.440000 0.851250 1.000000
0.550000 0.851250 1.000000
0.660000 0.851250 1.000000
0.770000 0.851250 1.000000
0.880000 0.851250 1.000000
0.000000 0.970000 1.000000
0.110000 0.970000 1.000000
0.220000 0.970000 1.000000
0.330000 0.970000 1.000000
0.440000 0.970000 1.000000
0.550000 0.970000 1.000000
0.660000 0.970000 1.000000
0.770000 0.970000 1.000000
0.880000 0.970000 1.000000
0.000000 0.020000 1.000000
0.110000 0.020000 1.000000
0.220000 0.020000 1.000000
0.330000 0.020000 1.000000
0.440000 0.020000 1.000000
0.550000 0.020000 1.000000
0.660000 0.020000 1.000000
0.770000 0.020000 1.000000
0.880000 0.020000 1.000000
0.000000 0.138750 1.000000
0.110000 0.138750 1.000000
0.220000 0.138750 1.000000
0.330000 0.138750 1.000000
0.440000 0.138750 1.000000
0.550000 0.138750 1.000000
0.660000 0.138750 1.000000
0.770000 0.138750 1.000000
0.880000 0.138750 1.000000
0.000000 0.257500 1.000000
0.110000 0.257500 1.000000
0.220000 0.257500 1.000000
0.330000 0.257500 1.000000
0.440000 0.257500 1.000000
0.550000 0.257500 1.000000
0.660000 0.257500 1.000000
0.770000 0.257500 1.000000
0.880000 0.257500 1.000000
0.000000 0.376250 1.000000
0.110000 0.376250 1.000000
0.220000 0.376250 1.000000
0.330000 0.376250 1.000000
0.440000 0.376250 1.000000
0.550000 0.376250 1.000000
0.660000 0.376250 1.000000
0.770000 0.376250 1.000000
0.880000 0.376250 1.000000
0.000000 0.495000 1.000000
0.110000 0.495000 1.000000
0.220000 0.495000 1.000000
0.330000 0.495000 1.000000
0.440000 0.495000 1.000000
0.550000 0.495000 1.000000
0.660000 0.495000 1.000000
0.770000 0.495000 1.000000
0.880000 0.495000 1.000000
0.000000 0.613750 1.000000
0.110000 0.613750 1.000000
0.220000 0.613750 1.000000
0.330000 0.613750 1.000000
0.440000 0.613750 1.000000
0.550000 0.613750 1.000000
0.660000 0.613750 1.000000
0.770000 0.613750 1.000000
0.880000 0.613750 1.000000
0.000000 0.732500 1.000000
0.110000 0.732500 1.000000
0.220000 0.732500 1.000000
0.330000 0.732500 1.000000
0.440000 0.732500 1.000000
0.550000 0.732500 1.000000
0.660000 0.732500 1.000000
0.770000 0.732500 1.000000
0.880000 0.732500 1.000000
0.000000 0.851250 1.000000
0.110000 0.851250 1.000000
0.220000 0.851250 1.000000
0.330000 0.851250 1.000000
0.440000 0.851250 1.000000
0.550000 0.851250 1.000000
0.660000 0.851250 1.000000
0.770000 0.851250 1.000000
0.880000 0.851250 1.000000
0.000000 0.970000 1.000000
0.110000 0.970000 1.000000
0.220000 0.970000 1.000000
0.330000 0.970000 1.000000
0.440000 0.970000 1.000000
0.550000 0.970000 1.000000
0.660000 0.970000 1.000000
0.770000 0.970000 1.000000
0.880000 0.970000 1.000000
