resources/luts/film_warm.cube
TITLE "Film Warm"
LUT_3D_SIZE 9
0.050000 0.020000 0.000000
0.187500 0.020000 0.000000
0.325000 0.020000 0.000000
0.462500 0.020000 0.000000
0.600000 0.020000 0.000000
0.737500 0.020000 0.000000
0.875000 0.020000 0.000000
1.000000 0.020000 0.000000
1.000000 0.020000 0.000000
0.050000 0.151250 0.000000
0.187500 0.151250 0.000000
0.325000 0.151250 0.000000
0.462500 0.151250 0.000000
0.600000 0.151250 0.000000
0.737500 0.151250 0.000000
0.875000 0.151250 0.000000
1.000000 0.151250 0.000000
1.000000 0.151250 0.000000
0.050000 0.282500 0.000000
0.187500 0.282500 0.000000
0.325000 0.282500 0.000000
0.462500 0.282500 0.000000
0.600000 0.282500 0.000000
0.737500 0.282500 0.000000
0.875000 0.282500 0.000000
1.000000 0.282500 0.000000
1.000000 0.282500 0.000000
0.050000 0.413750 0.000000
0.187500 0.413750 0.000000
0.325000 0.413750 0.000000
0.462500 0.413750 0.000000
0.600000 0.413750 0.000000
0.737500 0.413750 0.000000
0.875000 0.413750 0.000000
1.000000 0.413750 0.000000
1.000000 0.413750 0.000000
0.050000 0.545000 0.000000
0.187500 0.545000 0.000000
0.325000 0.545000 0.000000
0.462500 0.545000 0.000000
0.600000 0.545000 0.000000
0.737500 0.545000 0.000000
0.875000 0.545000 0.000000
1.000000 0.545000 0.000000
1.000000 0.545000 0.000000
0.050000 0.676250 0.000000
0.187500 0.676250 0.000000
0.325000 0.676250 0.000000
0.462500 0.676250 0.000000
0.600000 0.676250 0.000000
0.737500 0.676250 0.000000
0.875000 0.676250 0.000000
1.000000 0.676250 0.000000
1.000000 0.676250 0.000000
0.050000 0.807500 0.000000
0.187500 0.807500 0.000000
0.325000 0.807500 0.000000
0.462500 0.807500 0.000000
0.600000 0.807500 0.000000
0.737500 0.807500 0.000000
0.875000 0.807500 0.000000
1.000000 0.807500 0.000000
1.000000 0.807500 0.000000
0.050000 0.938750 0.000000
0.187500 0.938750 0.000000
0.325000 0.938750 0.000000
0.462500 0.938750 0.000000
0.600000 0.938750 0.000000
0.737500 0.938750 0.000000
0.875000 0.938750 0.000000
1.000000 0.938750 0.000000
1.000000 0.938750 0.000000
0.050000 1.000000 0.000000
0.187500 1.000000 0.000000
0.325000 1.000000 0.000000
0.462500 1.000000 0.000000
0.600000 1.000000 0.000000
0.737500 1.000000 0.000000
0.875000 1.000000 0.000000
1.000000 1.000000 0.000000
1.000000 1.000000 0.000000
0.050000 0.020000 0.086250
0.187500 0.020000 0.086250
0.325000 0.020000 0.086250
0.462500 0.020000 0.086250
0.600000 0.020000 0.086250
0.737500 0.020000 0.086250
0.875000 0.020000 0.086250
1.000000 0.020000 0.086250
1.000000 0.020000 0.086250
0.050000 0.151250 0.086250
0.187500 0.151250 0.086250
0.325000 0.151250 0.086250
0.462500 0.151250 0.086250
0.600000 0.151250 0.086250
0.737500 0.151250 0.086250
0.875000 0.151250 0.086250
1.000000 0.151250 0.086250
1.000000 0.151250 0.086250
0.050000 0.282500 0.086250
0.187500 0.282500 0.086250
0.325000 0.282500 0.086250
0.462500 0.282500 0.086250
0.600000 0.282500 0.086250
0.737500 0.282500 0.086250
0.875000 0.282500 0.086250
1.000000 0.282500 0.086250
1.000000 0.282500 0.086250
0.050000 0.413750 0.086250
0.187500 0.413750 0.086250
0.325000 0.413750 0.086250
0.462500 0.413750 0.086250
0.600000 0.413750 0.086250
0.737500 0.413750 0.086250
0.875000 0.413750 0.086250
1.000000 0.413750 0.086250
1.000000 0.413750 0.086250
0.050000 0.545000 0.086250
0.187500 0.545000 0.086250
0.325000 0.545000 0.086250
0.462500 0.545000 0.086250
0.600000 0.545000 0.086250
0.737500 0.545000 0.086250
0.875000 0.545000 0.086250
1.000000 0.545000 0.086250
1.000000 0.545000 0.086250
0.050000 0.676250 0.086250
0.187500 0.676250 0.086250
0.325000 0.676250 0.086250
0.462500 0.676250 0.086250
0.600000 0.676250 0.086250
0.737500 0.676250 0.086250
0.875000 0.676250 0.086250
1.000000 0.676250 0.086250
1.000000 0.676250 0.086250
0.050000 0.807500 0.086250
0.187500 0.807500 0.086250
0.325000 0.807500 0.086250
0.462500 0.807500 0.086250
0.600000 0.807500 0.086250
0.737500 0.807500 0.086250
0.875000 0.807500 0.086250
1.000000 0.807500 0.086250
1.000000 0.807500 0.086250
0.050000 0.938750 0.086250
0.187500 0.938750 0.086250
0.325000 0.938750 0.086250
0.462500 0.938750 0.086250
0.600000 0.938750 0.086250
0.737500 0.938750 0.086250
0.875000 0.938750 0.086250
1.000000 0.938750 0.086250
1.000000 0.938750 0.086250
0.050000 1.000000 0.086250
0.187500 1.000000 0.086250
0.325000 1.000000 0.086250
0.462500 1.000000 0.086250
0.600000 1.000000 0.086250
0.737500 1.000000 0.086250
0.875000 1.000000 0.086250
1.000000 1.000000 0.086250
1.000000 1.000000 0.086250
0.050000 0.020000 0.192500
0.187500 0.020000 0.192500
0.325000 0.020000 0.192500
0.462500 0.020000 0.192500
0.600000 0.020000 0.192500
0.737500 0.020000 0.192500
0.875000 0.020000 0.192500
1.000000 0.020000 0.192500
1.000000 0.020000 0.192500
0.050000 0.151250 0.192500
0.187500 0.151250 0.192500
0.325000 0.151250 0.192500
0.462500 0.151250 0.192500
0.600000 0.151250 0.192500
0.737500 0.151250 0.192500
0.875000 0.151250 0.192500
1.000000 0.151250 0.192500
1.000000 0.151250 0.192500
0.050000 0.282500 0.192500
0.187500 0.282500 0.192500
0.325000 0.282500 0.192500
0.462500 0.282500 0.192500
0.600000 0.282500 0.192500
0.737500 0.282500 0.192500
0.875000 0.282500 0.192500
1.000000 0.282500 0.192500
1.000000 0.282500 0.192500
0.050000 0.413750 0.192500
0.187500 0.413750 0.192500
0.325000 0.413750 0.192500
0.462500 0.413750 0.192500
0.600000 0.413750 0.192500
0.737500 0.413750 0.192500
0.875000 0.413750 0.192500
1.000000 0.413750 0.192500
1.000000 0.413750 0.192500
0.050000 0.545000 0.192500
0.187500 0.545000 0.192500
0.325000 0.545000 0.192500
0.462500 0.545000 0.192500
0.600000 0.545000 0.192500
0.737500 0.545000 0.192500
0.875000 0.545000 0.192500
1.000000 0.545000 0.192500
1.000000 0.545000 0.192500
0.050000 0.676250 0.192500
0.187500 0.676250 0.192500
0.325000 0.676250 0.192500
0.462500 0.676250 0.192500
0.600000 0.676250 0.192500
0.737500 0.676250 0.192500
0.875000 0.676250 0.192500
1.000000 0.676250 0.192500
1.000000 0.676250 0.192500
0.050000 0.807500 0.192500
0.187500 0.807500 0.192500
0.325000 0.807500 0.192500
0.462500 0.807500 0.192500
0.600000 0.807500 0.192500
0.737500 0.807500 0.192500
0.875000 0.807500 0.192500
1.000000 0.807500 0.192500
1.000000 0.807500 0.192500
0.050000 0.938750 0.192500
0.187500 0.938750 0.192500
0.325000 0.938750 0.192500
0.462500 0.938750 0.192500
0.600000 0.938750 0.192500
0.737500 0.938750 0.192500
0.875000 0.938750 0.192500
1.000000 0.938750 0.192500
1.000000 0.938750 0.192500
0.050000 1.000000 0.192500
0.187500 1.000000 0.192500
0.325000 1.000000 0.192500
0.462500 1.000000 0.192500
0.600000 1.000000 0.192500
0.737500 1.000000 0.192500
0.875000 1.000000 0.192500
1.000000 1.000000 0.192500
1.000000 1.000000 0.192500
0.050000 0.020000 0.298750
0.187500 0.020000 0.298750
0.325000 0.020000 0.298750
0.462500 0.020000 0.298750
0.600000 0.020000 0.298750
0.737500 0.020000 0.298750
0.875000 0.020000 0.298750
1.000000 0.020000 0.298750
1.000000 0.020000 0.298750
0.050000 0.151250 0.298750
0.187500 0.151250 0.298750
0.325000 0.151250 0.298750
0.462500 0.151250 0.298750
0.600000 0.151250 0.298750
0.737500 0.151250 0.298750
0.875000 0.151250 0.298750
1.000000 0.151250 0.298750
1.000000 0.151250 0.298750
0.050000 0.282500 0.298750
0.187500 0.282500 0.298750
0.325000 0.282500 0.298750
0.462500 0.282500 0.298750
0.600000 0.282500 0.298750
0.737500 0.282500 0.298750
0.875000 0.282500 0.298750
1.000000 0.282500 0.298750
1.000000 0.282500 0.298750
0.050000 0.413750 0.298750
0.187500 0.413750 0.298750
0.325000 0.413750 0.298750
0.462500 0.413750 0.298750
0.600000 0.413750 0.298750
0.737500 0.413750 0.298750
0.875000 0.413750 0.298750
1.000000 0.413750 0.298750
1.000000 0.413750 0.298750
0.050000 0.545000 0.298750
0.187500 0.545000 0.298750
0.325000 0.545000 0.298750
0.462500 0.545000 0.298750
0.600000 0.545000 0.298750
0.737500 0.545000 0.298750
0.875000 0.545000 0.298750
1.000000 0.545000 0.298750
1.000000 0.545000 0.298750
0.050000 0.676250 0.298750
0.187500 0.676250 0.298750
0.325000 0.676250 0.298750
0.462500 0.676250 0.298750
0.600000 0.676250 0.298750
0.737500 0.676250 0.298750
0.875000 0.676250 0.298750
1.000000 0.676250 0.298750
1.000000 0.676250 0.298750
0.050000 0.807500 0.298750
0.187500 0.807500 0.298750
0.325000 0.807500 0.298750
0.462500 0.807500 0.298750
0.600000 0.807500 0.298750
0.737500 0.807500 0.298750
0.875000 0.807500 0.298750
1.000000 0.807500 0.298750
1.000000 0.807500 0.298750
0.050000 0.938750 0.298750
0.187500 0.938750 0.298750
0.325000 0.938750 0.298750
0.462500 0.938750 0.298750
0.600000 0.938750 0.298750
0.737500 0.938750 0.298750
0.875000 0.938750 0.298750
1.000000 0.938750 0.298750
1.000000 0.938750 0.298750
0.050000 1.000000 0.298750
0.187500 1.000000 0.298750
0.325000 1.000000 0.298750
0.462500 1.000000 0.298750
0.600000 1.000000 0.298750
0.737500 1.000000 0.298750
0.875000 1.000000 0.298750
1.000000 1.000000 0.298750
1.000000 1.000000 0.298750
0.050000 0.020000 0.405000
0.187500 0.020000 0.405000
0.325000 0.020000 0.405000
0.462500 0.020000 0.405000
0.600000 0.020000 0.405000
0.737500 0.020000 0.405000
0.875000 0.020000 0.405000
1.000000 0.020000 0.405000
1.000000 0.020000 0.405000
0.050000 0.151250 0.405000
0.187500 0.151250 0.405000
0.325000 0.151250 0.405000
0.462500 0.151250 0.405000
0.600000 0.151250 0.405000
0.737500 0.151250 0.405000
0.875000 0.151250 0.405000
1.000000 0.151250 0.405000
1.000000 0.151250 0.405000
0.050000 0.282500 0.405000
0.187500 0.282500 0.405000
0.325000 0.282500 0.405000
0.462500 0.282500 0.405000
0.600000 0.282500 0.405000
0.737500 0.282500 0.405000
0.875000 0.282500 0.405000
1.000000 0.282500 0.405000
1.000000 0.282500 0.405000
0.050000 0.413750 0.405000
0.187500 0.413750 0.405000
0.325000 0.413750 0.405000
0.462500 0.413750 0.405000
0.600000 0.413750 0.405000
0.737500 0.413750 0.405000
0.875000 0.413750 0.405000
1.000000 0.413750 0.405000
1.000000 0.413750 0.405000
0.050000 0.545000 0.405000
0.187500 0.545000 0.405000
0.325000 0.545000 0.405000
0.462500 0.545000 0.405000
0.600000 0.545000 0.405000
0.737500 0.545000 0.405000
0.875000 0.545000 0.405000
1.000000 0.545000 0.405000
1.000000 0.545000 0.405000
0.050000 0.676250 0.405000
0.187500 0.676250 0.405000
0.325000 0.676250 0.405000
0.462500 0.676250 0.405000
0.600000 0.676250 0.405000
0.737500 0.676250 0.405000
0.875000 0.676250 0.405000
1.000000 0.676250 0.405000
1.000000 0.676250 0.405000
0.050000 0.807500 0.405000
0.187500 0.807500 0.405000
0.325000 0.807500 0.405000
0.462500 0.807500 0.405000
0.600000 0.807500 0.405000
0.737500 0.807500 0.405000
0.875000 0.807500 0.405000
1.000000 0.807500 0.405000
1.000000 0.807500 0.405000
0.050000 0.938750 0.405000
0.187500 0.938750 0.405000
0.325000 0.938750 0.405000
0.462500 0.938750 0.405000
0.600000 0.938750 0.405000
0.737500 0.938750 0.405000
0.875000 0.938750 0.405000
1.000000 0.938750 0.405000
1.000000 0.938750 0.405000
0.050000 1.000000 0.405000
0.187500 1.000000 0.405000
0.325000 1.000000 0.405000
0.462500 1.000000 0.405000
0.600000 1.000000 0.405000
0.737500 1.000000 0.405000
0.875000 1.000000 0.405000
1.000000 1.000000 0.405000
1.000000 1.000000 0.405000
0.050000 0.020000 0.511250
0.187500 0.020000 0.511250
0.325000 0.020000 0.511250
0.462500 0.020000 0.511250
0.600000 0.020000 0.511250
0.737500 0.020000 0.511250
0.875000 0.020000 0.511250
1.000000 0.020000 0.511250
1.000000 0.020000 0.511250
0.050000 0.151250 0.511250
0.187500 0.151250 0.511250
0.325000 0.151250 0.511250
0.462500 0.151250 0.511250
0.600000 0.151250 0.511250
0.737500 0.151250 0.511250
0.875000 0.151250 0.511250
1.000000 0.151250 0.511250
1.000000 0.151250 0.511250
0.050000 0.282500 0.511250
0.187500 0.282500 0.511250
0.325000 0.282500 0.511250
0.462500 0.282500 0.511250
0.600000 0.282500 0.511250
0.737500 0.282500 0.511250
0.875000 0.282500 0.511250
1.000000 0.282500 0.511250
1.000000 0.282500 0.511250
0.050000 0.413750 0.511250
0.187500 0.413750 0.511250
0.325000 0.413750 0.511250
0.462500 0.413750 0.511250
0.600000 0.413750 0.511250
0.737500 0.413750 0.511250
0.875000 0.413750 0.511250
1.000000 0.413750 0.511250
1.000000 0.413750 0.511250
0.050000 0.545000 0.511250
0.187500 0.545000 0.511250
0.325000 0.545000 0.511250
0.462500 0.545000 0.511250
0.600000 0.545000 0.511250
0.737500 0.545000 0.511250
0.875000 0.545000 0.511250
1.000000 0.545000 0.511250
1.000000 0.545000 0.511250
0.050000 0.676250 0.511250
0.187500 0.676250 0.511250
0.325000 0.676250 0.511250
0.462500 0.676250 0.511250
0.600000 0.676250 0.511250
0.737500 0.676250 0.511250
0.875000 0.676250 0.511250
1.000000 0.676250 0.511250
1.000000 0.676250 0.511250
0.050000 0.807500 0.511250
0.187500 0.807500 0.511250
0.325000 0.807500 0.511250
0.462500 0.807500 0.511250
0.600000 0.807500 0.511250
0.737500 0.807500 0.511250
0.875000 0.807500 0.511250
1.000000 0.807500 0.511250
1.000000 0.807500 0.511250
0.050000 0.938750 0.511250
0.187500 0.938750 0.511250
0.325000 0.938750 0.511250
0.462500 0.938750 0.511250
0.600000 0.938750 0.511250
0.737500 0.938750 0.511250
0.875000 0.938750 0.511250
1.000000 0.938750 0.511250
1.000000 0.938750 0.511250
0.050000 1.000000 0.511250
0.187500 1.000000 0.511250
0.325000 1.000000 0.511250
0.462500 1.000000 0.511250
0.600000 1.000000 0.511250
0.737500 1.000000 0.511250
0.875000 1.000000 0.511250
1.000000 1.000000 0.511250
1.000000 1.000000 0.511250
0.050000 0.020000 0.617500
0.187500 0.020000 0.617500
0.325000 0.020000 0.617500
0.462500 0.020000 0.617500
0.600000 0.020000 0.617500
0.737500 0.020000 0.617500
0.875000 0.020000 0.617500
1.000000 0.020000 0.617500
1.000000 0.020000 0.617500
0.050000 0.151250 0.617500
0.187500 0.151250 0.617500
0.325000 0.151250 0.617500
0.462500 0.151250 0.617500
0.600000 0.151250 0.617500
0.737500 0.151250 0.617500
0.875000 0.151250 0.617500
1.000000 0.151250 0.617500
1.000000 0.151250 0.617500
0.050000 0.282500 0.617500
0.187500 0.282500 0.617500
0.325000 0.282500 0.617500
0.462500 0.282500 0.617500
0.600000 0.282500 0.617500
0.737500 0.282500 0.617500
0.875000 0.282500 0.617500
1.000000 0.282500 0.617500
1.000000 0.282500 0.617500
0.050000 0.413750 0.617500
0.187500 0.413750 0.617500
0.325000 0.413750 0.617500
0.462500 0.413750 0.617500
0.600000 0.413750 0.617500
0.737500 0.413750 0.617500
0.875000 0.413750 0.617500
1.000000 0.413750 0.617500
1.000000 0.413750 0.617500
0.050000 0.545000 0.617500
0.187500 0.545000 0.617500
0.325000 0.545000 0.617500
0.462500 0.545000 0.617500
0.600000 0.545000 0.617500
0.737500 0.545000 0.617500
0.875000 0.545000 0.617500
1.000000 0.545000 0.617500
1.000000 0.545000 0.617500
0.050000 0.676250 0.617500
0.187500 0.676250 0.617500
0.325000 0.676250 0.617500
0.462500 0.676250 0.617500
0.600000 0.676250 0.617500
0.737500 0.676250 0.617500
0.875000 0.676250 0.617500
1.000000 0.676250 0.617500
1.000000 0.676250 0.617500
0.050000 0.807500 0.617500
0.187500 0.807500 0.617500
0.325000 0.807500 0.617500
0.462500 0.807500 0.617500
0.600000 0.807500 0.617500
0.737500 0.807500 0.617500
0.875000 0.807500 0.617500
1.000000 0.807500 0.617500
1.000000 0.807500 0.617500
0.050000 0.938750 0.617500
0.187500 0.938750 0.617500
0.325000 0.938750 0.617500
0.462500 0.938750 0.617500
0.600000 0.938750 0.617500
0.737500 0.938750 0.617500
0.875000 0.938750 0.617500
1.000000 0.938750 0.617500
1.000000 0.938750 0.617500
0.050000 1.000000 0.617500
0.187500 1.000000 0.617500
0.325000 1.000000 0.617500
0.462500 1.000000 0.617500
0.600000 1.000000 0.617500
0.737500 1.000000 0.617500
0.875000 1.000000 0.617500
1.000000 1.000000 0.617500
1.000000 1.000000 0.617500
0.050000 0.020000 0.723750
0.187500 0.020000 0.723750
0.325000 0.020000 0.723750
0.462500 0.020000 0.723750
0.600000 0.020000 0.723750
0.737500 0.020000 0.723750
0.875000 0.020000 0.723750
1.000000 0.020000 0.723750
1.000000 0.020000 0.723750
0.050000 0.151250 0.723750
0.187500 0.151250 0.723750
0.325000 0.151250 0.723750
0.462500 0.151250 0.723750
0.600000 0.151250 0.723750
0.737500 0.151250 0.723750
0.875000 0.151250 0.723750
1.000000 0.151250 0.723750
1.000000 0.151250 0.723750
0.050000 0.282500 0.723750
0.187500 0.282500 0.723750
0.325000 0.282500 0.723750
0.462500 0.282500 0.723750
0.600000 0.282500 0.723750
0.737500 0.282500 0.723750
0.875000 0.282500 0.723750
1.000000 0.282500 0.723750
1.000000 0.282500 0.723750
0.050000 0.413750 0.723750
0.187500 0.413750 0.723750
0.325000 0.413750 0.723750
0.462500 0.413750 0.723750
0.600000 0.413750 0.723750
0.737500 0.413750 0.723750
0.875000 0.413750 0.723750
1.000000 0.413750 0.723750
1.000000 0.413750 0.723750
0.050000 0.545000 0.723750
0.187500 0.545000 0.723750
0.325000 0.545000 0.723750
0.462500 0.545000 0.723750
0.600000 0.545000 0.723750
0.737500 0.545000 0.723750
0.875000 0.545000 0.723750
1.000000 0.545000 0.723750
1.000000 0.545000 0.723750
0.050000 0.676250 0.723750
0.187500 0.676250 0.723750
0.325000 0.676250 0.723750
0.462500 0.676250 0.723750
0.600000 0.676250 0.723750
0.737500 0.676250 0.723750
0.875000 0.676250 0.723750
1.000000 0.676250 0.723750
1.000000 0.676250 0.723750
0.050000 0.807500 0.723750
0.187500 0.807500 0.723750
0.325000 0.807500 0.723750
0.462500 0.807500 0.723750
0.600000 0.807500 0.723750
0.737500 0.807500 0.723750
0.875000 0.807500 0.723750
1.000000 0.807500 0.723750
1.000000 0.807500 0.723750
0.050000 0.938750 0.723750
0.187500 0.938750 0.723750
0.325000 0.938750 0.723750
0.462500 0.938750 0.723750
0.600000 0.938750 0.723750
0.737500 0.938750 0.723750
0.875000 0.938750 0.723750
1.000000 0.938750 0.723750
1.000000 0.938750 0.723750
0.050000 1.000000 0.723750
0.187500 1.000000 0.723750
0.325000 1.000000 0.723750
0.462500 1.000000 0.723750
0.600000 1.000000 0.723750
0.737500 1.000000 0.723750
0.875000 1.000000 0.723750
1.000000 1.000000 0.723750
1.000000 1.000000 0.723750
0.050000 0.020000 0.830000
0.187500 0.020000 0.830000
0.325000 0.020000 0.830000
0.462500 0.020000 0.830000
0.600000 0.020000 0.830000
0.737500 0.020000 0.830000
0.875000 0.020000 0.830000
1.000000 0.020000 0.830000
1.000000 0.020000 0.830000
0.050000 0.151250 0.830000
0.187500 0.151250 0.830000
0.325000 0.151250 0.830000
0.462500 0.151250 0.830000
0.600000 0.151250 0.830000
0.737500 0.151250 0.830000
0.875000 0.151250 0.830000
1.000000 0.151250 0.830000
1.000000 0.151250 0.830000
0.050000 0.282500 0.830000
0.187500 0.282500 0.830000
0.325000 0.282500 0.830000
0.462500 0.282500 0.830000
0.600000 0.282500 0.830000
0.737500 0.282500 0.830000
0.875000 0.282500 0.830000
1.000000 0.282500 0.830000
1.000000 0.282500 0.830000
0.050000 0.413750 0.830000
0.187500 0.413750 0.830000
0.325000 0.413750 0.830000
0.462500 0.413750 0.830000
0.600000 0.413750 0.830000
0.737500 0.413750 0.830000
0.875000 0.413750 0.830000
1.000000 0.413750 0.830000
1.000000 0.413750 0.830000
0.050000 0.545000 0.830000
0.187500 0.545000 0.830000
0.325000 0.545000 0.830000
0.462500 0.545000 0.830000
0.600000 0.545000 0.830000
0.737500 0.545000 0.830000
0.875000 0.545000 0.830000
1.000000 0.545000 0.830000
1.000000 0.545000 0.830000
0.050000 0.676250 0.830000
0.187500 0.676250 0.830000
0.325000 0.676250 0.830000
0.462500 0.676250 0.830000
0.600000 0.676250 0.830000
0.737500 0.676250 0.830000
0.875000 0.676250 0.830000
1.000000 0.676250 0.830000
1.000000 0.676250 0.830000
0.050000 0.807500 0.830000
0.187500 0.807500 0.830000
0.325000 0.807500 0.830000
0.462500 0.807500 0.830000
0.600000 0.807500 0.830000
0.737500 0.807500 0.830000
0.875000 0.807500 0.830000
1.000000 0.807500 0.830000
1.000000 0.807500 0.830000
0.050000 0.938750 0.830000
0.187500 0.938750 0.830000
0.325000 0.938750 0.830000
0.462500 0.938750 0.830000
0.600000 0.938750 0.830000
0.737500 0.938750 0.830000
0.875000 0.938750 0.830000
1.000000 0.938750 0.830000
1.000000 0.938750 0.830000
0.050000 1.000000 0.830000
0.187500 1.000000 0.830000
0.325000 1.000000 0.830000
0.462500 1.000000 0.830000
0.600000 1.000000 0.830000
0.737500 1.000000 0.830000
0.875000 1.000000 0.830000
1.000000 1.000000 0.830000
1.000000 1.000000 0.830000
