resources/luts/film_warm.cube
TITLE "Film Warm"
LUT_3D_SIZE 17
0.050000 0.020000 0.000000
0.118750 0.020000 0.000000
0.187500 0.020000 0.000000
0.256250 0.020000 0.000000
0.325000 0.020000 0.000000
0.393750 0.020000 0.000000
0.462500 0.020000 0.000000
0.531250 0.020000 0.000000
0.600000 0.020000 0.000000
0.668750 0.020000 0.000000
0.737500 0.020000 0.000000
0.806250 0.020000 0.000000
0.875000 0.020000 0.000000
0.943750 0.020000 0.000000
1.000000 0.020000 0.000000
1.000000 0.020000 0.000000
1.000000 0.020000 0.000000
0.050000 0.085625 0.000000
0.118750 0.085625 0.000000
0.187500 0.085625 0.000000
0.256250 0.085625 0.000000
0.325000 0.085625 0.000000
0.393750 0.085625 0.000000
0.462500 0.085625 0.000000
0.531250 0.085625 0.000000
0.600000 0.085625 0.000000
0.668750 0.085625 0.000000
0.737500 0.085625 0.000000
0.806250 0.085625 0.000000
0.875000 0.085625 0.000000
0.943750 0.085625 0.000000
1.000000 0.085625 0.000000
1.000000 0.085625 0.000000
1.000000 0.085625 0.000000
0.050000 0.151250 0.000000
0.118750 0.151250 0.000000
0.187500 0.151250 0.000000
0.256250 0.151250 0.000000
0.325000 0.151250 0.000000
0.393750 0.151250 0.000000
0.462500 0.151250 0.000000
0.531250 0.151250 0.000000
0.600000 0.151250 0.000000
0.668750 0.151250 0.000000
0.737500 0.151250 0.000000
0.806250 0.151250 0.000000
0.875000 0.151250 0.000000
0.943750 0.151250 0.000000
1.000000 0.151250 0.000000
1.000000 0.151250 0.000000
1.000000 0.151250 0.000000
0.050000 0.216875 0.000000
0.118750 0.216875 0.000000
0.187500 0.216875 0.000000
0.256250 0.216875 0.000000
0.325000 0.216875 0.000000
0.393750 0.216875 0.000000
0.462500 0.216875 0.000000
0.531250 0.216875 0.000000
0.600000 0.216875 0.000000
0.668750 0.216875 0.000000
0.737500 0.216875 0.000000
0.806250 0.216875 0.000000
0.875000 0.216875 0.000000
0.943750 0.216875 0.000000
1.000000 0.216875 0.000000
1.000000 0.216875 0.000000
1.000000 0.216875 0.000000
0.050000 0.282500 0.000000
0.118750 0.282500 0.000000
0.187500 0.282500 0.000000
0.256250 0.282500 0.000000
0.325000 0.282500 0.000000
0.393750 0.282500 0.000000
0.462500 0.282500 0.000000
0.531250 0.282500 0.000000
0.600000 0.282500 0.000000
0.668750 0.282500 0.000000
0.737500 0.282500 0.000000
0.806250 0.282500 0.000000
0.875000 0.282500 0.000000
0.943750 0.282500 0.000000
1.000000 0.282500 0.000000
1.000000 0.282500 0.000000
1.000000 0.282500 0.000000
0.050000 0.348125 0.000000
0.118750 0.348125 0.000000
0.187500 0.348125 0.000000
0.256250 0.348125 0.000000
0.325000 0.348125 0.000000
0.393750 0.348125 0.000000
0.462500 0.348125 0.000000
0.531250 0.348125 0.000000
0.600000 0.348125 0.000000
0.668750 0.348125 0.000000
0.737500 0.348125 0.000000
0.806250 0.348125 0.000000
0.875000 0.348125 0.000000
0.943750 0.348125 0.000000
1.000000 0.348125 0.000000
1.000000 0.348125 0.000000
1.000000 0.348125 0.000000
0.050000 0.413750 0.000000
0.118750 0.413750 0.000000
0.187500 0.413750 0.000000
0.256250 0.413750 0.000000
0.325000 0.413750 0.000000
0.393750 0.413750 0.000000
0.462500 0.413750 0.000000
0.531250 0.413750 0.000000
0.600000 0.413750 0.000000
0.668750 0.413750 0.000000
0.737500 0.413750 0.000000
0.806250 0.413750 0.000000
0.875000 0.413750 0.000000
0.943750 0.413750 0.000000
1.000000 0.413750 0.000000
1.000000 0.413750 0.000000
1.000000 0.413750 0.000000
0.050000 0.479375 0.000000
0.118750 0.479375 0.000000
0.187500 0.479375 0.000000
0.256250 0.479375 0.000000
0.325000 0.479375 0.000000
0.393750 0.479375 0.000000
0.462500 0.479375 0.000000
0.531250 0.479375 0.000000
0.600000 0.479375 0.000000
0.668750 0.479375 0.000000
0.737500 0.479375 0.000000
0.806250 0.479375 0.000000
0.875000 0.479375 0.000000
0.943750 0.479375 0.000000
1.000000 0.479375 0.000000
1.000000 0.479375 0.000000
1.000000 0.479375 0.000000
0.050000 0.545000 0.000000
0.118750 0.545000 0.000000
0.187500 0.545000 0.000000
0.256250 0.545000 0.000000
0.325000 0.545000 0.000000
0.393750 0.545000 0.000000
0.462500 0.545000 0.000000
0.531250 0.545000 0.000000
0.600000 0.545000 0.000000
0.668750 0.545000 0.000000
0.737500 0.545000 0.000000
0.806250 0.545000 0.000000
0.875000 0.545000 0.000000
0.943750 0.545000 0.000000
1.000000 0.545000 0.000000
1.000000 0.545000 0.000000
1.000000 0.545000 0.000000
0.050000 0.610625 0.000000
0.118750 0.610625 0.000000
0.187500 0.610625 0.000000
0.256250 0.610625 0.000000
0.325000 0.610625 0.000000
0.393750 0.610625 0.000000
0.462500 0.610625 0.000000
0.531250 0.610625 0.000000
0.600000 0.610625 0.000000
0.668750 0.610625 0.000000
0.737500 0.610625 0.000000
0.806250 0.610625 0.000000
0.875000 0.610625 0.000000
0.943750 0.610625 0.000000
1.000000 0.610625 0.000000
1.000000 0.610625 0.000000
1.000000 0.610625 0.000000
0.050000 0.676250 0.000000
0.118750 0.676250 0.000000
0.187500 0.676250 0.000000
0.256250 0.676250 0.000000
0.325000 0.676250 0.000000
0.393750 0.676250 0.000000
0.462500 0.676250 0.000000
0.531250 0.676250 0.000000
0.600000 0.676250 0.000000
0.668750 0.676250 0.000000
0.737500 0.676250 0.000000
0.806250 0.676250 0.000000
0.875000 0.676250 0.000000
0.943750 0.676250 0.000000
1.000000 0.676250 0.000000
1.000000 0.676250 0.000000
1.000000 0.676250 0.000000
0.050000 0.741875 0.000000
0.118750 0.741875 0.000000
0.187500 0.741875 0.000000
0.256250 0.741875 0.000000
0.325000 0.741875 0.000000
0.393750 0.741875 0.000000
0.462500 0.741875 0.000000
0.531250 0.741875 0.000000
0.600000 0.741875 0.000000
0.668750 0.741875 0.000000
0.737500 0.741875 0.000000
0.806250 0.741875 0.000000
0.875000 0.741875 0.000000
0.943750 0.741875 0.000000
1.000000 0.741875 0.000000
1.000000 0.741875 0.000000
1.000000 0.741875 0.000000
0.050000 0.807500 0.000000
0.118750 0.807500 0.000000
0.187500 0.807500 0.000000
0.256250 0.807500 0.000000
0.325000 0.807500 0.000000
0.393750 0.807500 0.000000
0.462500 0.807500 0.000000
0.531250 0.807500 0.000000
0.600000 0.807500 0.000000
0.668750 0.807500 0.000000
0.737500 0.807500 0.000000
0.806250 0.807500 0.000000
0.875000 0.807500 0.000000
0.943750 0.807500 0.000000
1.000000 0.807500 0.000000
1.000000 0.807500 0.000000
1.000000 0.807500 0.000000
0.050000 0.873125 0.000000
0.118750 0.873125 0.000000
0.187500 0.873125 0.000000
0.256250 0.873125 0.000000
0.325000 0.873125 0.000000
0.393750 0.873125 0.000000
0.462500 0.873125 0.000000
0.531250 0.873125 0.000000
0.600000 0.873125 0.000000
0.668750 0.873125 0.000000
0.737500 0.873125 0.000000
0.806250 0.873125 0.000000
0.875000 0.873125 0.000000
0.943750 0.873125 0.000000
1.000000 0.873125 0.000000
1.000000 0.873125 0.000000
1.000000 0.873125 0.000000
0.050000 0.938750 0.000000
0.118750 0.938750 0.000000
0.187500 0.938750 0.000000
0.256250 0.938750 0.000000
0.325000 0.938750 0.000000
0.393750 0.938750 0.000000
0.462500 0.938750 0.000000
0.531250 0.938750 0.000000
0.600000 0.938750 0.000000
0.668750 0.938750 0.000000
0.737500 0.938750 0.000000
0.806250 0.938750 0.000000
0.875000 0.938750 0.000000
0.943750 0.938750 0.000000
1.000000 0.938750 0.000000
1.000000 0.938750 0.000000
1.000000 0.938750 0.000000
0.050000 1.000000 0.000000
0.118750 1.000000 0.000000
0.187500 1.000000 0.000000
0.256250 1.000000 0.000000
0.325000 1.000000 0.000000
0.393750 1.000000 0.000000
0.462500 1.000000 0.000000
0.531250 1.000000 0.000000
0.600000 1.000000 0.000000
0.668750 1.000000 0.000000
0.737500 1.000000 0.000000
0.806250 1.000000 0.000000
0.875000 1.000000 0.000000
0.943750 1.000000 0.000000
1.000000 1.000000 0.000000
1.000000 1.000000 0.000000
1.000000 1.000000 0.000000
0.050000 1.000000 0.000000
0.118750 1.000000 0.000000
0.187500 1.000000 0.000000
0.256250 1.000000 0.000000
0.325000 1.000000 0.000000
0.393750 1.000000 0.000000
0.462500 1.000000 0.000000
0.531250 1.000000 0.000000
0.600000 1.000000 0.000000
0.668750 1.000000 0.000000
0.737500 1.000000 0.000000
0.806250 1.000000 0.000000
0.875000 1.000000 0.000000
0.943750 1.000000 0.000000
1.000000 1.000000 0.000000
1.000000 1.000000 0.000000
1.000000 1.000000 0.000000
0.050000 0.020000 0.033125
0.118750 0.020000 0.033125
0.187500 0.020000 0.033125
0.256250 0.020000 0.033125
0.325000 0.020000 0.033125
0.393750 0.020000 0.033125
0.462500 0.020000 0.033125
0.531250 0.020000 0.033125
0.600000 0.020000 0.033125
0.668750 0.020000 0.033125
0.737500 0.020000 0.033125
0.806250 0.020000 0.033125
0.875000 0.020000 0.033125
0.943750 0.020000 0.033125
1.000000 0.020000 0.033125
1.000000 0.020000 0.033125
1.000000 0.020000 0.033125
0.050000 0.085625 0.033125
0.118750 0.085625 0.033125
0.187500 0.085625 0.033125
0.256250 0.085625 0.033125
0.325000 0.085625 0.033125
0.393750 0.085625 0.033125
0.462500 0.085625 0.033125
0.531250 0.085625 0.033125
0.600000 0.085625 0.033125
0.668750 0.085625 0.033125
0.737500 0.085625 0.033125
0.806250 0.085625 0.033125
0.875000 0.085625 0.033125
0.943750 0.085625 0.033125
1.000000 0.085625 0.033125
1.000000 0.085625 0.033125
1.000000 0.085625 0.033125
0.050000 0.151250 0.033125
0.118750 0.151250 0.033125
0.187500 0.151250 0.033125
0.256250 0.151250 0.033125
0.325000 0.151250 0.033125
0.393750 0.151250 0.033125
0.462500 0.151250 0.033125
0.531250 0.151250 0.033125
0.600000 0.151250 0.033125
0.668750 0.151250 0.033125
0.737500 0.151250 0.033125
0.806250 0.151250 0.033125
0.875000 0.151250 0.033125
0.943750 0.151250 0.033125
1.000000 0.151250 0.033125
1.000000 0.151250 0.033125
1.000000 0.151250 0.033125
0.050000 0.216875 0.033125
0.118750 0.216875 0.033125
0.187500 0.216875 0.033125
0.256250 0.216875 0.033125
0.325000 0.216875 0.033125
0.393750 0.216875 0.033125
0.462500 0.216875 0.033125
0.531250 0.216875 0.033125
0.600000 0.216875 0.033125
0.668750 0.216875 0.033125
0.737500 0.216875 0.033125
0.806250 0.216875 0.033125
0.875000 0.216875 0.033125
0.943750 0.216875 0.033125
1.000000 0.216875 0.033125
1.000000 0.216875 0.033125
1.000000 0.216875 0.033125
0.050000 0.282500 0.033125
0.118750 0.282500 0.033125
0.187500 0.282500 0.033125
0.256250 0.282500 0.033125
0.325000 0.282500 0.033125
0.393750 0.282500 0.033125
0.462500 0.282500 0.033125
0.531250 0.282500 0.033125
0.600000 0.282500 0.033125
0.668750 0.282500 0.033125
0.737500 0.282500 0.033125
0.806250 0.282500 0.033125
0.875000 0.282500 0.033125
0.943750 0.282500 0.033125
1.000000 0.282500 0.033125
1.000000 0.282500 0.033125
1.000000 0.282500 0.033125
0.050000 0.348125 0.033125
0.118750 0.348125 0.033125
0.187500 0.348125 0.033125
0.256250 0.348125 0.033125
0.325000 0.348125 0.033125
0.393750 0.348125 0.033125
0.462500 0.348125 0.033125
0.531250 0.348125 0.033125
0.600000 0.348125 0.033125
0.668750 0.348125 0.033125
0.737500 0.348125 0.033125
0.806250 0.348125 0.033125
0.875000 0.348125 0.033125
0.943750 0.348125 0.033125
1.000000 0.348125 0.033125
1.000000 0.348125 0.033125
1.000000 0.348125 0.033125
0.050000 0.413750 0.033125
0.118750 0.413750 0.033125
0.187500 0.413750 0.033125
0.256250 0.413750 0.033125
0.325000 0.413750 0.033125
0.393750 0.413750 0.033125
0.462500 0.413750 0.033125
0.531250 0.413750 0.033125
0.600000 0.413750 0.033125
0.668750 0.413750 0.033125
0.737500 0.413750 0.033125
0.806250 0.413750 0.033125
0.875000 0.413750 0.033125
0.943750 0.413750 0.033125
1.000000 0.413750 0.033125
1.000000 0.413750 0.033125
1.000000 0.413750 0.033125
0.050000 0.479375 0.033125
0.118750 0.479375 0.033125
0.187500 0.479375 0.033125
0.256250 0.479375 0.033125
0.325000 0.479375 0.033125
0.393750 0.479375 0.033125
0.462500 0.479375 0.033125
0.531250 0.479375 0.033125
0.600000 0.479375 0.033125
0.668750 0.479375 0.033125
0.737500 0.479375 0.033125
0.806250 0.479375 0.033125
0.875000 0.479375 0.033125
0.943750 0.479375 0.033125
1.000000 0.479375 0.033125
1.000000 0.479375 0.033125
1.000000 0.479375 0.033125
0.050000 0.545000 0.033125
0.118750 0.545000 0.033125
0.187500 0.545000 0.033125
0.256250 0.545000 0.033125
0.325000 0.545000 0.033125
0.393750 0.545000 0.033125
0.462500 0.545000 0.033125
0.531250 0.545000 0.033125
0.600000 0.545000 0.033125
0.668750 0.545000 0.033125
0.737500 0.545000 0.033125
0.806250 0.545000 0.033125
0.875000 0.545000 0.033125
0.943750 0.545000 0.033125
1.000000 0.545000 0.033125
1.000000 0.545000 0.033125
1.000000 0.545000 0.033125
0.050000 0.610625 0.033125
0.118750 0.610625 0.033125
0.187500 0.610625 0.033125
0.256250 0.610625 0.033125
0.325000 0.610625 0.033125
0.393750 0.610625 0.033125
0.462500 0.610625 0.033125
0.531250 0.610625 0.033125
0.600000 0.610625 0.033125
0.668750 0.610625 0.033125
0.737500 0.610625 0.033125
0.806250 0.610625 0.033125
0.875000 0.610625 0.033125
0.943750 0.610625 0.033125
1.000000 0.610625 0.033125
1.000000 0.610625 0.033125
1.000000 0.610625 0.033125
0.050000 0.676250 0.033125
0.118750 0.676250 0.033125
0.187500 0.676250 0.033125
0.256250 0.676250 0.033125
0.325000 0.676250 0.033125
0.393750 0.676250 0.033125
0.462500 0.676250 0.033125
0.531250 0.676250 0.033125
0.600000 0.676250 0.033125
0.668750 0.676250 0.033125
0.737500 0.676250 0.033125
0.806250 0.676250 0.033125
0.875000 0.676250 0.033125
0.943750 0.676250 0.033125
1.000000 0.676250 0.033125
1.000000 0.676250 0.033125
1.000000 0.676250 0.033125
0.050000 0.741875 0.033125
0.118750 0.741875 0.033125
0.187500 0.741875 0.033125
0.256250 0.741875 0.033125
0.325000 0.741875 0.033125
0.393750 0.741875 0.033125
0.462500 0.741875 0.033125
0.531250 0.741875 0.033125
0.600000 0.741875 0.033125
0.668750 0.741875 0.033125
0.737500 0.741875 0.033125
0.806250 0.741875 0.033125
0.875000 0.741875 0.033125
0.943750 0.741875 0.033125
1.000000 0.741875 0.033125
1.000000 0.741875 0.033125
1.000000 0.741875 0.033125
0.050000 0.807500 0.033125
0.118750 0.807500 0.033125
0.187500 0.807500 0.033125
0.256250 0.807500 0.033125
0.325000 0.807500 0.033125
0.393750 0.807500 0.033125
0.462500 0.807500 0.033125
0.531250 0.807500 0.033125
0.600000 0.807500 0.033125
0.668750 0.807500 0.033125
0.737500 0.807500 0.033125
0.806250 0.807500 0.033125
0.875000 0.807500 0.033125
0.943750 0.807500 0.033125
1.000000 0.807500 0.033125
1.000000 0.807500 0.033125
1.000000 0.807500 0.033125
0.050000 0.873125 0.033125
0.118750 0.873125 0.033125
0.187500 0.873125 0.033125
0.256250 0.873125 0.033125
0.325000 0.873125 0.033125
0.393750 0.873125 0.033125
0.462500 0.873125 0.033125
0.531250 0.873125 0.033125
0.600000 0.873125 0.033125
0.668750 0.873125 0.033125
0.737500 0.873125 0.033125
0.806250 0.873125 0.033125
0.875000 0.873125 0.033125
0.943750 0.873125 0.033125
1.000000 0.873125 0.033125
1.000000 0.873125 0.033125
1.000000 0.873125 0.033125
0.050000 0.938750 0.033125
0.118750 0.938750 0.033125
0.187500 0.938750 0.033125
0.256250 0.938750 0.033125
0.325000 0.938750 0.033125
0.393750 0.938750 0.033125
0.462500 0.938750 0.033125
0.531250 0.938750 0.033125
0.600000 0.938750 0.033125
0.668750 0.938750 0.033125
0.737500 0.938750 0.033125
0.806250 0.938750 0.033125
0.875000 0.938750 0.033125
0.943750 0.938750 0.033125
1.000000 0.938750 0.033125
1.000000 0.938750 0.033125
1.000000 0.938750 0.033125
0.050000 1.000000 0.033125
0.118750 1.000000 0.033125
0.187500 1.000000 0.033125
0.256250 1.000000 0.033125
0.325000 1.000000 0.033125
0.393750 1.000000 0.033125
0.462500 1.000000 0.033125
0.531250 1.000000 0.033125
0.600000 1.000000 0.033125
0.668750 1.000000 0.033125
0.737500 1.000000 0.033125
0.806250 1.000000 0.033125
0.875000 1.000000 0.033125
0.943750 1.000000 0.033125
1.000000 1.000000 0.033125
1.000000 1.000000 0.033125
1.000000 1.000000 0.033125
0.050000 1.000000 0.033125
0.118750 1.000000 0.033125
0.187500 1.000000 0.033125
0.256250 1.000000 0.033125
0.325000 1.000000 0.033125
0.393750 1.000000 0.033125
0.462500 1.000000 0.033125
0.531250 1.000000 0.033125
0.600000 1.000000 0.033125
0.668750 1.000000 0.033125
0.737500 1.000000 0.033125
0.806250 1.000000 0.033125
0.875000 1.000000 0.033125
0.943750 1.000000 0.033125
1.000000 1.000000 0.033125
1.000000 1.000000 0.033125
1.000000 1.000000 0.033125
0.050000 0.020000 0.086250
0.118750 0.020000 0.086250
0.187500 0.020000 0.086250
0.256250 0.020000 0.086250
0.325000 0.020000 0.086250
0.393750 0.020000 0.086250
0.462500 0.020000 0.086250
0.531250 0.020000 0.086250
0.600000 0.020000 0.086250
0.668750 0.020000 0.086250
0.737500 0.020000 0.086250
0.806250 0.020000 0.086250
0.875000 0.020000 0.086250
0.943750 0.020000 0.086250
1.000000 0.020000 0.086250
1.000000 0.020000 0.086250
1.000000 0.020000 0.086250
0.050000 0.085625 0.086250
0.118750 0.085625 0.086250
0.187500 0.085625 0.086250
0.256250 0.085625 0.086250
0.325000 0.085625 0.086250
0.393750 0.085625 0.086250
0.462500 0.085625 0.086250
0.531250 0.085625 0.086250
0.600000 0.085625 0.086250
0.668750 0.085625 0.086250
0.737500 0.085625 0.086250
0.806250 0.085625 0.086250
0.875000 0.085625 0.086250
0.943750 0.085625 0.086250
1.000000 0.085625 0.086250
1.000000 0.085625 0.086250
1.000000 0.085625 0.086250
0.050000 0.151250 0.086250
0.118750 0.151250 0.086250
0.187500 0.151250 0.086250
0.256250 0.151250 0.086250
0.325000 0.151250 0.086250
0.393750 0.151250 0.086250
0.462500 0.151250 0.086250
0.531250 0.151250 0.086250
0.600000 0.151250 0.086250
0.668750 0.151250 0.086250
0.737500 0.151250 0.086250
0.806250 0.151250 0.086250
0.875000 0.151250 0.086250
0.943750 0.151250 0.086250
1.000000 0.151250 0.086250
1.000000 0.151250 0.086250
1.000000 0.151250 0.086250
0.050000 0.216875 0.086250
0.118750 0.216875 0.086250
0.187500 0.216875 0.086250
0.256250 0.216875 0.086250
0.325000 0.216875 0.086250
0.393750 0.216875 0.086250
0.462500 0.216875 0.086250
0.531250 0.216875 0.086250
0.600000 0.216875 0.086250
0.668750 0.216875 0.086250
0.737500 0.216875 0.086250
0.806250 0.216875 0.086250
0.875000 0.216875 0.086250
0.943750 0.216875 0.086250
1.000000 0.216875 0.086250
1.000000 0.216875 0.086250
1.000000 0.216875 0.086250
0.050000 0.282500 0.086250
0.118750 0.282500 0.086250
0.187500 0.282500 0.086250
0.256250 0.282500 0.086250
0.325000 0.282500 0.086250
0.393750 0.282500 0.086250
0.462500 0.282500 0.086250
0.531250 0.282500 0.086250
0.600000 0.282500 0.086250
0.668750 0.282500 0.086250
0.737500 0.282500 0.086250
0.806250 0.282500 0.086250
0.875000 0.282500 0.086250
0.943750 0.282500 0.086250
1.000000 0.282500 0.086250
1.000000 0.282500 0.086250
1.000000 0.282500 0.086250
0.050000 0.348125 0.086250
0.118750 0.348125 0.086250
0.187500 0.348125 0.086250
0.256250 0.348125 0.086250
0.325000 0.348125 0.086250
0.393750 0.348125 0.086250
0.462500 0.348125 0.086250
0.531250 0.348125 0.086250
0.600000 0.348125 0.086250
0.668750 0.348125 0.086250
0.737500 0.348125 0.086250
0.806250 0.348125 0.086250
0.875000 0.348125 0.086250
0.943750 0.348125 0.086250
1.000000 0.348125 0.086250
1.000000 0.348125 0.086250
1.000000 0.348125 0.086250
0.050000 0.413750 0.086250
0.118750 0.413750 0.086250
0.187500 0.413750 0.086250
0.256250 0.413750 0.086250
0.325000 0.413750 0.086250
0.393750 0.413750 0.086250
0.462500 0.413750 0.086250
0.531250 0.413750 0.086250
0.600000 0.413750 0.086250
0.668750 0.413750 0.086250
0.737500 0.413750 0.086250
0.806250 0.413750 0.086250
0.875000 0.413750 0.086250
0.943750 0.413750 0.086250
1.000000 0.413750 0.086250
1.000000 0.413750 0.086250
1.000000 0.413750 0.086250
0.050000 0.479375 0.086250
0.118750 0.479375 0.086250
0.187500 0.479375 0.086250
0.256250 0.479375 0.086250
0.325000 0.479375 0.086250
0.393750 0.479375 0.086250
0.462500 0.479375 0.086250
0.531250 0.479375 0.086250
0.600000 0.479375 0.086250
0.668750 0.479375 0.086250
0.737500 0.479375 0.086250
0.806250 0.479375 0.086250
0.875000 0.479375 0.086250
0.943750 0.479375 0.086250
1.000000 0.479375 0.086250
1.000000 0.479375 0.086250
1.000000 0.479375 0.086250
0.050000 0.545000 0.086250
0.118750 0.545000 0.086250
0.187500 0.545000 0.086250
0.256250 0.545000 0.086250
0.325000 0.545000 0.086250
0.393750 0.545000 0.086250
0.462500 0.545000 0.086250
0.531250 0.545000 0.086250
0.600000 0.545000 0.086250
0.668750 0.545000 0.086250
0.737500 0.545000 0.086250
0.806250 0.545000 0.086250
0.875000 0.545000 0.086250
0.943750 0.545000 0.086250
1.000000 0.545000 0.086250
1.000000 0.545000 0.086250
1.000000 0.545000 0.086250
0.050000 0.610625 0.086250
0.118750 0.610625 0.086250
0.187500 0.610625 0.086250
0.256250 0.610625 0.086250
0.325000 0.610625 0.086250
0.393750 0.610625 0.086250
0.462500 0.610625 0.086250
0.531250 0.610625 0.086250
0.600000 0.610625 0.086250
0.668750 0.610625 0.086250
0.737500 0.610625 0.086250
0.806250 0.610625 0.086250
0.875000 0.610625 0.086250
0.943750 0.610625 0.086250
1.000000 0.610625 0.086250
1.000000 0.610625 0.086250
1.000000 0.610625 0.086250
0.050000 0.676250 0.086250
0.118750 0.676250 0.086250
0.187500 0.676250 0.086250
0.256250 0.676250 0.086250
0.325000 0.676250 0.086250
0.393750 0.676250 0.086250
0.462500 0.676250 0.086250
0.531250 0.676250 0.086250
0.600000 0.676250 0.086250
0.668750 0.676250 0.086250
0.737500 0.676250 0.086250
0.806250 0.676250 0.086250
0.875000 0.676250 0.086250
0.943750 0.676250 0.086250
1.000000 0.676250 0.086250
1.000000 0.676250 0.086250
1.000000 0.676250 0.086250
0.050000 0.741875 0.086250
0.118750 0.741875 0.086250
0.187500 0.741875 0.086250
0.256250 0.741875 0.086250
0.325000 0.741875 0.086250
0.393750 0.741875 0.086250
0.462500 0.741875 0.086250
0.531250 0.741875 0.086250
0.600000 0.741875 0.086250
0.668750 0.741875 0.086250
0.737500 0.741875 0.086250
0.806250 0.741875 0.086250
0.875000 0.741875 0.086250
0.943750 0.741875 0.086250
1.000000 0.741875 0.086250
1.000000 0.741875 0.086250
1.000000 0.741875 0.086250
0.050000 0.807500 0.086250
0.118750 0.807500 0.086250
0.187500 0.807500 0.086250
0.256250 0.807500 0.086250
0.325000 0.807500 0.086250
0.393750 0.807500 0.086250
0.462500 0.807500 0.086250
0.531250 0.807500 0.086250
0.600000 0.807500 0.086250
0.668750 0.807500 0.086250
0.737500 0.807500 0.086250
0.806250 0.807500 0.086250
0.875000 0.807500 0.086250
0.943750 0.807500 0.086250
1.000000 0.807500 0.086250
1.000000 0.807500 0.086250
1.000000 0.807500 0.086250
0.050000 0.873125 0.086250
0.118750 0.873125 0.086250
0.187500 0.873125 0.086250
0.256250 0.873125 0.086250
0.325000 0.873125 0.086250
0.393750 0.873125 0.086250
0.462500 0.873125 0.086250
0.531250 0.873125 0.086250
0.600000 0.873125 0.086250
0.668750 0.873125 0.086250
0.737500 0.873125 0.086250
0.806250 0.873125 0.086250
0.875000 0.873125 0.086250
0.943750 0.873125 0.086250
1.000000 0.873125 0.086250
1.000000 0.873125 0.086250
1.000000 0.873125 0.086250
0.050000 0.938750 0.086250
0.118750 0.938750 0.086250
0.187500 0.938750 0.086250
0.256250 0.938750 0.086250
0.325000 0.938750 0.086250
0.393750 0.938750 0.086250
0.462500 0.938750 0.086250
0.531250 0.938750 0.086250
0.600000 0.938750 0.086250
0.668750 0.938750 0.086250
0.737500 0.938750 0.086250
0.806250 0.938750 0.086250
0.875000 0.938750 0.086250
0.943750 0.938750 0.086250
1.000000 0.938750 0.086250
1.000000 0.938750 0.086250
1.000000 0.938750 0.086250
0.050000 1.000000 0.086250
0.118750 1.000000 0.086250
0.187500 1.000000 0.086250
0.256250 1.000000 0.086250
0.325000 1.000000 0.086250
0.393750 1.000000 0.086250
0.462500 1.000000 0.086250
0.531250 1.000000 0.086250
0.600000 1.000000 0.086250
0.668750 1.000000 0.086250
0.737500 1.000000 0.086250
0.806250 1.000000 0.086250
0.875000 1.000000 0.086250
0.943750 1.000000 0.086250
1.000000 1.000000 0.086250
1.000000 1.000000 0.086250
1.000000 1.000000 0.086250
0.050000 1.000000 0.086250
0.118750 1.000000 0.086250
0.187500 1.000000 0.086250
0.256250 1.000000 0.086250
0.325000 1.000000 0.086250
0.393750 1.000000 0.086250
0.462500 1.000000 0.086250
0.531250 1.000000 0.086250
0.600000 1.000000 0.086250
0.668750 1.000000 0.086250
0.737500 1.000000 0.086250
0.806250 1.000000 0.086250
0.875000 1.000000 0.086250
0.943750 1.000000 0.086250
1.000000 1.000000 0.086250
1.000000 1.000000 0.086250
1.000000 1.000000 0.086250
0.050000 0.020000 0.139375
0.118750 0.020000 0.139375
0.187500 0.020000 0.139375
0.256250 0.020000 0.139375
0.325000 0.020000 0.139375
0.393750 0.020000 0.139375
0.462500 0.020000 0.139375
0.531250 0.020000 0.139375
0.600000 0.020000 0.139375
0.668750 0.020000 0.139375
0.737500 0.020000 0.139375
0.806250 0.020000 0.139375
0.875000 0.020000 0.139375
0.943750 0.020000 0.139375
1.000000 0.020000 0.139375
1.000000 0.020000 0.139375
1.000000 0.020000 0.139375
0.050000 0.085625 0.139375
0.118750 0.085625 0.139375
0.187500 0.085625 0.139375
