resources/luts/film_warm.cube
TITLE "Film Warm"
LUT_3D_SIZE 5
0.050000 0.020000 0.000000
0.325000 0.020000 0.000000
0.600000 0.020000 0.000000
0.875000 0.020000 0.000000
1.000000 0.020000 0.000000
0.050000 0.282500 0.000000
0.325000 0.282500 0.000000
0.600000 0.282500 0.000000
0.875000 0.282500 0.000000
1.000000 0.282500 0.000000
0.050000 0.545000 0.000000
0.325000 0.545000 0.000000
0.600000 0.545000 0.000000
0.875000 0.545000 0.000000
1.000000 0.545000 0.000000
0.050000 0.807500 0.000000
0.325000 0.807500 0.000000
0.600000 0.807500 0.000000
0.875000 0.807500 0.000000
1.000000 0.807500 0.000000
0.050000 1.000000 0.000000
0.325000 1.000000 0.000000
0.600000 1.000000 0.000000
0.875000 1.000000 0.000000
1.000000 1.000000 0.000000
0.050000 0.020000 0.192500
0.325000 0.020000 0.192500
0.600000 0.020000 0.192500
0.875000 0.020000 0.192500
1.000000 0.020000 0.192500
0.050000 0.282500 0.192500
0.325000 0.282500 0.192500
0.600000 0.282500 0.192500
0.875000 0.282500 0.192500
1.000000 0.282500 0.192500
0.050000 0.545000 0.192500
0.325000 0.545000 0.192500
0.600000 0.545000 0.192500
0.875000 0.545000 0.192500
1.000000 0.545000 0.192500
0.050000 0.807500 0.192500
0.325000 0.807500 0.192500
0.600000 0.807500 0.192500
0.875000 0.807500 0.192500
1.000000 0.807500 0.192500
0.050000 1.000000 0.192500
0.325000 1.000000 0.192500
0.600000 1.000000 0.192500
0.875000 1.000000 0.192500
1.000000 1.000000 0.192500
0.050000 0.020000 0.405000
0.325000 0.020000 0.405000
0.600000 0.020000 0.405000
0.875000 0.020000 0.405000
1.000000 0.020000 0.405000
0.050000 0.282500 0.405000
0.325000 0.282500 0.405000
0.600000 0.282500 0.405000
0.875000 0.282500 0.405000
1.000000 0.282500 0.405000
0.050000 0.545000 0.405000
0.325000 0.545000 0.405000
0.600000 0.545000 0.405000
0.875000 0.545000 0.405000
1.000000 0.545000 0.405000
0.050000 0.807500 0.405000
0.325000 0.807500 0.405000
0.600000 0.807500 0.405000
0.875000 0.807500 0.405000
1.000000 0.807500 0.405000
0.050000 1.000000 0.405000
0.325000 1.000000 0.405000
0.600000 1.000000 0.405000
0.875000 1.000000 0.405000
1.000000 1.000000 0.405000
0.050000 0.020000 0.617500
0.325000 0.020000 0.617500
0.600000 0.020000 0.617500
0.875000 0.020000 0.617500
1.000000 0.020000 0.617500
0.050000 0.282500 0.617500
0.325000 0.282500 0.617500
0.600000 0.282500 0.617500
0.875000 0.282500 0.617500
1.000000 0.282500 0.617500
0.050000 0.545000 0.617500
0.325000 0.545000 0.617500
0.600000 0.545000 0.617500
0.875000 0.545000 0.617500
1.000000 0.545000 0.617500
0.050000 0.807500 0.617500
0.325000 0.807500 0.617500
0.600000 0.807500 0.617500
0.875000 0.807500 0.617500
1.000000 0.807500 0.617500
0.050000 1.000000 0.617500
0.325000 1.000000 0.617500
0.600000 1.000000 0.617500
0.875000 1.000000 0.617500
1.000000 1.000000 0.617500
0.050000 0.020000 0.830000
0.325000 0.020000 0.830000
0.600000 0.020000 0.830000
0.875000 0.020000 0.830000
1.000000 0.020000 0.830000
0.050000 0.282500 0.830000
0.325000 0.282500 0.830000
0.600000 0.282500 0.830000
0.875000 0.282500 0.830000
1.000000 0.282500 0.830000
0.050000 0.545000 0.830000
0.325000 0.545000 0.830000
0.600000 0.545000 0.830000
0.875000 0.545000 0.830000
1.000000 0.545000 0.830000
0.050000 0.807500 0.830000
0.325000 0.807500 0.830000
0.600000 0.807500 0.830000
0.875000 0.807500 0.830000
1.000000 0.807500 0.830000
0.050000 1.000000 0.830000
0.325000 1.000000 0.830000
0.600000 1.000000 0.830000
0.875000 1.000000 0.830000
1.000000 1.000000 0.830000
