resources/luts/muted_film.cube
TITLE "Muted Film"
LUT_3D_SIZE 17
0.000000 0.000000 0.000000
0.044975 0.007475 0.007475
0.089950 0.014950 0.014950
0.134925 0.022425 0.022425
0.179900 0.029900 0.029900
0.224875 0.037375 0.037375
0.269850 0.044850 0.044850
0.314825 0.052325 0.052325
0.359800 0.059800 0.059800
0.404775 0.067275 0.067275
0.449750 0.074750 0.074750
0.494725 0.082225 0.082225
0.539700 0.089700 0.089700
0.584675 0.097175 0.097175
0.629650 0.104650 0.104650
0.674625 0.112125 0.112125
0.719600 0.119600 0.119600
0.014675 0.052175 0.014675
0.059650 0.059650 0.022150
0.104625 0.067125 0.029625
0.149600 0.074600 0.037100
0.194575 0.082075 0.044575
0.239550 0.089550 0.052050
0.284525 0.097025 0.059525
0.329500 0.104500 0.067000
0.374475 0.111975 0.074475
0.419450 0.119450 0.081950
0.464425 0.126925 0.089425
0.509400 0.134400 0.096900
0.554375 0.141875 0.104375
0.599350 0.149350 0.111850
0.644325 0.156825 0.119325
0.689300 0.164300 0.126800
0.734275 0.171775 0.134275
0.029350 0.104350 0.029350
0.074325 0.111825 0.036825
0.119300 0.119300 0.044300
0.164275 0.126775 0.051775
0.209250 0.134250 0.059250
0.254225 0.141725 0.066725
0.299200 0.149200 0.074200
0.344175 0.156675 0.081675
0.389150 0.164150 0.089150
0.434125 0.171625 0.096625
0.479100 0.179100 0.104100
0.524075 0.186575 0.111575
0.569050 0.194050 0.119050
0.614025 0.201525 0.126525
0.659000 0.209000 0.134000
0.703975 0.216475 0.141475
0.748950 0.223950 0.148950
0.044025 0.156525 0.044025
0.089000 0.164000 0.051500
0.133975 0.171475 0.058975
0.178950 0.178950 0.066450
0.223925 0.186425 0.073925
0.268900 0.193900 0.081400
0.313875 0.201375 0.088875
0.358850 0.208850 0.096350
0.403825 0.216325 0.103825
0.448800 0.223800 0.111300
0.493775 0.231275 0.118775
0.538750 0.238750 0.126250
0.583725 0.246225 0.133725
0.628700 0.253700 0.141200
0.673675 0.261175 0.148675
0.718650 0.268650 0.156150
0.763625 0.276125 0.163625
0.058700 0.208700 0.058700
0.103675 0.216175 0.066175
0.148650 0.223650 0.073650
0.193625 0.231125 0.081125
0.238600 0.238600 0.088600
0.283575 0.246075 0.096075
0.328550 0.253550 0.103550
0.373525 0.261025 0.111025
0.418500 0.268500 0.118500
0.463475 0.275975 0.125975
0.508450 0.283450 0.133450
0.553425 0.290925 0.140925
0.598400 0.298400 0.148400
0.643375 0.305875 0.155875
0.688350 0.313350 0.163350
0.733325 0.320825 0.170825
0.778300 0.328300 0.178300
0.073375 0.260875 0.073375
0.118350 0.268350 0.080850
0.163325 0.275825 0.088325
0.208300 0.283300 0.095800
0.253275 0.290775 0.103275
0.298250 0.298250 0.110750
0.343225 0.305725 0.118225
0.388200 0.313200 0.125700
0.433175 0.320675 0.133175
0.478150 0.328150 0.140650
0.523125 0.335625 0.148125
0.568100 0.343100 0.155600
0.613075 0.350575 0.163075
0.658050 0.358050 0.170550
0.703025 0.365525 0.178025
0.748000 0.373000 0.185500
0.792975 0.380475 0.192975
0.088050 0.313050 0.088050
0.133025 0.320525 0.095525
0.178000 0.328000 0.103000
0.222975 0.335475 0.110475
0.267950 0.342950 0.117950
0.312925 0.350425 0.125425
0.357900 0.357900 0.132900
0.402875 0.365375 0.140375
0.447850 0.372850 0.147850
0.492825 0.380325 0.155325
0.537800 0.387800 0.162800
0.582775 0.395275 0.170275
0.627750 0.402750 0.177750
0.672725 0.410225 0.185225
0.717700 0.417700 0.192700
0.762675 0.425175 0.200175
0.807650 0.432650 0.207650
0.102725 0.365225 0.102725
0.147700 0.372700 0.110200
0.192675 0.380175 0.117675
0.237650 0.387650 0.125150
0.282625 0.395125 0.132625
0.327600 0.402600 0.140100
0.372575 0.410075 0.147575
0.417550 0.417550 0.155050
0.462525 0.425025 0.162525
0.507500 0.432500 0.170000
0.552475 0.439975 0.177475
0.597450 0.447450 0.184950
0.642425 0.454925 0.192425
0.687400 0.462400 0.199900
0.732375 0.469875 0.207375
0.777350 0.477350 0.214850
0.822325 0.484825 0.222325
0.117400 0.417400 0.117400
0.162375 0.424875 0.124875
0.207350 0.432350 0.132350
0.252325 0.439825 0.139825
0.297300 0.447300 0.147300
0.342275 0.454775 0.154775
0.387250 0.462250 0.162250
0.432225 0.469725 0.169725
0.477200 0.477200 0.177200
0.522175 0.484675 0.184675
0.567150 0.492150 0.192150
0.612125 0.499625 0.199625
0.657100 0.507100 0.207100
0.702075 0.514575 0.214575
0.747050 0.522050 0.222050
0.792025 0.529525 0.229525
0.837000 0.537000 0.237000
0.132075 0.469575 0.132075
0.177050 0.477050 0.139550
0.222025 0.484525 0.147025
0.267000 0.492000 0.154500
0.311975 0.499475 0.161975
0.356950 0.506950 0.169450
0.401925 0.514425 0.176925
0.446900 0.521900 0.184400
0.491875 0.529375 0.191875
0.536850 0.536850 0.199350
0.581825 0.544325 0.206825
0.626800 0.551800 0.214300
0.671775 0.559275 0.221775
0.716750 0.566750 0.229250
0.761725 0.574225 0.236725
0.806700 0.581700 0.244200
0.851675 0.589175 0.251675
0.146750 0.521750 0.146750
0.191725 0.529225 0.154225
0.236700 0.536700 0.161700
0.281675 0.544175 0.169175
0.326650 0.551650 0.176650
0.371625 0.559125 0.184125
0.416600 0.566600 0.191600
0.461575 0.574075 0.199075
0.506550 0.581550 0.206550
0.551525 0.589025 0.214025
0.596500 0.596500 0.221500
0.641475 0.603975 0.228975
0.686450 0.611450 0.236450
0.731425 0.618925 0.243925
0.776400 0.626400 0.251400
0.821375 0.633875 0.258875
0.866350 0.641350 0.266350
0.161425 0.573925 0.161425
0.206400 0.581400 0.168900
0.251375 0.588875 0.176375
0.296350 0.596350 0.183850
0.341325 0.603825 0.191325
0.386300 0.611300 0.198800
0.431275 0.618775 0.206275
0.476250 0.626250 0.213750
0.521225 0.633725 0.221225
0.566200 0.641200 0.228700
0.611175 0.648675 0.236175
0.656150 0.656150 0.243650
0.701125 0.663625 0.251125
0.746100 0.671100 0.258600
0.791075 0.678575 0.266075
0.836050 0.686050 0.273550
0.881025 0.693525 0.281025
0.176100 0.626100 0.176100
0.221075 0.633575 0.183575
0.266050 0.641050 0.191050
0.311025 0.648525 0.198525
0.356000 0.656000 0.206000
0.400975 0.663475 0.213475
0.445950 0.670950 0.220950
0.490925 0.678425 0.228425
0.535900 0.685900 0.235900
0.580875 0.693375 0.243375
0.625850 0.700850 0.250850
0.670825 0.708325 0.258325
0.715800 0.715800 0.265800
0.760775 0.723275 0.273275
0.805750 0.730750 0.280750
0.850725 0.738225 0.288225
0.895700 0.745700 0.295700
0.190775 0.678275 0.190775
0.235750 0.685750 0.198250
0.280725 0.693225 0.205725
0.325700 0.700700 0.213200
0.370675 0.708175 0.220675
0.415650 0.715650 0.228150
0.460625 0.723125 0.235625
0.505600 0.730600 0.243100
0.550575 0.738075 0.250575
0.595550 0.745550 0.258050
0.640525 0.753025 0.265525
0.685500 0.760500 0.273000
0.730475 0.767975 0.280475
0.775450 0.775450 0.287950
0.820425 0.782925 0.295425
0.865400 0.790400 0.302900
0.910375 0.797875 0.310375
0.205450 0.730450 0.205450
0.250425 0.737925 0.212925
0.295400 0.745400 0.220400
0.340375 0.752875 0.227875
0.385350 0.760350 0.235350
0.430325 0.767825 0.242825
0.475300 0.775300 0.250300
0.520275 0.782775 0.257775
0.565250 0.790250 0.265250
0.610225 0.797725 0.272725
0.655200 0.805200 0.280200
0.700175 0.812675 0.287675
0.745150 0.820150 0.295150
0.790125 0.827625 0.302625
0.835100 0.835100 0.310100
0.880075 0.842575 0.317575
0.925050 0.850050 0.325050
0.220125 0.782625 0.220125
0.265100 0.790100 0.227600
0.310075 0.797575 0.235075
0.355050 0.805050 0.242550
0.400025 0.812525 0.250025
0.445000 0.820000 0.257500
0.489975 0.827475 0.264975
0.534950 0.834950 0.272450
0.579925 0.842425 0.279925
0.624900 0.849900 0.287400
0.669875 0.857375 0.294875
0.714850 0.864850 0.302350
0.759825 0.872325 0.309825
0.804800 0.879800 0.317300
0.849775 0.887275 0.324775
0.894750 0.894750 0.332250
0.939725 0.902225 0.339725
0.234800 0.834800 0.234800
0.279775 0.842275 0.242275
0.324750 0.849750 0.249750
0.369725 0.857225 0.257225
0.414700 0.864700 0.264700
0.459675 0.872175 0.272175
0.504650 0.879650 0.279650
0.549625 0.887125 0.287125
0.594600 0.894600 0.294600
0.639575 0.902075 0.302075
0.684550 0.909550 0.309550
0.729525 0.917025 0.317025
0.774500 0.924500 0.324500
0.819475 0.931975 0.331975
0.864450 0.939450 0.339450
0.909425 0.946925 0.346925
0.954400 0.954400 0.354400
0.002850 0.002850 0.040350
0.047825 0.010325 0.047825
0.092800 0.017800 0.055300
0.137775 0.025275 0.062775
0.182750 0.032750 0.070250
0.227725 0.040225 0.077725
0.272700 0.047700 0.085200
0.317675 0.055175 0.092675
0.362650 0.062650 0.100150
0.407625 0.070125 0.107625
0.452600 0.077600 0.115100
0.497575 0.085075 0.122575
0.542550 0.092550 0.130050
0.587525 0.100025 0.137525
0.632500 0.107500 0.145000
0.677475 0.114975 0.152475
0.722450 0.122450 0.159950
0.017525 0.055025 0.055025
0.062500 0.062500 0.062500
0.107475 0.069975 0.069975
0.152450 0.077450 0.077450
0.197425 0.084925 0.084925
0.242400 0.092400 0.092400
0.287375 0.099875 0.099875
0.332350 0.107350 0.107350
0.377325 0.114825 0.114825
0.422300 0.122300 0.122300
0.467275 0.129775 0.129775
0.512250 0.137250 0.137250
0.557225 0.144725 0.144725
0.602200 0.152200 0.152200
0.647175 0.159675 0.159675
0.692150 0.167150 0.167150
0.737125 0.174625 0.174625
0.032200 0.107200 0.069700
0.077175 0.114675 0.077175
0.122150 0.122150 0.084650
0.167125 0.129625 0.092125
0.212100 0.137100 0.099600
0.257075 0.144575 0.107075
0.302050 0.152050 0.114550
0.347025 0.159525 0.122025
0.392000 0.167000 0.129500
0.436975 0.174475 0.136975
0.481950 0.181950 0.144450
0.526925 0.189425 0.151925
0.571900 0.196900 0.159400
0.616875 0.204375 0.166875
0.661850 0.211850 0.174350
0.706825 0.219325 0.181825
0.751800 0.226800 0.189300
0.046875 0.159375 0.084375
0.091850 0.166850 0.091850
0.136825 0.174325 0.099325
0.181800 0.181800 0.106800
0.226775 0.189275 0.114275
0.271750 0.196750 0.121750
0.316725 0.204225 0.129225
0.361700 0.211700 0.136700
0.406675 0.219175 0.144175
0.451650 0.226650 0.151650
0.496625 0.234125 0.159125
0.541600 0.241600 0.166600
0.586575 0.249075 0.174075
0.631550 0.256550 0.181550
0.676525 0.264025 0.189025
0.721500 0.271500 0.196500
0.766475 0.278975 0.203975
0.061550 0.211550 0.099050
0.106525 0.219025 0.106525
0.151500 0.226500 0.114000
0.196475 0.233975 0.121475
0.241450 0.241450 0.128950
0.286425 0.248925 0.136425
0.331400 0.256400 0.143900
0.376375 0.263875 0.151375
0.421350 0.271350 0.158850
0.466325 0.278825 0.166325
0.511300 0.286300 0.173800
0.556275 0.293775 0.181275
0.601250 0.301250 0.188750
0.646225 0.308725 0.196225
0.691200 0.316200 0.203700
0.736175 0.323675 0.211175
0.781150 0.331150 0.218650
0.076225 0.263725 0.113725
0.121200 0.271200 0.121200
0.166175 0.278675 0.128675
0.211150 0.286150 0.136150
0.256125 0.293625 0.143625
0.301100 0.301100 0.151100
0.346075 0.308575 0.158575
0.391050 0.316050 0.166050
0.436025 0.323525 0.173525
0.481000 0.331000 0.181000
0.525975 0.338475 0.188475
0.570950 0.345950 0.195950
0.615925 0.353425 0.203425
0.660900 0.360900 0.210900
0.705875 0.368375 0.218375
0.750850 0.375850 0.225850
0.795825 0.383325 0.233325
0.090900 0.315900 0.128400
0.135875 0.323375 0.135875
0.180850 0.330850 0.143350
0.225825 0.338325 0.150825
0.270800 0.345800 0.158300
0.315775 0.353275 0.165775
0.360750 0.360750 0.173250
0.405725 0.368225 0.180725
0.450700 0.375700 0.188200
0.495675 0.383175 0.195675
0.540650 0.390650 0.203150
0.585625 0.398125 0.210625
0.630600 0.405600 0.218100
0.675575 0.413075 0.225575
0.720550 0.420550 0.233050
0.765525 0.428025 0.240525
0.810500 0.435500 0.248000
0.105575 0.368075 0.143075
0.150550 0.375550 0.150550
0.195525 0.383025 0.158025
0.240500 0.390500 0.165500
0.285475 0.397975 0.172975
0.330450 0.405450 0.180450
0.375425 0.412925 0.187925
0.420400 0.420400 0.195400
0.465375 0.427875 0.202875
0.510350 0.435350 0.210350
0.555325 0.442825 0.217825
0.600300 0.450300 0.225300
0.645275 0.457775 0.232775
0.690250 0.465250 0.240250
0.735225 0.472725 0.247725
0.780200 0.480200 0.255200
0.825175 0.487675 0.262675
0.120250 0.420250 0.157750
0.165225 0.427725 0.165225
0.210200 0.435200 0.172700
0.255175 0.442675 0.180175
0.300150 0.450150 0.187650
0.345125 0.457625 0.195125
0.390100 0.465100 0.202600
0.435075 0.472575 0.210075
0.480050 0.480050 0.217550
0.525025 0.487525 0.225025
0.570000 0.495000 0.232500
0.614975 0.502475 0.239975
0.659950 0.509950 0.247450
0.704925 0.517425 0.254925
0.749900 0.524900 0.262400
0.794875 0.532375 0.269875
0.839850 0.539850 0.277350
0.134925 0.472425 0.172425
0.179900 0.479900 0.179900
0.224875 0.487375 0.187375
0.269850 0.494850 0.194850
0.314825 0.502325 0.202325
0.359800 0.509800 0.209800
0.404775 0.517275 0.217275
0.449750 0.524750 0.224750
0.494725 0.532225 0.232225
0.539700 0.539700 0.239700
0.584675 0.547175 0.247175
0.629650 0.554650 0.254650
0.674625 0.562125 0.262125
0.719600 0.569600 0.269600
0.764575 0.577075 0.277075
0.809550 0.584550 0.284550
0.854525 0.592025 0.292025
0.149600 0.524600 0.187100
0.194575 0.532075 0.194575
0.239550 0.539550 0.202050
0.284525 0.547025 0.209525
0.329500 0.554500 0.217000
0.374475 0.561975 0.224475
0.419450 0.569450 0.231950
0.464425 0.576925 0.239425
0.509400 0.584400 0.246900
0.554375 0.591875 0.254375
0.599350 0.599350 0.261850
0.644325 0.606825 0.269325
0.689300 0.614300 0.276800
0.734275 0.621775 0.284275
0.779250 0.629250 0.291750
0.824225 0.636725 0.299225
0.869200 0.644200 0.306700
0.164275 0.576775 0.201775
0.209250 0.584250 0.209250
0.254225 0.591725 0.216725
0.299200 0.599200 0.224200
0.344175 0.606675 0.231675
0.389150 0.614150 0.239150
0.434125 0.621625 0.246625
0.479100 0.629100 0.254100
0.524075 0.636575 0.261575
0.569050 0.644050 0.269050
0.614025 0.651525 0.276525
0.659000 0.659000 0.284000
0.703975 0.666475 0.291475
0.748950 0.673950 0.298950
0.793925 0.681425 0.306425
0.838900 0.688900 0.313900
0.883875 0.696375 0.321375
0.178950 0.628950 0.216450
0.223925 0.636425 0.223925
0.268900 0.643900 0.231400
0.313875 0.651375 0.238875
0.358850 0.658850 0.246350
0.403825 0.666325 0.253825
0.448800 0.673800 0.261300
0.493775 0.681275 0.268775
0.538750 0.688750 0.276250
0.583725 0.696225 0.283725
0.628700 0.703700 0.291200
0.673675 0.711175 0.298675
0.718650 0.718650 0.306150
0.763625 0.726125 0.313625
0.808600 0.733600 0.321100
0.853575 0.741075 0.328575
0.898550 0.748550 0.336050
0.193625 0.681125 0.231125
0.238600 0.688600 0.238600
0.283575 0.696075 0.246075
0.328550 0.703550 0.253550
0.373525 0.711025 0.261025
0.418500 0.718500 0.268500
0.463475 0.725975 0.275975
0.508450 0.733450 0.283450
0.553425 0.740925 0.290925
0.598400 0.748400 0.298400
0.643375 0.755875 0.305875
0.688350 0.763350 0.313350
0.733325 0.770825 0.320825
0.778300 0.778300 0.328300
0.823275 0.785775 0.335775
0.868250 0.793250 0.343250
0.913225 0.800725 0.350725
0.208300 0.733300 0.245800
0.253275 0.740775 0.253275
0.298250 0.748250 0.260750
0.343225 0.755725 0.268225
0.388200 0.763200 0.275700
0.433175 0.770675 0.283175
0.478150 0.778150 0.290650
0.523125 0.785625 0.298125
0.568100 0.793100 0.305600
0.613075 0.800575 0.313075
0.658050 0.808050 0.320550
0.703025 0.815525 0.328025
0.748000 0.823000 0.335500
0.792975 0.830475 0.342975
0.837950 0.837950 0.350450
0.882925 0.845425 0.357925
0.927900 0.852900 0.365400
0.222975 0.785475 0.260475
0.267950 0.792950 0.267950
0.312925 0.800425 0.275425
0.357900 0.807900 0.282900
0.402875 0.815375 0.290375
0.447850 0.822850 0.297850
0.492825 0.830325 0.305325
0.537800 0.837800 0.312800
0.582775 0.845275 0.320275
0.627750 0.852750 0.327750
0.672725 0.860225 0.335225
0.717700 0.867700 0.342700
0.762675 0.875175 0.350175
0.807650 0.882650 0.357650
0.852625 0.890125 0.365125
0.897600 0.897600 0.372600
0.942575 0.905075 0.380075
0.237650 0.837650 0.275150
0.282625 0.845125 0.282625
0.327600 0.852600 0.290100
0.372575 0.860075 0.297575
0.417550 0.867550 0.305050
0.462525 0.875025 0.312525
0.507500 0.882500 0.320000
0.552475 0.889975 0.327475
0.597450 0.897450 0.334950
0.642425 0.904925 0.342425
0.687400 0.912400 0.349900
0.732375 0.919875 0.357375
0.777350 0.927350 0.364850
0.822325 0.934825 0.372325
0.867300 0.942300 0.379800
0.912275 0.949775 0.387275
0.957250 0.957250 0.394750
0.005700 0.005700 0.080700
0.050675 0.013175 0.088175
0.095650 0.020650 0.095650
0.140625 0.028125 0.103125
0.185600 0.035600 0.110600
0.230575 0.043075 0.118075
0.275550 0.050550 0.125550
0.320525 0.058025 0.133025
0.365500 0.065500 0.140500
0.410475 0.072975 0.147975
0.455450 0.080450 0.155450
0.500425 0.087925 0.162925
0.545400 0.095400 0.170400
0.590375 0.102875 0.177875
0.635350 0.110350 0.185350
0.680325 0.117825 0.192825
0.725300 0.125300 0.200300
0.020375 0.057875 0.095375
0.065350 0.065350 0.102850
0.110325 0.072825 0.110325
0.155300 0.080300 0.117800
0.200275 0.087775 0.125275
0.245250 0.095250 0.132750
0.290225 0.102725 0.140225
0.335200 0.110200 0.147700
0.380175 0.117675 0.155175
0.425150 0.125150 0.162650
0.470125 0.132625 0.170125
0.515100 0.140100 0.177600
0.560075 0.147575 0.185075
0.605050 0.155050 0.192550
0.650025 0.162525 0.200025
0.695000 0.170000 0.207500
0.739975 0.177475 0.214975
0.035050 0.110050 0.110050
0.080025 0.117525 0.117525
0.125000 0.125000 0.125000
0.169975 0.132475 0.132475
0.214950 0.139950 0.139950
0.259925 0.147425 0.147425
0.304900 0.154900 0.154900
0.349875 0.162375 0.162375
0.394850 0.169850 0.169850
0.439825 0.177325 0.177325
0.484800 0.184800 0.184800
0.529775 0.192275 0.192275
0.574750 0.199750 0.199750
0.619725 0.207225 0.207225
0.664700 0.214700 0.214700
0.709675 0.222175 0.222175
0.754650 0.229650 0.229650
0.049725 0.162225 0.124725
0.094700 0.169700 0.132200
0.139675 0.177175 0.139675
0.184650 0.184650 0.147150
0.229625 0.192125 0.154625
0.274600 0.199600 0.162100
0.319575 0.207075 0.169575
0.364550 0.214550 0.177050
0.409525 0.222025 0.184525
0.454500 0.229500 0.192000
0.499475 0.236975 0.199475
0.544450 0.244450 0.206950
0.589425 0.251925 0.214425
0.634400 0.259400 0.221900
0.679375 0.266875 0.229375
0.724350 0.274350 0.236850
0.769325 0.281825 0.244325
0.064400 0.214400 0.139400
0.109375 0.221875 0.146875
0.154350 0.229350 0.154350
0.199325 0.236825 0.161825
0.244300 0.244300 0.169300
0.289275 0.251775 0.176775
0.334250 0.259250 0.184250
0.379225 0.266725 0.191725
0.424200 0.274200 0.199200
0.469175 0.281675 0.206675
0.514150 0.289150 0.214150
0.559125 0.296625 0.221625
0.604100 0.304100 0.229100
0.649075 0.311575 0.236575
0.694050 0.319050 0.244050
0.739025 0.326525 0.251525
0.784000 0.334000 0.259000
0.079075 0.266575 0.154075
0.124050 0.274050 0.161550
0.169025 0.281525 0.169025
0.214000 0.289000 0.176500
0.258975 0.296475 0.183975
0.303950 0.303950 0.191450
0.348925 0.311425 0.198925
0.393900 0.318900 0.206400
0.438875 0.326375 0.213875
0.483850 0.333850 0.221350
0.528825 0.341325 0.228825
0.573800 0.348800 0.236300
0.618775 0.356275 0.243775
0.663750 0.363750 0.251250
0.708725 0.371225 0.258725
0.753700 0.378700 0.266200
0.798675 0.386175 0.273675
0.093750 0.318750 0.168750
0.138725 0.326225 0.176225
0.183700 0.333700 0.183700
0.228675 0.341175 0.191175
0.273650 0.348650 0.198650
0.318625 0.356125 0.206125
0.363600 0.363600 0.213600
0.408575 0.371075 0.221075
0.453550 0.378550 0.228550
0.498525 0.386025 0.236025
0.543500 0.393500 0.243500
0.588475 0.400975 0.250975
0.633450 0.408450 0.258450
0.678425 0.415925 0.265925
0.723400 0.423400 0.273400
0.768375 0.430875 0.280875
0.813350 0.438350 0.288350
0.108425 0.370925 0.183425
0.153400 0.378400 0.190900
0.198375 0.385875 0.198375
0.243350 0.393350 0.205850
0.288325 0.400825 0.213325
0.333300 0.408300 0.220800
0.378275 0.415775 0.228275
0.423250 0.423250 0.235750
0.468225 0.430725 0.243225
0.513200 0.438200 0.250700
0.558175 0.445675 0.258175
0.603150 0.453150 0.265650
0.648125 0.460625 0.273125
0.693100 0.468100 0.280600
0.738075 0.475575 0.288075
0.783050 0.483050 0.295550
0.828025 0.490525 0.303025
0.123100 0.423100 0.198100
0.168075 0.430575 0.205575
0.213050 0.438050 0.213050
0.258025 0.445525 0.220525
0.303000 0.453000 0.228000
0.347975 0.460475 0.235475
0.392950 0.467950 0.242950
0.437925 0.475425 0.250425
0.482900 0.482900 0.257900
0.527875 0.490375 0.265375
0.572850 0.497850 0.272850
0.617825 0.505325 0.280325
0.662800 0.512800 0.287800
0.707775 0.520275 0.295275
0.752750 0.527750 0.302750
0.797725 0.535225 0.310225
0.842700 0.542700 0.317700
0.137775 0.475275 0.212775
0.182750 0.482750 0.220250
0.227725 0.490225 0.227725
0.272700 0.497700 0.235200
0.317675 0.505175 0.242675
0.362650 0.512650 0.250150
0.407625 0.520125 0.257625
0.452600 0.527600 0.265100
0.497575 0.535075 0.272575
0.542550 0.542550 0.280050
0.587525 0.550025 0.287525
0.632500 0.557500 0.295000
0.677475 0.564975 0.302475
0.722450 0.572450 0.309950
0.767425 0.579925 0.317425
0.812400 0.587400 0.324900
0.857375 0.594875 0.332375
0.152450 0.527450 0.227450
0.197425 0.534925 0.234925
0.242400 0.542400 0.242400
0.287375 0.549875 0.249875
0.332350 0.557350 0.257350
0.377325 0.564825 0.264825
0.422300 0.572300 0.272300
0.467275 0.579775 0.279775
0.512250 0.587250 0.287250
0.557225 0.594725 0.294725
0.602200 0.602200 0.302200
0.647175 0.609675 0.309675
0.692150 0.617150 0.317150
0.737125 0.624625 0.324625
0.782100 0.632100 0.332100
0.827075 0.639575 0.339575
0.872050 0.647050 0.347050
0.167125 0.579625 0.242125
0.212100 0.587100 0.249600
0.257075 0.594575 0.257075
0.302050 0.602050 0.264550
0.347025 0.609525 0.272025
0.392000 0.617000 0.279500
0.436975 0.624475 0.286975
0.481950 0.631950 0.294450
0.526925 0.639425 0.301925
0.571900 0.646900 0.309400
0.616875 0.654375 0.316875
0.661850 0.661850 0.324350
0.706825 0.669325 0.331825
0.751800 0.676800 0.339300
0.796775 0.684275 0.346775
0.841750 0.691750 0.354250
0.886725 0.699225 0.361725
0.181800 0.631800 0.256800
0.226775 0.639275 0.264275
0.271750 0.646750 0.271750
0.316725 0.654225 0.279225
0.361700 0.661700 0.286700
0.406675 0.669175 0.294175
0.451650 0.676650 0.301650
0.496625 0.684125 0.309125
0.541600 0.691600 0.316600
0.586575 0.699075 0.324075
0.631550 0.706550 0.331550
0.676525 0.714025 0.339025
0.721500 0.721500 0.346500
0.766475 0.728975 0.353975
0.811450 0.736450 0.361450
0.856425 0.743925 0.368925
0.901400 0.751400 0.376400
0.196475 0.683975 0.271475
0.241450 0.691450 0.278950
0.286425 0.698925 0.286425
0.331400 0.706400 0.293900
0.376375 0.713875 0.301375
0.421350 0.721350 0.308850
0.466325 0.728825 0.316325
0.511300 0.736300 0.323800
0.556275 0.743775 0.331275
0.601250 0.751250 0.338750
0.646225 0.758725 0.346225
0.691200 0.766200 0.353700
0.736175 0.773675 0.361175
0.781150 0.781150 0.368650
0.826125 0.788625 0.376125
0.871100 0.796100 0.383600
0.916075 0.803575 0.391075
0.211150 0.736150 0.286150
0.256125 0.743625 0.293625
0.301100 0.751100 0.301100
0.346075 0.758575 0.308575
0.391050 0.766050 0.316050
0.436025 0.773525 0.323525
0.481000 0.781000 0.331000
0.525975 0.788475 0.338475
0.570950 0.795950 0.345950
0.615925 0.803425 0.353425
0.660900 0.810900 0.360900
0.705875 0.818375 0.368375
0.750850 0.825850 0.375850
0.795825 0.833325 0.383325
0.840800 0.840800 0.390800
0.885775 0.848275 0.398275
0.930750 0.855750 0.405750
0.225825 0.788325 0.300825
0.270800 0.795800 0.308300
0.315775 0.803275 0.315775
0.360750 0.810750 0.323250
0.405725 0.818225 0.330725
0.450700 0.825700 0.338200
0.495675 0.833175 0.345675
0.540650 0.840650 0.353150
0.585625 0.848125 0.360625
0.630600 0.855600 0.368100
0.675575 0.863075 0.375575
0.720550 0.870550 0.383050
0.765525 0.878025 0.390525
0.810500 0.885500 0.398000
0.855475 0.892975 0.405475
0.900450 0.900450 0.412950
0.945425 0.907925 0.420425
0.240500 0.840500 0.315500
0.285475 0.847975 0.322975
0.330450 0.855450 0.330450
0.375425 0.862925 0.337925
0.420400 0.870400 0.345400
0.465375 0.877875 0.352875
0.510350 0.885350 0.360350
0.555325 0.892825 0.367825
0.600300 0.900300 0.375300
0.645275 0.907775 0.382775
0.690250 0.915250 0.390250
0.735225 0.922725 0.397725
0.780200 0.930200 0.405200
0.825175 0.937675 0.412675
0.870150 0.945150 0.420150
0.915125 0.952625 0.427625
0.960100 0.960100 0.435100
0.008550 0.008550 0.121050
0.053525 0.016025 0.128525
0.098500 0.023500 0.136000
0.143475 0.030975 0.143475
0.188450 0.038450 0.150950
0.233425 0.045925 0.158425
0.278400 0.053400 0.165900
0.323375 0.060875 0.173375
0.368350 0.068350 0.180850
0.413325 0.075825 0.188325
0.458300 0.083300 0.195800
0.503275 0.090775 0.203275
0.548250 0.098250 0.210750
0.593225 0.105725 0.218225
0.638200 0.113200 0.225700
0.683175 0.120675 0.233175
0.728150 0.128150 0.240650
0.023225 0.060725 0.135725
0.068200 0.068200 0.143200
0.113175 0.075675 0.150675
