resources/luts/muted_film.cube
TITLE "Muted Film"
LUT_3D_SIZE 9
0.000000 0.000000 0.000000
0.089950 0.014950 0.014950
0.179900 0.029900 0.029900
0.269850 0.044850 0.044850
0.359800 0.059800 0.059800
0.449750 0.074750 0.074750
0.539700 0.089700 0.089700
0.629650 0.104650 0.104650
0.719600 0.119600 0.119600
0.029350 0.104350 0.029350
0.119300 0.119300 0.044300
0.209250 0.134250 0.059250
0.299200 0.149200 0.074200
0.389150 0.164150 0.089150
0.479100 0.179100 0.104100
0.569050 0.194050 0.119050
0.659000 0.209000 0.134000
0.748950 0.223950 0.148950
0.058700 0.208700 0.058700
0.148650 0.223650 0.073650
0.238600 0.238600 0.088600
0.328550 0.253550 0.103550
0.418500 0.268500 0.118500
0.508450 0.283450 0.133450
0.598400 0.298400 0.148400
0.688350 0.313350 0.163350
0.778300 0.328300 0.178300
0.088050 0.313050 0.088050
0.178000 0.328000 0.103000
0.267950 0.342950 0.117950
0.357900 0.357900 0.132900
0.447850 0.372850 0.147850
0.537800 0.387800 0.162800
0.627750 0.402750 0.177750
0.717700 0.417700 0.192700
0.807650 0.432650 0.207650
0.117400 0.417400 0.117400
0.207350 0.432350 0.132350
0.297300 0.447300 0.147300
0.387250 0.462250 0.162250
0.477200 0.477200 0.177200
0.567150 0.492150 0.192150
0.657100 0.507100 0.207100
0.747050 0.522050 0.222050
0.837000 0.537000 0.237000
0.146750 0.521750 0.146750
0.236700 0.536700 0.161700
0.326650 0.551650 0.176650
0.416600 0.566600 0.191600
0.506550 0.581550 0.206550
0.596500 0.596500 0.221500
0.686450 0.611450 0.236450
0.776400 0.626400 0.251400
0.866350 0.641350 0.266350
0.176100 0.626100 0.176100
0.266050 0.641050 0.191050
0.356000 0.656000 0.206000
0.445950 0.670950 0.220950
0.535900 0.685900 0.235900
0.625850 0.700850 0.250850
0.715800 0.715800 0.265800
0.805750 0.730750 0.280750
0.895700 0.745700 0.295700
0.205450 0.730450 0.205450
0.295400 0.745400 0.220400
0.385350 0.760350 0.235350
0.475300 0.775300 0.250300
0.565250 0.790250 0.265250
0.655200 0.805200 0.280200
0.745150 0.820150 0.295150
0.835100 0.835100 0.310100
0.925050 0.850050 0.325050
0.234800 0.834800 0.234800
0.324750 0.849750 0.249750
0.414700 0.864700 0.264700
0.504650 0.879650 0.279650
0.594600 0.894600 0.294600
0.684550 0.909550 0.309550
0.774500 0.924500 0.324500
0.864450 0.939450 0.339450
0.954400 0.954400 0.354400
0.005700 0.005700 0.080700
0.095650 0.020650 0.095650
0.185600 0.035600 0.110600
0.275550 0.050550 0.125550
0.365500 0.065500 0.140500
0.455450 0.080450 0.155450
0.545400 0.095400 0.170400
0.635350 0.110350 0.185350
0.725300 0.125300 0.200300
0.035050 0.110050 0.110050
0.125000 0.125000 0.125000
0.214950 0.139950 0.139950
0.304900 0.154900 0.154900
0.394850 0.169850 0.169850
0.484800 0.184800 0.184800
0.574750 0.199750 0.199750
0.664700 0.214700 0.214700
0.754650 0.229650 0.229650
0.064400 0.214400 0.139400
0.154350 0.229350 0.154350
0.244300 0.244300 0.169300
0.334250 0.259250 0.184250
0.424200 0.274200 0.199200
0.514150 0.289150 0.214150
0.604100 0.304100 0.229100
0.694050 0.319050 0.244050
0.784000 0.334000 0.259000
0.093750 0.318750 0.168750
0.183700 0.333700 0.183700
0.273650 0.348650 0.198650
0.363600 0.363600 0.213600
0.453550 0.378550 0.228550
0.543500 0.393500 0.243500
0.633450 0.408450 0.258450
0.723400 0.423400 0.273400
0.813350 0.438350 0.288350
0.123100 0.423100 0.198100
0.213050 0.438050 0.213050
0.303000 0.453000 0.228000
0.392950 0.467950 0.242950
0.482900 0.482900 0.257900
0.572850 0.497850 0.272850
0.662800 0.512800 0.287800
0.752750 0.527750 0.302750
0.842700 0.542700 0.317700
0.152450 0.527450 0.227450
0.242400 0.542400 0.242400
0.332350 0.557350 0.257350
0.422300 0.572300 0.272300
0.512250 0.587250 0.287250
0.602200 0.602200 0.302200
0.692150 0.617150 0.317150
0.782100 0.632100 0.332100
0.872050 0.647050 0.347050
0.181800 0.631800 0.256800
0.271750 0.646750 0.271750
0.361700 0.661700 0.286700
0.451650 0.676650 0.301650
0.541600 0.691600 0.316600
0.631550 0.706550 0.331550
0.721500 0.721500 0.346500
0.811450 0.736450 0.361450
0.901400 0.751400 0.376400
0.211150 0.736150 0.286150
0.301100 0.751100 0.301100
0.391050 0.766050 0.316050
0.481000 0.781000 0.331000
0.570950 0.795950 0.345950
0.660900 0.810900 0.360900
0.750850 0.825850 0.375850
0.840800 0.840800 0.390800
0.930750 0.855750 0.405750
0.240500 0.840500 0.315500
0.330450 0.855450 0.330450
0.420400 0.870400 0.345400
0.510350 0.885350 0.360350
0.600300 0.900300 0.375300
0.690250 0.915250 0.390250
0.780200 0.930200 0.405200
0.870150 0.945150 0.420150
0.960100 0.960100 0.435100
0.011400 0.011400 0.161400
0.101350 0.026350 0.176350
0.191300 0.041300 0.191300
0.281250 0.056250 0.206250
0.371200 0.071200 0.221200
0.461150 0.086150 0.236150
0.551100 0.101100 0.251100
0.641050 0.116050 0.266050
0.731000 0.131000 0.281000
0.040750 0.115750 0.190750
0.130700 0.130700 0.205700
0.220650 0.145650 0.220650
0.310600 0.160600 0.235600
0.400550 0.175550 0.250550
0.490500 0.190500 0.265500
0.580450 0.205450 0.280450
0.670400 0.220400 0.295400
0.760350 0.235350 0.310350
0.070100 0.220100 0.220100
0.160050 0.235050 0.235050
0.250000 0.250000 0.250000
0.339950 0.264950 0.264950
0.429900 0.279900 0.279900
0.519850 0.294850 0.294850
0.609800 0.309800 0.309800
0.699750 0.324750 0.324750
0.789700 0.339700 0.339700
0.099450 0.324450 0.249450
0.189400 0.339400 0.264400
0.279350 0.354350 0.279350
0.369300 0.369300 0.294300
0.459250 0.384250 0.309250
0.549200 0.399200 0.324200
0.639150 0.414150 0.339150
0.729100 0.429100 0.354100
0.819050 0.444050 0.369050
0.128800 0.428800 0.278800
0.218750 0.443750 0.293750
0.308700 0.458700 0.308700
0.398650 0.473650 0.323650
0.488600 0.488600 0.338600
0.578550 0.503550 0.353550
0.668500 0.518500 0.368500
0.758450 0.533450 0.383450
0.848400 0.548400 0.398400
0.158150 0.533150 0.308150
0.248100 0.548100 0.323100
0.338050 0.563050 0.338050
0.428000 0.578000 0.353000
0.517950 0.592950 0.367950
0.607900 0.607900 0.382900
0.697850 0.622850 0.397850
0.787800 0.637800 0.412800
0.877750 0.652750 0.427750
0.187500 0.637500 0.337500
0.277450 0.652450 0.352450
0.367400 0.667400 0.367400
0.457350 0.682350 0.382350
0.547300 0.697300 0.397300
0.637250 0.712250 0.412250
0.727200 0.727200 0.427200
0.817150 0.742150 0.442150
0.907100 0.757100 0.457100
0.216850 0.741850 0.366850
0.306800 0.756800 0.381800
0.396750 0.771750 0.396750
0.486700 0.786700 0.411700
0.576650 0.801650 0.426650
0.666600 0.816600 0.441600
0.756550 0.831550 0.456550
0.846500 0.846500 0.471500
0.936450 0.861450 0.486450
0.246200 0.846200 0.396200
0.336150 0.861150 0.411150
0.426100 0.876100 0.426100
0.516050 0.891050 0.441050
0.606000 0.906000 0.456000
0.695950 0.920950 0.470950
0.785900 0.935900 0.485900
0.875850 0.950850 0.500850
0.965800 0.965800 0.515800
0.017100 0.017100 0.242100
0.107050 0.032050 0.257050
0.197000 0.047000 0.272000
0.286950 0.061950 0.286950
0.376900 0.076900 0.301900
0.466850 0.091850 0.316850
0.556800 0.106800 0.331800
0.646750 0.121750 0.346750
0.736700 0.136700 0.361700
0.046450 0.121450 0.271450
0.136400 0.136400 0.286400
0.226350 0.151350 0.301350
0.316300 0.166300 0.316300
0.406250 0.181250 0.331250
0.496200 0.196200 0.346200
0.586150 0.211150 0.361150
0.676100 0.226100 0.376100
0.766050 0.241050 0.391050
0.075800 0.225800 0.300800
0.165750 0.240750 0.315750
0.255700 0.255700 0.330700
0.345650 0.270650 0.345650
0.435600 0.285600 0.360600
0.525550 0.300550 0.375550
0.615500 0.315500 0.390500
0.705450 0.330450 0.405450
0.795400 0.345400 0.420400
0.105150 0.330150 0.330150
0.195100 0.345100 0.345100
0.285050 0.360050 0.360050
0.375000 0.375000 0.375000
0.464950 0.389950 0.389950
0.554900 0.404900 0.404900
0.644850 0.419850 0.419850
0.734800 0.434800 0.434800
0.824750 0.449750 0.449750
0.134500 0.434500 0.359500
0.224450 0.449450 0.374450
0.314400 0.464400 0.389400
0.404350 0.479350 0.404350
0.494300 0.494300 0.419300
0.584250 0.509250 0.434250
0.674200 0.524200 0.449200
0.764150 0.539150 0.464150
0.854100 0.554100 0.479100
0.163850 0.538850 0.388850
0.253800 0.553800 0.403800
0.343750 0.568750 0.418750
0.433700 0.583700 0.433700
0.523650 0.598650 0.448650
0.613600 0.613600 0.463600
0.703550 0.628550 0.478550
0.793500 0.643500 0.493500
0.883450 0.658450 0.508450
0.193200 0.643200 0.418200
0.283150 0.658150 0.433150
0.373100 0.673100 0.448100
0.463050 0.688050 0.463050
0.553000 0.703000 0.478000
0.642950 0.717950 0.492950
0.732900 0.732900 0.507900
0.822850 0.747850 0.522850
0.912800 0.762800 0.537800
0.222550 0.747550 0.447550
0.312500 0.762500 0.462500
0.402450 0.777450 0.477450
0.492400 0.792400 0.492400
0.582350 0.807350 0.507350
0.672300 0.822300 0.522300
0.762250 0.837250 0.537250
0.852200 0.852200 0.552200
0.942150 0.867150 0.567150
0.251900 0.851900 0.476900
0.341850 0.866850 0.491850
0.431800 0.881800 0.506800
0.521750 0.896750 0.521750
0.611700 0.911700 0.536700
0.701650 0.926650 0.551650
0.791600 0.941600 0.566600
0.881550 0.956550 0.581550
0.971500 0.971500 0.596500
0.022800 0.022800 0.322800
0.112750 0.037750 0.337750
0.202700 0.052700 0.352700
0.292650 0.067650 0.367650
0.382600 0.082600 0.382600
0.472550 0.097550 0.397550
0.562500 0.112500 0.412500
0.652450 0.127450 0.427450
0.742400 0.142400 0.442400
0.052150 0.127150 0.352150
0.142100 0.142100 0.367100
0.232050 0.157050 0.382050
0.322000 0.172000 0.397000
0.411950 0.186950 0.411950
0.501900 0.201900 0.426900
0.591850 0.216850 0.441850
0.681800 0.231800 0.456800
0.771750 0.246750 0.471750
0.081500 0.231500 0.381500
0.171450 0.246450 0.396450
0.261400 0.261400 0.411400
0.351350 0.276350 0.426350
0.441300 0.291300 0.441300
0.531250 0.306250 0.456250
0.621200 0.321200 0.471200
0.711150 0.336150 0.486150
0.801100 0.351100 0.501100
0.110850 0.335850 0.410850
0.200800 0.350800 0.425800
0.290750 0.365750 0.440750
0.380700 0.380700 0.455700
0.470650 0.395650 0.470650
0.560600 0.410600 0.485600
0.650550 0.425550 0.500550
0.740500 0.440500 0.515500
0.830450 0.455450 0.530450
0.140200 0.440200 0.440200
0.230150 0.455150 0.455150
0.320100 0.470100 0.470100
0.410050 0.485050 0.485050
0.500000 0.500000 0.500000
0.589950 0.514950 0.514950
0.679900 0.529900 0.529900
0.769850 0.544850 0.544850
0.859800 0.559800 0.559800
0.169550 0.544550 0.469550
0.259500 0.559500 0.484500
0.349450 0.574450 0.499450
0.439400 0.589400 0.514400
0.529350 0.604350 0.529350
0.619300 0.619300 0.544300
0.709250 0.634250 0.559250
0.799200 0.649200 0.574200
0.889150 0.664150 0.589150
0.198900 0.648900 0.498900
0.288850 0.663850 0.513850
0.378800 0.678800 0.528800
0.468750 0.693750 0.543750
0.558700 0.708700 0.558700
0.648650 0.723650 0.573650
0.738600 0.738600 0.588600
0.828550 0.753550 0.603550
0.918500 0.768500 0.618500
0.228250 0.753250 0.528250
0.318200 0.768200 0.543200
0.408150 0.783150 0.558150
0.498100 0.798100 0.573100
0.588050 0.813050 0.588050
0.678000 0.828000 0.603000
0.767950 0.842950 0.617950
0.857900 0.857900 0.632900
0.947850 0.872850 0.647850
0.257600 0.857600 0.557600
0.347550 0.872550 0.572550
0.437500 0.887500 0.587500
0.527450 0.902450 0.602450
0.617400 0.917400 0.617400
0.707350 0.932350 0.632350
0.797300 0.947300 0.647300
0.887250 0.962250 0.662250
0.977200 0.977200 0.677200
0.028500 0.028500 0.403500
0.118450 0.043450 0.418450
0.208400 0.058400 0.433400
0.298350 0.073350 0.448350
0.388300 0.088300 0.463300
0.478250 0.103250 0.478250
0.568200 0.118200 0.493200
0.658150 0.133150 0.508150
0.748100 0.148100 0.523100
0.057850 0.132850 0.432850
0.147800 0.147800 0.447800
0.237750 0.162750 0.462750
0.327700 0.177700 0.477700
0.417650 0.192650 0.492650
0.507600 0.207600 0.507600
0.597550 0.222550 0.522550
0.687500 0.237500 0.537500
0.777450 0.252450 0.552450
0.087200 0.237200 0.462200
0.177150 0.252150 0.477150
0.267100 0.267100 0.492100
0.357050 0.282050 0.507050
0.447000 0.297000 0.522000
0.536950 0.311950 0.536950
0.626900 0.326900 0.551900
0.716850 0.341850 0.566850
0.806800 0.356800 0.581800
0.116550 0.341550 0.491550
0.206500 0.356500 0.506500
0.296450 0.371450 0.521450
0.386400 0.386400 0.536400
0.476350 0.401350 0.551350
0.566300 0.416300 0.566300
0.656250 0.431250 0.581250
0.746200 0.446200 0.596200
0.836150 0.461150 0.611150
0.145900 0.445900 0.520900
0.235850 0.460850 0.535850
0.325800 0.475800 0.550800
0.415750 0.490750 0.565750
0.505700 0.505700 0.580700
0.595650 0.520650 0.595650
0.685600 0.535600 0.610600
0.775550 0.550550 0.625550
0.865500 0.565500 0.640500
0.175250 0.550250 0.550250
0.265200 0.565200 0.565200
0.355150 0.580150 0.580150
0.445100 0.595100 0.595100
0.535050 0.610050 0.610050
0.625000 0.625000 0.625000
0.714950 0.639950 0.639950
0.804900 0.654900 0.654900
0.894850 0.669850 0.669850
0.204600 0.654600 0.579600
0.294550 0.669550 0.594550
0.384500 0.684500 0.609500
0.474450 0.699450 0.624450
0.564400 0.714400 0.639400
0.654350 0.729350 0.654350
0.744300 0.744300 0.669300
0.834250 0.759250 0.684250
0.924200 0.774200 0.699200
0.233950 0.758950 0.608950
0.323900 0.773900 0.623900
0.413850 0.788850 0.638850
0.503800 0.803800 0.653800
0.593750 0.818750 0.668750
0.683700 0.833700 0.683700
0.773650 0.848650 0.698650
0.863600 0.863600 0.713600
0.953550 0.878550 0.728550
0.263300 0.863300 0.638300
0.353250 0.878250 0.653250
0.443200 0.893200 0.668200
0.533150 0.908150 0.683150
0.623100 0.923100 0.698100
0.713050 0.938050 0.713050
0.803000 0.953000 0.728000
0.892950 0.967950 0.742950
0.982900 0.982900 0.757900
0.034200 0.034200 0.484200
0.124150 0.049150 0.499150
0.214100 0.064100 0.514100
0.304050 0.079050 0.529050
0.394000 0.094000 0.544000
0.483950 0.108950 0.558950
0.573900 0.123900 0.573900
0.663850 0.138850 0.588850
0.753800 0.153800 0.603800
0.063550 0.138550 0.513550
0.153500 0.153500 0.528500
0.243450 0.168450 0.543450
0.333400 0.183400 0.558400
0.423350 0.198350 0.573350
0.513300 0.213300 0.588300
0.603250 0.228250 0.603250
0.693200 0.243200 0.618200
0.783150 0.258150 0.633150
0.092900 0.242900 0.542900
0.182850 0.257850 0.557850
0.272800 0.272800 0.572800
0.362750 0.287750 0.587750
0.452700 0.302700 0.602700
0.542650 0.317650 0.617650
0.632600 0.332600 0.632600
0.722550 0.347550 0.647550
0.812500 0.362500 0.662500
0.122250 0.347250 0.572250
0.212200 0.362200 0.587200
0.302150 0.377150 0.602150
0.392100 0.392100 0.617100
0.482050 0.407050 0.632050
0.572000 0.422000 0.647000
0.661950 0.436950 0.661950
0.751900 0.451900 0.676900
0.841850 0.466850 0.691850
0.151600 0.451600 0.601600
0.241550 0.466550 0.616550
0.331500 0.481500 0.631500
0.421450 0.496450 0.646450
0.511400 0.511400 0.661400
0.601350 0.526350 0.676350
0.691300 0.541300 0.691300
0.781250 0.556250 0.706250
0.871200 0.571200 0.721200
0.180950 0.555950 0.630950
0.270900 0.570900 0.645900
0.360850 0.585850 0.660850
0.450800 0.600800 0.675800
0.540750 0.615750 0.690750
0.630700 0.630700 0.705700
0.720650 0.645650 0.720650
0.810600 0.660600 0.735600
0.900550 0.675550 0.750550
0.210300 0.660300 0.660300
0.300250 0.675250 0.675250
0.390200 0.690200 0.690200
0.480150 0.705150 0.705150
0.570100 0.720100 0.720100
0.660050 0.735050 0.735050
0.750000 0.750000 0.750000
0.839950 0.764950 0.764950
0.929900 0.779900 0.779900
0.239650 0.764650 0.689650
0.329600 0.779600 0.704600
0.419550 0.794550 0.719550
0.509500 0.809500 0.734500
0.599450 0.824450 0.749450
0.689400 0.839400 0.764400
0.779350 0.854350 0.779350
0.869300 0.869300 0.794300
0.959250 0.884250 0.809250
0.269000 0.869000 0.719000
0.358950 0.883950 0.733950
0.448900 0.898900 0.748900
0.538850 0.913850 0.763850
0.628800 0.928800 0.778800
0.718750 0.943750 0.793750
0.808700 0.958700 0.808700
0.898650 0.973650 0.823650
0.988600 0.988600 0.838600
0.039900 0.039900 0.564900
0.129850 0.054850 0.579850
0.219800 0.069800 0.594800
0.309750 0.084750 0.609750
0.399700 0.099700 0.624700
0.489650 0.114650 0.639650
0.579600 0.129600 0.654600
0.669550 0.144550 0.669550
0.759500 0.159500 0.684500
0.069250 0.144250 0.594250
0.159200 0.159200 0.609200
0.249150 0.174150 0.624150
0.339100 0.189100 0.639100
0.429050 0.204050 0.654050
0.519000 0.219000 0.669000
0.608950 0.233950 0.683950
0.698900 0.248900 0.698900
0.788850 0.263850 0.713850
0.098600 0.248600 0.623600
0.188550 0.263550 0.638550
0.278500 0.278500 0.653500
0.368450 0.293450 0.668450
0.458400 0.308400 0.683400
0.548350 0.323350 0.698350
0.638300 0.338300 0.713300
0.728250 0.353250 0.728250
0.818200 0.368200 0.743200
0.127950 0.352950 0.652950
0.217900 0.367900 0.667900
0.307850 0.382850 0.682850
0.397800 0.397800 0.697800
0.487750 0.412750 0.712750
0.577700 0.427700 0.727700
0.667650 0.442650 0.742650
0.757600 0.457600 0.757600
0.847550 0.472550 0.772550
0.157300 0.457300 0.682300
0.247250 0.472250 0.697250
0.337200 0.487200 0.712200
0.427150 0.502150 0.727150
0.517100 0.517100 0.742100
0.607050 0.532050 0.757050
0.697000 0.547000 0.772000
0.786950 0.561950 0.786950
0.876900 0.576900 0.801900
0.186650 0.561650 0.711650
0.276600 0.576600 0.726600
0.366550 0.591550 0.741550
0.456500 0.606500 0.756500
0.546450 0.621450 0.771450
0.636400 0.636400 0.786400
0.726350 0.651350 0.801350
0.816300 0.666300 0.816300
0.906250 0.681250 0.831250
0.216000 0.666000 0.741000
0.305950 0.680950 0.755950
0.395900 0.695900 0.770900
0.485850 0.710850 0.785850
0.575800 0.725800 0.800800
0.665750 0.740750 0.815750
0.755700 0.755700 0.830700
0.845650 0.770650 0.845650
0.935600 0.785600 0.860600
0.245350 0.770350 0.770350
0.335300 0.785300 0.785300
0.425250 0.800250 0.800250
0.515200 0.815200 0.815200
0.605150 0.830150 0.830150
0.695100 0.845100 0.845100
0.785050 0.860050 0.860050
0.875000 0.875000 0.875000
0.964950 0.889950 0.889950
0.274700 0.874700 0.799700
0.364650 0.889650 0.814650
0.454600 0.904600 0.829600
0.544550 0.919550 0.844550
0.634500 0.934500 0.859500
0.724450 0.949450 0.874450
0.814400 0.964400 0.889400
0.904350 0.979350 0.904350
0.994300 0.994300 0.919300
0.045600 0.045600 0.645600
0.135550 0.060550 0.660550
0.225500 0.075500 0.675500
0.315450 0.090450 0.690450
0.405400 0.105400 0.705400
0.495350 0.120350 0.720350
0.585300 0.135300 0.735300
0.675250 0.150250 0.750250
0.765200 0.165200 0.765200
0.074950 0.149950 0.674950
0.164900 0.164900 0.689900
0.254850 0.179850 0.704850
0.344800 0.194800 0.719800
0.434750 0.209750 0.734750
0.524700 0.224700 0.749700
0.614650 0.239650 0.764650
0.704600 0.254600 0.779600
0.794550 0.269550 0.794550
0.104300 0.254300 0.704300
0.194250 0.269250 0.719250
0.284200 0.284200 0.734200
0.374150 0.299150 0.749150
0.464100 0.314100 0.764100
0.554050 0.329050 0.779050
0.644000 0.344000 0.794000
0.733950 0.358950 0.808950
0.823900 0.373900 0.823900
0.133650 0.358650 0.733650
0.223600 0.373600 0.748600
0.313550 0.388550 0.763550
0.403500 0.403500 0.778500
0.493450 0.418450 0.793450
0.583400 0.433400 0.808400
0.673350 0.448350 0.823350
0.763300 0.463300 0.838300
0.853250 0.478250 0.853250
0.163000 0.463000 0.763000
0.252950 0.477950 0.777950
0.342900 0.492900 0.792900
0.432850 0.507850 0.807850
0.522800 0.522800 0.822800
0.612750 0.537750 0.837750
0.702700 0.552700 0.852700
0.792650 0.567650 0.867650
0.882600 0.582600 0.882600
0.192350 0.567350 0.792350
0.282300 0.582300 0.807300
0.372250 0.597250 0.822250
0.462200 0.612200 0.837200
0.552150 0.627150 0.852150
0.642100 0.642100 0.867100
0.732050 0.657050 0.882050
0.822000 0.672000 0.897000
0.911950 0.686950 0.911950
0.221700 0.671700 0.821700
0.311650 0.686650 0.836650
0.401600 0.701600 0.851600
0.491550 0.716550 0.866550
0.581500 0.731500 0.881500
0.671450 0.746450 0.896450
0.761400 0.761400 0.911400
0.851350 0.776350 0.926350
0.941300 0.791300 0.941300
0.251050 0.776050 0.851050
0.341000 0.791000 0.866000
0.430950 0.805950 0.880950
0.520900 0.820900 0.895900
0.610850 0.835850 0.910850
0.700800 0.850800 0.925800
0.790750 0.865750 0.940750
0.880700 0.880700 0.955700
0.970650 0.895650 0.970650
0.280400 0.880400 0.880400
0.370350 0.895350 0.895350
0.460300 0.910300 0.910300
0.550250 0.925250 0.925250
0.640200 0.940200 0.940200
0.730150 0.955150 0.955150
0.820100 0.970100 0.970100
0.910050 0.985050 0.985050
1.000000 1.000000 1.000000
