resources/luts/muted_film.cube
TITLE "Muted Film"
LUT_3D_SIZE 5
0.000000 0.000000 0.000000
0.179900 0.029900 0.029900
0.359800 0.059800 0.059800
0.539700 0.089700 0.089700
0.719600 0.119600 0.119600
0.058700 0.208700 0.058700
0.238600 0.238600 0.088600
0.418500 0.268500 0.118500
0.598400 0.298400 0.148400
0.778300 0.328300 0.178300
0.117400 0.417400 0.117400
0.297300 0.447300 0.147300
0.477200 0.477200 0.177200
0.657100 0.507100 0.207100
0.837000 0.537000 0.237000
0.176100 0.626100 0.176100
0.356000 0.656000 0.206000
0.535900 0.685900 0.235900
0.715800 0.715800 0.265800
0.895700 0.745700 0.295700
0.234800 0.834800 0.234800
0.414700 0.864700 0.264700
0.594600 0.894600 0.294600
0.774500 0.924500 0.324500
0.954400 0.954400 0.354400
0.011400 0.011400 0.161400
0.191300 0.041300 0.191300
0.371200 0.071200 0.221200
0.551100 0.101100 0.251100
0.731000 0.131000 0.281000
0.070100 0.220100 0.220100
0.250000 0.250000 0.250000
0.429900 0.279900 0.279900
0.609800 0.309800 0.309800
0.789700 0.339700 0.339700
0.128800 0.428800 0.278800
0.308700 0.458700 0.308700
0.488600 0.488600 0.338600
0.668500 0.518500 0.368500
0.848400 0.548400 0.398400
0.187500 0.637500 0.337500
0.367400 0.667400 0.367400
0.547300 0.697300 0.397300
0.727200 0.727200 0.427200
0.907100 0.757100 0.457100
0.246200 0.846200 0.396200
0.426100 0.876100 0.426100
0.606000 0.906000 0.456000
0.785900 0.935900 0.485900
0.965800 0.965800 0.515800
0.022800 0.022800 0.322800
0.202700 0.052700 0.352700
0.382600 0.082600 0.382600
0.562500 0.112500 0.412500
0.742400 0.142400 0.442400
0.081500 0.231500 0.381500
0.261400 0.261400 0.411400
0.441300 0.291300 0.441300
0.621200 0.321200 0.471200
0.801100 0.351100 0.501100
0.140200 0.440200 0.440200
0.320100 0.470100 0.470100
0.500000 0.500000 0.500000
0.679900 0.529900 0.529900
0.859800 0.559800 0.559800
0.198900 0.648900 0.498900
0.378800 0.678800 0.528800
0.558700 0.708700 0.558700
0.738600 0.738600 0.588600
0.918500 0.768500 0.618500
0.257600 0.857600 0.557600
0.437500 0.887500 0.587500
0.617400 0.917400 0.617400
0.797300 0.947300 0.647300
0.977200 0.977200 0.677200
0.034200 0.034200 0.484200
0.214100 0.064100 0.514100
0.394000 0.094000 0.544000
0.573900 0.123900 0.573900
0.753800 0.153800 0.603800
0.092900 0.242900 0.542900
0.272800 0.272800 0.572800
0.452700 0.302700 0.602700
0.632600 0.332600 0.632600
0.812500 0.362500 0.662500
0.151600 0.451600 0.601600
0.331500 0.481500 0.631500
0.511400 0.511400 0.661400
0.691300 0.541300 0.691300
0.871200 0.571200 0.721200
0.210300 0.660300 0.660300
0.390200 0.690200 0.690200
0.570100 0.720100 0.720100
0.750000 0.750000 0.750000
0.929900 0.779900 0.779900
0.269000 0.869000 0.719000
0.448900 0.898900 0.748900
0.628800 0.928800 0.778800
0.808700 0.958700 0.808700
0.988600 0.988600 0.838600
0.045600 0.045600 0.645600
0.225500 0.075500 0.675500
0.405400 0.105400 0.705400
0.585300 0.135300 0.735300
0.765200 0.165200 0.765200
0.104300 0.254300 0.704300
0.284200 0.284200 0.734200
0.464100 0.314100 0.764100
0.644000 0.344000 0.794000
0.823900 0.373900 0.823900
0.163000 0.463000 0.763000
0.342900 0.492900 0.792900
0.522800 0.522800 0.822800
0.702700 0.552700 0.852700
0.882600 0.582600 0.882600
0.221700 0.671700 0.821700
0.401600 0.701600 0.851600
0.581500 0.731500 0.881500
0.761400 0.761400 0.911400
0.941300 0.791300 0.941300
0.280400 0.880400 0.880400
0.460300 0.910300 0.910300
0.640200 0.940200 0.940200
0.820100 0.970100 0.970100
1.000000 1.000000 1.000000
