resources/luts/teal_orange.cube
TITLE "Teal & Orange"
LUT_3D_SIZE 9
0.050000 0.000000 0.000000
0.200000 0.000000 0.000000
0.350000 0.000000 0.000000
0.500000 0.000000 0.000000
0.650000 0.000000 0.000000
0.800000 0.000000 0.000000
0.950000 0.000000 0.000000
1.000000 0.000000 0.000000
1.000000 0.000000 0.000000
0.050000 0.106250 0.000000
0.200000 0.106250 0.000000
0.350000 0.106250 0.000000
0.500000 0.106250 0.000000
0.650000 0.106250 0.000000
0.800000 0.106250 0.000000
0.950000 0.106250 0.000000
1.000000 0.106250 0.000000
1.000000 0.106250 0.000000
0.050000 0.212500 0.000000
0.200000 0.212500 0.000000
0.350000 0.212500 0.000000
0.500000 0.212500 0.000000
0.650000 0.212500 0.000000
0.800000 0.212500 0.000000
0.950000 0.212500 0.000000
1.000000 0.212500 0.000000
1.000000 0.212500 0.000000
0.050000 0.318750 0.000000
0.200000 0.318750 0.000000
0.350000 0.318750 0.000000
0.500000 0.318750 0.000000
0.650000 0.318750 0.000000
0.800000 0.318750 0.000000
0.950000 0.318750 0.000000
1.000000 0.318750 0.000000
1.000000 0.318750 0.000000
0.050000 0.425000 0.000000
0.200000 0.425000 0.000000
0.350000 0.425000 0.000000
0.500000 0.425000 0.000000
0.650000 0.425000 0.000000
0.800000 0.425000 0.000000
0.950000 0.425000 0.000000
1.000000 0.425000 0.000000
1.000000 0.425000 0.000000
0.050000 0.531250 0.000000
0.200000 0.531250 0.000000
0.350000 0.531250 0.000000
0.500000 0.531250 0.000000
0.650000 0.531250 0.000000
0.800000 0.531250 0.000000
0.950000 0.531250 0.000000
1.000000 0.531250 0.000000
1.000000 0.531250 0.000000
0.050000 0.637500 0.000000
0.200000 0.637500 0.000000
0.350000 0.637500 0.000000
0.500000 0.637500 0.000000
0.650000 0.637500 0.000000
0.800000 0.637500 0.000000
0.950000 0.637500 0.000000
1.000000 0.637500 0.000000
1.000000 0.637500 0.000000
0.050000 0.743750 0.000000
0.200000 0.743750 0.000000
0.350000 0.743750 0.000000
0.500000 0.743750 0.000000
0.650000 0.743750 0.000000
0.800000 0.743750 0.000000
0.950000 0.743750 0.000000
1.000000 0.743750 0.000000
1.000000 0.743750 0.000000
0.050000 0.850000 0.000000
0.200000 0.850000 0.000000
0.350000 0.850000 0.000000
0.500000 0.850000 0.000000
0.650000 0.850000 0.000000
0.800000 0.850000 0.000000
0.950000 0.850000 0.000000
1.000000 0.850000 0.000000
1.000000 0.850000 0.000000
0.050000 0.000000 0.100000
0.200000 0.000000 0.100000
0.350000 0.000000 0.100000
0.500000 0.000000 0.100000
0.650000 0.000000 0.100000
0.800000 0.000000 0.100000
0.950000 0.000000 0.100000
1.000000 0.000000 0.100000
1.000000 0.000000 0.100000
0.050000 0.106250 0.100000
0.200000 0.106250 0.100000
0.350000 0.106250 0.100000
0.500000 0.106250 0.100000
0.650000 0.106250 0.100000
0.800000 0.106250 0.100000
0.950000 0.106250 0.100000
1.000000 0.106250 0.100000
1.000000 0.106250 0.100000
0.050000 0.212500 0.100000
0.200000 0.212500 0.100000
0.350000 0.212500 0.100000
0.500000 0.212500 0.100000
0.650000 0.212500 0.100000
0.800000 0.212500 0.100000
0.950000 0.212500 0.100000
1.000000 0.212500 0.100000
1.000000 0.212500 0.100000
0.050000 0.318750 0.100000
0.200000 0.318750 0.100000
0.350000 0.318750 0.100000
0.500000 0.318750 0.100000
0.650000 0.318750 0.100000
0.800000 0.318750 0.100000
0.950000 0.318750 0.100000
1.000000 0.318750 0.100000
1.000000 0.318750 0.100000
0.050000 0.425000 0.100000
0.200000 0.425000 0.100000
0.350000 0.425000 0.100000
0.500000 0.425000 0.100000
0.650000 0.425000 0.100000
0.800000 0.425000 0.100000
0.950000 0.425000 0.100000
1.000000 0.425000 0.100000
1.000000 0.425000 0.100000
0.050000 0.531250 0.100000
0.200000 0.531250 0.100000
0.350000 0.531250 0.100000
0.500000 0.531250 0.100000
0.650000 0.531250 0.100000
0.800000 0.531250 0.100000
0.950000 0.531250 0.100000
1.000000 0.531250 0.100000
1.000000 0.531250 0.100000
0.050000 0.637500 0.100000
0.200000 0.637500 0.100000
0.350000 0.637500 0.100000
0.500000 0.637500 0.100000
0.650000 0.637500 0.100000
0.800000 0.637500 0.100000
0.950000 0.637500 0.100000
1.000000 0.637500 0.100000
1.000000 0.637500 0.100000
0.050000 0.743750 0.100000
0.200000 0.743750 0.100000
0.350000 0.743750 0.100000
0.500000 0.743750 0.100000
0.650000 0.743750 0.100000
0.800000 0.743750 0.100000
0.950000 0.743750 0.100000
1.000000 0.743750 0.100000
1.000000 0.743750 0.100000
0.050000 0.850000 0.100000
0.200000 0.850000 0.100000
0.350000 0.850000 0.100000
0.500000 0.850000 0.100000
0.650000 0.850000 0.100000
0.800000 0.850000 0.100000
0.950000 0.850000 0.100000
1.000000 0.850000 0.100000
1.000000 0.850000 0.100000
0.050000 0.000000 0.200000
0.200000 0.000000 0.200000
0.350000 0.000000 0.200000
0.500000 0.000000 0.200000
0.650000 0.000000 0.200000
0.800000 0.000000 0.200000
0.950000 0.000000 0.200000
1.000000 0.000000 0.200000
1.000000 0.000000 0.200000
0.050000 0.106250 0.200000
0.200000 0.106250 0.200000
0.350000 0.106250 0.200000
0.500000 0.106250 0.200000
0.650000 0.106250 0.200000
0.800000 0.106250 0.200000
0.950000 0.106250 0.200000
1.000000 0.106250 0.200000
1.000000 0.106250 0.200000
0.050000 0.212500 0.200000
0.200000 0.212500 0.200000
0.350000 0.212500 0.200000
0.500000 0.212500 0.200000
0.650000 0.212500 0.200000
0.800000 0.212500 0.200000
0.950000 0.212500 0.200000
1.000000 0.212500 0.200000
1.000000 0.212500 0.200000
0.050000 0.318750 0.200000
0.200000 0.318750 0.200000
0.350000 0.318750 0.200000
0.500000 0.318750 0.200000
0.650000 0.318750 0.200000
0.800000 0.318750 0.200000
0.950000 0.318750 0.200000
1.000000 0.318750 0.200000
1.000000 0.318750 0.200000
0.050000 0.425000 0.200000
0.200000 0.425000 0.200000
0.350000 0.425000 0.200000
0.500000 0.425000 0.200000
0.650000 0.425000 0.200000
0.800000 0.425000 0.200000
0.950000 0.425000 0.200000
1.000000 0.425000 0.200000
1.000000 0.425000 0.200000
0.050000 0.531250 0.200000
0.200000 0.531250 0.200000
0.350000 0.531250 0.200000
0.500000 0.531250 0.200000
0.650000 0.531250 0.200000
0.800000 0.531250 0.200000
0.950000 0.531250 0.200000
1.000000 0.531250 0.200000
1.000000 0.531250 0.200000
0.050000 0.637500 0.200000
0.200000 0.637500 0.200000
0.350000 0.637500 0.200000
0.500000 0.637500 0.200000
0.650000 0.637500 0.200000
0.800000 0.637500 0.200000
0.950000 0.637500 0.200000
1.000000 0.637500 0.200000
1.000000 0.637500 0.200000
0.050000 0.743750 0.200000
0.200000 0.743750 0.200000
0.350000 0.743750 0.200000
0.500000 0.743750 0.200000
0.650000 0.743750 0.200000
0.800000 0.743750 0.200000
0.950000 0.743750 0.200000
1.000000 0.743750 0.200000
1.000000 0.743750 0.200000
0.050000 0.850000 0.200000
0.200000 0.850000 0.200000
0.350000 0.850000 0.200000
0.500000 0.850000 0.200000
0.650000 0.850000 0.200000
0.800000 0.850000 0.200000
0.950000 0.850000 0.200000
1.000000 0.850000 0.200000
1.000000 0.850000 0.200000
0.050000 0.000000 0.300000
0.200000 0.000000 0.300000
0.350000 0.000000 0.300000
0.500000 0.000000 0.300000
0.650000 0.000000 0.300000
0.800000 0.000000 0.300000
0.950000 0.000000 0.300000
1.000000 0.000000 0.300000
1.000000 0.000000 0.300000
0.050000 0.106250 0.300000
0.200000 0.106250 0.300000
0.350000 0.106250 0.300000
0.500000 0.106250 0.300000
0.650000 0.106250 0.300000
0.800000 0.106250 0.300000
0.950000 0.106250 0.300000
1.000000 0.106250 0.300000
1.000000 0.106250 0.300000
0.050000 0.212500 0.300000
0.200000 0.212500 0.300000
0.350000 0.212500 0.300000
0.500000 0.212500 0.300000
0.650000 0.212500 0.300000
0.800000 0.212500 0.300000
0.950000 0.212500 0.300000
1.000000 0.212500 0.300000
1.000000 0.212500 0.300000
0.050000 0.318750 0.300000
0.200000 0.318750 0.300000
0.350000 0.318750 0.300000
0.500000 0.318750 0.300000
0.650000 0.318750 0.300000
0.800000 0.318750 0.300000
0.950000 0.318750 0.300000
1.000000 0.318750 0.300000
1.000000 0.318750 0.300000
0.050000 0.425000 0.300000
0.200000 0.425000 0.300000
0.350000 0.425000 0.300000
0.500000 0.425000 0.300000
0.650000 0.425000 0.300000
0.800000 0.425000 0.300000
0.950000 0.425000 0.300000
1.000000 0.425000 0.300000
1.000000 0.425000 0.300000
0.050000 0.531250 0.300000
0.200000 0.531250 0.300000
0.350000 0.531250 0.300000
0.500000 0.531250 0.300000
0.650000 0.531250 0.300000
0.800000 0.531250 0.300000
0.950000 0.531250 0.300000
1.000000 0.531250 0.300000
1.000000 0.531250 0.300000
0.050000 0.637500 0.300000
0.200000 0.637500 0.300000
0.350000 0.637500 0.300000
0.500000 0.637500 0.300000
0.650000 0.637500 0.300000
0.800000 0.637500 0.300000
0.950000 0.637500 0.300000
1.000000 0.637500 0.300000
1.000000 0.637500 0.300000
0.050000 0.743750 0.300000
0.200000 0.743750 0.300000
0.350000 0.743750 0.300000
0.500000 0.743750 0.300000
0.650000 0.743750 0.300000
0.800000 0.743750 0.300000
0.950000 0.743750 0.300000
1.000000 0.743750 0.300000
1.000000 0.743750 0.300000
0.050000 0.850000 0.300000
0.200000 0.850000 0.300000
0.350000 0.850000 0.300000
0.500000 0.850000 0.300000
0.650000 0.850000 0.300000
0.800000 0.850000 0.300000
0.950000 0.850000 0.300000
1.000000 0.850000 0.300000
1.000000 0.850000 0.300000
0.050000 0.000000 0.400000
0.200000 0.000000 0.400000
0.350000 0.000000 0.400000
0.500000 0.000000 0.400000
0.650000 0.000000 0.400000
0.800000 0.000000 0.400000
0.950000 0.000000 0.400000
1.000000 0.000000 0.400000
1.000000 0.000000 0.400000
0.050000 0.106250 0.400000
0.200000 0.106250 0.400000
0.350000 0.106250 0.400000
0.500000 0.106250 0.400000
0.650000 0.106250 0.400000
0.800000 0.106250 0.400000
0.950000 0.106250 0.400000
1.000000 0.106250 0.400000
1.000000 0.106250 0.400000
0.050000 0.212500 0.400000
0.200000 0.212500 0.400000
0.350000 0.212500 0.400000
0.500000 0.212500 0.400000
0.650000 0.212500 0.400000
0.800000 0.212500 0.400000
0.950000 0.212500 0.400000
1.000000 0.212500 0.400000
1.000000 0.212500 0.400000
0.050000 0.318750 0.400000
0.200000 0.318750 0.400000
0.350000 0.318750 0.400000
0.500000 0.318750 0.400000
0.650000 0.318750 0.400000
0.800000 0.318750 0.400000
0.950000 0.318750 0.400000
1.000000 0.318750 0.400000
1.000000 0.318750 0.400000
0.050000 0.425000 0.400000
0.200000 0.425000 0.400000
0.350000 0.425000 0.400000
0.500000 0.425000 0.400000
0.650000 0.425000 0.400000
0.800000 0.425000 0.400000
0.950000 0.425000 0.400000
1.000000 0.425000 0.400000
1.000000 0.425000 0.400000
0.050000 0.531250 0.400000
0.200000 0.531250 0.400000
0.350000 0.531250 0.400000
0.500000 0.531250 0.400000
0.650000 0.531250 0.400000
0.800000 0.531250 0.400000
0.950000 0.531250 0.400000
1.000000 0.531250 0.400000
1.000000 0.531250 0.400000
0.050000 0.637500 0.400000
0.200000 0.637500 0.400000
0.350000 0.637500 0.400000
0.500000 0.637500 0.400000
0.650000 0.637500 0.400000
0.800000 0.637500 0.400000
0.950000 0.637500 0.400000
1.000000 0.637500 0.400000
1.000000 0.637500 0.400000
0.050000 0.743750 0.400000
0.200000 0.743750 0.400000
0.350000 0.743750 0.400000
0.500000 0.743750 0.400000
0.650000 0.743750 0.400000
0.800000 0.743750 0.400000
0.950000 0.743750 0.400000
1.000000 0.743750 0.400000
1.000000 0.743750 0.400000
0.050000 0.850000 0.400000
0.200000 0.850000 0.400000
0.350000 0.850000 0.400000
0.500000 0.850000 0.400000
0.650000 0.850000 0.400000
0.800000 0.850000 0.400000
0.950000 0.850000 0.400000
1.000000 0.850000 0.400000
1.000000 0.850000 0.400000
0.050000 0.000000 0.737500
0.200000 0.000000 0.737500
0.350000 0.000000 0.737500
0.500000 0.000000 0.737500
0.650000 0.000000 0.737500
0.800000 0.000000 0.737500
0.950000 0.000000 0.737500
1.000000 0.000000 0.737500
1.000000 0.000000 0.737500
0.050000 0.106250 0.737500
0.200000 0.106250 0.737500
0.350000 0.106250 0.737500
0.500000 0.106250 0.737500
0.650000 0.106250 0.737500
0.800000 0.106250 0.737500
0.950000 0.106250 0.737500
1.000000 0.106250 0.737500
1.000000 0.106250 0.737500
0.050000 0.212500 0.737500
0.200000 0.212500 0.737500
0.350000 0.212500 0.737500
0.500000 0.212500 0.737500
0.650000 0.212500 0.737500
0.800000 0.212500 0.737500
0.950000 0.212500 0.737500
1.000000 0.212500 0.737500
1.000000 0.212500 0.737500
0.050000 0.318750 0.737500
0.200000 0.318750 0.737500
0.350000 0.318750 0.737500
0.500000 0.318750 0.737500
0.650000 0.318750 0.737500
0.800000 0.318750 0.737500
0.950000 0.318750 0.737500
1.000000 0.318750 0.737500
1.000000 0.318750 0.737500
0.050000 0.425000 0.737500
0.200000 0.425000 0.737500
0.350000 0.425000 0.737500
0.500000 0.425000 0.737500
0.650000 0.425000 0.737500
0.800000 0.425000 0.737500
0.950000 0.425000 0.737500
1.000000 0.425000 0.737500
1.000000 0.425000 0.737500
0.050000 0.531250 0.737500
0.200000 0.531250 0.737500
0.350000 0.531250 0.737500
0.500000 0.531250 0.737500
0.650000 0.531250 0.737500
0.800000 0.531250 0.737500
0.950000 0.531250 0.737500
1.000000 0.531250 0.737500
1.000000 0.531250 0.737500
0.050000 0.637500 0.737500
0.200000 0.637500 0.737500
0.350000 0.637500 0.737500
0.500000 0.637500 0.737500
0.650000 0.637500 0.737500
0.800000 0.637500 0.737500
0.950000 0.637500 0.737500
1.000000 0.637500 0.737500
1.000000 0.637500 0.737500
0.050000 0.743750 0.737500
0.200000 0.743750 0.737500
0.350000 0.743750 0.737500
0.500000 0.743750 0.737500
0.650000 0.743750 0.737500
0.800000 0.743750 0.737500
0.950000 0.743750 0.737500
1.000000 0.743750 0.737500
1.000000 0.743750 0.737500
0.050000 0.850000 0.737500
0.200000 0.850000 0.737500
0.350000 0.850000 0.737500
0.500000 0.850000 0.737500
0.650000 0.850000 0.737500
0.800000 0.850000 0.737500
0.950000 0.850000 0.737500
1.000000 0.850000 0.737500
1.000000 0.850000 0.737500
0.050000 0.000000 0.875000
0.200000 0.000000 0.875000
0.350000 0.000000 0.875000
0.500000 0.000000 0.875000
0.650000 0.000000 0.875000
0.800000 0.000000 0.875000
0.950000 0.000000 0.875000
1.000000 0.000000 0.875000
1.000000 0.000000 0.875000
0.050000 0.106250 0.875000
0.200000 0.106250 0.875000
0.350000 0.106250 0.875000
0.500000 0.106250 0.875000
0.650000 0.106250 0.875000
0.800000 0.106250 0.875000
0.950000 0.106250 0.875000
1.000000 0.106250 0.875000
1.000000 0.106250 0.875000
0.050000 0.212500 0.875000
0.200000 0.212500 0.875000
0.350000 0.212500 0.875000
0.500000 0.212500 0.875000
0.650000 0.212500 0.875000
0.800000 0.212500 0.875000
0.950000 0.212500 0.875000
1.000000 0.212500 0.875000
1.000000 0.212500 0.875000
0.050000 0.318750 0.875000
0.200000 0.318750 0.875000
0.350000 0.318750 0.875000
0.500000 0.318750 0.875000
0.650000 0.318750 0.875000
0.800000 0.318750 0.875000
0.950000 0.318750 0.875000
1.000000 0.318750 0.875000
1.000000 0.318750 0.875000
0.050000 0.425000 0.875000
0.200000 0.425000 0.875000
0.350000 0.425000 0.875000
0.500000 0.425000 0.875000
0.650000 0.425000 0.875000
0.800000 0.425000 0.875000
0.950000 0.425000 0.875000
1.000000 0.425000 0.875000
1.000000 0.425000 0.875000
0.050000 0.531250 0.875000
0.200000 0.531250 0.875000
0.350000 0.531250 0.875000
0.500000 0.531250 0.875000
0.650000 0.531250 0.875000
0.800000 0.531250 0.875000
0.950000 0.531250 0.875000
1.000000 0.531250 0.875000
1.000000 0.531250 0.875000
0.050000 0.637500 0.875000
0.200000 0.637500 0.875000
0.350000 0.637500 0.875000
0.500000 0.637500 0.875000
0.650000 0.637500 0.875000
0.800000 0.637500 0.875000
0.950000 0.637500 0.875000
1.000000 0.637500 0.875000
1.000000 0.637500 0.875000
0.050000 0.743750 0.875000
0.200000 0.743750 0.875000
0.350000 0.743750 0.875000
0.500000 0.743750 0.875000
0.650000 0.743750 0.875000
0.800000 0.743750 0.875000
0.950000 0.743750 0.875000
1.000000 0.743750 0.875000
1.000000 0.743750 0.875000
0.050000 0.850000 0.875000
0.200000 0.850000 0.875000
0.350000 0.850000 0.875000
0.500000 0.850000 0.875000
0.650000 0.850000 0.875000
0.800000 0.850000 0.875000
0.950000 0.850000 0.875000
1.000000 0.850000 0.875000
1.000000 0.850000 0.875000
0.050000 0.000000 1.000000
0.200000 0.000000 1.000000
0.350000 0.000000 1.000000
0.500000 0.000000 1.000000
0.650000 0.000000 1.000000
0.800000 0.000000 1.000000
0.950000 0.000000 1.000000
1.000000 0.000000 1.000000
1.000000 0.000000 1.000000
0.050000 0.106250 1.000000
0.200000 0.106250 1.000000
0.350000 0.106250 1.000000
0.500000 0.106250 1.000000
0.650000 0.106250 1.000000
0.800000 0.106250 1.000000
0.950000 0.106250 1.000000
1.000000 0.106250 1.000000
1.000000 0.106250 1.000000
0.050000 0.212500 1.000000
0.200000 0.212500 1.000000
0.350000 0.212500 1.000000
0.500000 0.212500 1.000000
0.650000 0.212500 1.000000
0.800000 0.212500 1.000000
0.950000 0.212500 1.000000
1.000000 0.212500 1.000000
1.000000 0.212500 1.000000
0.050000 0.318750 1.000000
0.200000 0.318750 1.000000
0.350000 0.318750 1.000000
0.500000 0.318750 1.000000
0.650000 0.318750 1.000000
0.800000 0.318750 1.000000
0.950000 0.318750 1.000000
1.000000 0.318750 1.000000
1.000000 0.318750 1.000000
0.050000 0.425000 1.000000
0.200000 0.425000 1.000000
0.350000 0.425000 1.000000
0.500000 0.425000 1.000000
0.650000 0.425000 1.000000
0.800000 0.425000 1.000000
0.950000 0.425000 1.000000
1.000000 0.425000 1.000000
1.000000 0.425000 1.000000
0.050000 0.531250 1.000000
0.200000 0.531250 1.000000
0.350000 0.531250 1.000000
0.500000 0.531250 1.000000
0.650000 0.531250 1.000000
0.800000 0.531250 1.000000
0.950000 0.531250 1.000000
1.000000 0.531250 1.000000
1.000000 0.531250 1.000000
0.050000 0.637500 1.000000
0.200000 0.637500 1.000000
0.350000 0.637500 1.000000
0.500000 0.637500 1.000000
0.650000 0.637500 1.000000
0.800000 0.637500 1.000000
0.950000 0.637500 1.000000
1.000000 0.637500 1.000000
1.000000 0.637500 1.000000
0.050000 0.743750 1.000000
0.200000 0.743750 1.000000
0.350000 0.743750 1.000000
0.500000 0.743750 1.000000
0.650000 0.743750 1.000000
0.800000 0.743750 1.000000
0.950000 0.743750 1.000000
1.000000 0.743750 1.000000
1.000000 0.743750 1.000000
0.050000 0.850000 1.000000
0.200000 0.850000 1.000000
0.350000 0.850000 1.000000
0.500000 0.850000 1.000000
0.650000 0.850000 1.000000
0.800000 0.850000 1.000000
0.950000 0.850000 1.000000
1.000000 0.850000 1.000000
1.000000 0.850000 1.000000
0.050000 0.000000 1.000000
0.200000 0.000000 1.000000
0.350000 0.000000 1.000000
0.500000 0.000000 1.000000
0.650000 0.000000 1.000000
0.800000 0.000000 1.000000
0.950000 0.000000 1.000000
1.000000 0.000000 1.000000
1.000000 0.000000 1.000000
0.050000 0.106250 1.000000
0.200000 0.106250 1.000000
0.350000 0.106250 1.000000
0.500000 0.106250 1.000000
0.650000 0.106250 1.000000
0.800000 0.106250 1.000000
0.950000 0.106250 1.000000
1.000000 0.106250 1.000000
1.000000 0.106250 1.000000
0.050000 0.212500 1.000000
0.200000 0.212500 1.000000
0.350000 0.212500 1.000000
0.500000 0.212500 1.000000
0.650000 0.212500 1.000000
0.800000 0.212500 1.000000
0.950000 0.212500 1.000000
1.000000 0.212500 1.000000
1.000000 0.212500 1.000000
0.050000 0.318750 1.000000
0.200000 0.318750 1.000000
0.350000 0.318750 1.000000
0.500000 0.318750 1.000000
0.650000 0.318750 1.000000
0.800000 0.318750 1.000000
0.950000 0.318750 1.000000
1.000000 0.318750 1.000000
1.000000 0.318750 1.000000
0.050000 0.425000 1.000000
0.200000 0.425000 1.000000
0.350000 0.425000 1.000000
0.500000 0.425000 1.000000
0.650000 0.425000 1.000000
0.800000 0.425000 1.000000
0.950000 0.425000 1.000000
1.000000 0.425000 1.000000
1.000000 0.425000 1.000000
0.050000 0.531250 1.000000
0.200000 0.531250 1.000000
0.350000 0.531250 1.000000
0.500000 0.531250 1.000000
0.650000 0.531250 1.000000
0.800000 0.531250 1.000000
0.950000 0.531250 1.000000
1.000000 0.531250 1.000000
1.000000 0.531250 1.000000
0.050000 0.637500 1.000000
0.200000 0.637500 1.000000
0.350000 0.637500 1.000000
0.500000 0.637500 1.000000
0.650000 0.637500 1.000000
0.800000 0.637500 1.000000
0.950000 0.637500 1.000000
1.000000 0.637500 1.000000
1.000000 0.637500 1.000000
0.050000 0.743750 1.000000
0.200000 0.743750 1.000000
0.350000 0.743750 1.000000
0.500000 0.743750 1.000000
0.650000 0.743750 1.000000
0.800000 0.743750 1.000000
0.950000 0.743750 1.000000
1.000000 0.743750 1.000000
1.000000 0.743750 1.000000
0.050000 0.850000 1.000000
0.200000 0.850000 1.000000
0.350000 0.850000 1.000000
0.500000 0.850000 1.000000
0.650000 0.850000 1.000000
0.800000 0.850000 1.000000
0.950000 0.850000 1.000000
1.000000 0.850000 1.000000
1.000000 0.850000 1.000000
