resources/luts/teal_orange.cube
TITLE "Teal & Orange"
LUT_3D_SIZE 5
0.050000 0.000000 0.000000
0.350000 0.000000 0.000000
0.650000 0.000000 0.000000
0.950000 0.000000 0.000000
1.000000 0.000000 0.000000
0.050000 0.212500 0.000000
0.350000 0.212500 0.000000
0.650000 0.212500 0.000000
0.950000 0.212500 0.000000
1.000000 0.212500 0.000000
0.050000 0.425000 0.000000
0.350000 0.425000 0.000000
0.650000 0.425000 0.000000
0.950000 0.425000 0.000000
1.000000 0.425000 0.000000
0.050000 0.637500 0.000000
0.350000 0.637500 0.000000
0.650000 0.637500 0.000000
0.950000 0.637500 0.000000
1.000000 0.637500 0.000000
0.050000 0.850000 0.000000
0.350000 0.850000 0.000000
0.650000 0.850000 0.000000
0.950000 0.850000 0.000000
1.000000 0.850000 0.000000
0.050000 0.000000 0.200000
0.350000 0.000000 0.200000
0.650000 0.000000 0.200000
0.950000 0.000000 0.200000
1.000000 0.000000 0.200000
0.050000 0.212500 0.200000
0.350000 0.212500 0.200000
0.650000 0.212500 0.200000
0.950000 0.212500 0.200000
1.000000 0.212500 0.200000
0.050000 0.425000 0.200000
0.350000 0.425000 0.200000
0.650000 0.425000 0.200000
0.950000 0.425000 0.200000
1.000000 0.425000 0.200000
0.050000 0.637500 0.200000
0.350000 0.637500 0.200000
0.650000 0.637500 0.200000
0.950000 0.637500 0.200000
1.000000 0.637500 0.200000
0.050000 0.850000 0.200000
0.350000 0.850000 0.200000
0.650000 0.850000 0.200000
0.950000 0.850000 0.200000
1.000000 0.850000 0.200000
0.050000 0.000000 0.400000
0.350000 0.000000 0.400000
0.650000 0.000000 0.400000
0.950000 0.000000 0.400000
1.000000 0.000000 0.400000
0.050000 0.212500 0.400000
0.350000 0.212500 0.400000
0.650000 0.212500 0.400000
0.950000 0.212500 0.400000
1.000000 0.212500 0.400000
0.050000 0.425000 0.400000
0.350000 0.425000 0.400000
0.650000 0.425000 0.400000
0.950000 0.425000 0.400000
1.000000 0.425000 0.400000
0.050000 0.637500 0.400000
0.350000 0.637500 0.400000
0.650000 0.637500 0.400000
0.950000 0.637500 0.400000
1.000000 0.637500 0.400000
0.050000 0.850000 0.400000
0.350000 0.850000 0.400000
0.650000 0.850000 0.400000
0.950000 0.850000 0.400000
1.000000 0.850000 0.400000
0.050000 0.000000 0.875000
0.350000 0.000000 0.875000
0.650000 0.000000 0.875000
0.950000 0.000000 0.875000
1.000000 0.000000 0.875000
0.050000 0.212500 0.875000
0.350000 0.212500 0.875000
0.650000 0.212500 0.875000
0.950000 0.212500 0.875000
1.000000 0.212500 0.875000
0.050000 0.425000 0.875000
0.350000 0.425000 0.875000
0.650000 0.425000 0.875000
0.950000 0.425000 0.875000
1.000000 0.425000 0.875000
0.050000 0.637500 0.875000
0.350000 0.637500 0.875000
0.650000 0.637500 0.875000
0.950000 0.637500 0.875000
1.000000 0.637500 0.875000
0.050000 0.850000 0.875000
0.350000 0.850000 0.875000
0.650000 0.850000 0.875000
0.950000 0.850000 0.875000
1.000000 0.850000 0.875000
0.050000 0.000000 1.000000
0.350000 0.000000 1.000000
0.650000 0.000000 1.000000
0.950000 0.000000 1.000000
1.000000 0.000000 1.000000
0.050000 0.212500 1.000000
0.350000 0.212500 1.000000
0.650000 0.212500 1.000000
0.950000 0.212500 1.000000
1.000000 0.212500 1.000000
0.050000 0.425000 1.000000
0.350000 0.425000 1.000000
0.650000 0.425000 1.000000
0.950000 0.425000 1.000000
1.000000 0.425000 1.000000
0.050000 0.637500 1.000000
0.350000 0.637500 1.000000
0.650000 0.637500 1.000000
0.950000 0.637500 1.000000
1.000000 0.637500 1.000000
0.050000 0.850000 1.000000
0.350000 0.850000 1.000000
0.650000 0.850000 1.000000
0.950000 0.850000 1.000000
1.000000 0.850000 1.000000
