resources/luts/teal_orange.cube
TITLE "Teal & Orange"
LUT_3D_SIZE 17
0.050000 0.000000 0.000000
0.125000 0.000000 0.000000
0.200000 0.000000 0.000000
0.275000 0.000000 0.000000
0.350000 0.000000 0.000000
0.425000 0.000000 0.000000
0.500000 0.000000 0.000000
0.575000 0.000000 0.000000
0.650000 0.000000 0.000000
0.725000 0.000000 0.000000
0.800000 0.000000 0.000000
0.875000 0.000000 0.000000
0.950000 0.000000 0.000000
1.000000 0.000000 0.000000
1.000000 0.000000 0.000000
1.000000 0.000000 0.000000
1.000000 0.000000 0.000000
0.050000 0.053125 0.000000
0.125000 0.053125 0.000000
0.200000 0.053125 0.000000
0.275000 0.053125 0.000000
0.350000 0.053125 0.000000
0.425000 0.053125 0.000000
0.500000 0.053125 0.000000
0.575000 0.053125 0.000000
0.650000 0.053125 0.000000
0.725000 0.053125 0.000000
0.800000 0.053125 0.000000
0.875000 0.053125 0.000000
0.950000 0.053125 0.000000
1.000000 0.053125 0.000000
1.000000 0.053125 0.000000
1.000000 0.053125 0.000000
1.000000 0.053125 0.000000
0.050000 0.106250 0.000000
0.125000 0.106250 0.000000
0.200000 0.106250 0.000000
0.275000 0.106250 0.000000
0.350000 0.106250 0.000000
0.425000 0.106250 0.000000
0.500000 0.106250 0.000000
0.575000 0.106250 0.000000
0.650000 0.106250 0.000000
0.725000 0.106250 0.000000
0.800000 0.106250 0.000000
0.875000 0.106250 0.000000
0.950000 0.106250 0.000000
1.000000 0.106250 0.000000
1.000000 0.106250 0.000000
1.000000 0.106250 0.000000
1.000000 0.106250 0.000000
0.050000 0.159375 0.000000
0.125000 0.159375 0.000000
0.200000 0.159375 0.000000
0.275000 0.159375 0.000000
0.350000 0.159375 0.000000
0.425000 0.159375 0.000000
0.500000 0.159375 0.000000
0.575000 0.159375 0.000000
0.650000 0.159375 0.000000
0.725000 0.159375 0.000000
0.800000 0.159375 0.000000
0.875000 0.159375 0.000000
0.950000 0.159375 0.000000
1.000000 0.159375 0.000000
1.000000 0.159375 0.000000
1.000000 0.159375 0.000000
1.000000 0.159375 0.000000
0.050000 0.212500 0.000000
0.125000 0.212500 0.000000
0.200000 0.212500 0.000000
0.275000 0.212500 0.000000
0.350000 0.212500 0.000000
0.425000 0.212500 0.000000
0.500000 0.212500 0.000000
0.575000 0.212500 0.000000
0.650000 0.212500 0.000000
0.725000 0.212500 0.000000
0.800000 0.212500 0.000000
0.875000 0.212500 0.000000
0.950000 0.212500 0.000000
1.000000 0.212500 0.000000
1.000000 0.212500 0.000000
1.000000 0.212500 0.000000
1.000000 0.212500 0.000000
0.050000 0.265625 0.000000
0.125000 0.265625 0.000000
0.200000 0.265625 0.000000
0.275000 0.265625 0.000000
0.350000 0.265625 0.000000
0.425000 0.265625 0.000000
0.500000 0.265625 0.000000
0.575000 0.265625 0.000000
0.650000 0.265625 0.000000
0.725000 0.265625 0.000000
0.800000 0.265625 0.000000
0.875000 0.265625 0.000000
0.950000 0.265625 0.000000
1.000000 0.265625 0.000000
1.000000 0.265625 0.000000
1.000000 0.265625 0.000000
1.000000 0.265625 0.000000
0.050000 0.318750 0.000000
0.125000 0.318750 0.000000
0.200000 0.318750 0.000000
0.275000 0.318750 0.000000
0.350000 0.318750 0.000000
0.425000 0.318750 0.000000
0.500000 0.318750 0.000000
0.575000 0.318750 0.000000
0.650000 0.318750 0.000000
0.725000 0.318750 0.000000
0.800000 0.318750 0.000000
0.875000 0.318750 0.000000
0.950000 0.318750 0.000000
1.000000 0.318750 0.000000
1.000000 0.318750 0.000000
1.000000 0.318750 0.000000
1.000000 0.318750 0.000000
0.050000 0.371875 0.000000
0.125000 0.371875 0.000000
0.200000 0.371875 0.000000
0.275000 0.371875 0.000000
0.350000 0.371875 0.000000
0.425000 0.371875 0.000000
0.500000 0.371875 0.000000
0.575000 0.371875 0.000000
0.650000 0.371875 0.000000
0.725000 0.371875 0.000000
0.800000 0.371875 0.000000
0.875000 0.371875 0.000000
0.950000 0.371875 0.000000
1.000000 0.371875 0.000000
1.000000 0.371875 0.000000
1.000000 0.371875 0.000000
1.000000 0.371875 0.000000
0.050000 0.425000 0.000000
0.125000 0.425000 0.000000
0.200000 0.425000 0.000000
0.275000 0.425000 0.000000
0.350000 0.425000 0.000000
0.425000 0.425000 0.000000
0.500000 0.425000 0.000000
0.575000 0.425000 0.000000
0.650000 0.425000 0.000000
0.725000 0.425000 0.000000
0.800000 0.425000 0.000000
0.875000 0.425000 0.000000
0.950000 0.425000 0.000000
1.000000 0.425000 0.000000
1.000000 0.425000 0.000000
1.000000 0.425000 0.000000
1.000000 0.425000 0.000000
0.050000 0.478125 0.000000
0.125000 0.478125 0.000000
0.200000 0.478125 0.000000
0.275000 0.478125 0.000000
0.350000 0.478125 0.000000
0.425000 0.478125 0.000000
0.500000 0.478125 0.000000
0.575000 0.478125 0.000000
0.650000 0.478125 0.000000
0.725000 0.478125 0.000000
0.800000 0.478125 0.000000
0.875000 0.478125 0.000000
0.950000 0.478125 0.000000
1.000000 0.478125 0.000000
1.000000 0.478125 0.000000
1.000000 0.478125 0.000000
1.000000 0.478125 0.000000
0.050000 0.531250 0.000000
0.125000 0.531250 0.000000
0.200000 0.531250 0.000000
0.275000 0.531250 0.000000
0.350000 0.531250 0.000000
0.425000 0.531250 0.000000
0.500000 0.531250 0.000000
0.575000 0.531250 0.000000
0.650000 0.531250 0.000000
0.725000 0.531250 0.000000
0.800000 0.531250 0.000000
0.875000 0.531250 0.000000
0.950000 0.531250 0.000000
1.000000 0.531250 0.000000
1.000000 0.531250 0.000000
1.000000 0.531250 0.000000
1.000000 0.531250 0.000000
0.050000 0.584375 0.000000
0.125000 0.584375 0.000000
0.200000 0.584375 0.000000
0.275000 0.584375 0.000000
0.350000 0.584375 0.000000
0.425000 0.584375 0.000000
0.500000 0.584375 0.000000
0.575000 0.584375 0.000000
0.650000 0.584375 0.000000
0.725000 0.584375 0.000000
0.800000 0.584375 0.000000
0.875000 0.584375 0.000000
0.950000 0.584375 0.000000
1.000000 0.584375 0.000000
1.000000 0.584375 0.000000
1.000000 0.584375 0.000000
1.000000 0.584375 0.000000
0.050000 0.637500 0.000000
0.125000 0.637500 0.000000
0.200000 0.637500 0.000000
0.275000 0.637500 0.000000
0.350000 0.637500 0.000000
0.425000 0.637500 0.000000
0.500000 0.637500 0.000000
0.575000 0.637500 0.000000
0.650000 0.637500 0.000000
0.725000 0.637500 0.000000
0.800000 0.637500 0.000000
0.875000 0.637500 0.000000
0.950000 0.637500 0.000000
1.000000 0.637500 0.000000
1.000000 0.637500 0.000000
1.000000 0.637500 0.000000
1.000000 0.637500 0.000000
0.050000 0.690625 0.000000
0.125000 0.690625 0.000000
0.200000 0.690625 0.000000
0.275000 0.690625 0.000000
0.350000 0.690625 0.000000
0.425000 0.690625 0.000000
0.500000 0.690625 0.000000
0.575000 0.690625 0.000000
0.650000 0.690625 0.000000
0.725000 0.690625 0.000000
0.800000 0.690625 0.000000
0.875000 0.690625 0.000000
0.950000 0.690625 0.000000
1.000000 0.690625 0.000000
1.000000 0.690625 0.000000
1.000000 0.690625 0.000000
1.000000 0.690625 0.000000
0.050000 0.743750 0.000000
0.125000 0.743750 0.000000
0.200000 0.743750 0.000000
0.275000 0.743750 0.000000
0.350000 0.743750 0.000000
0.425000 0.743750 0.000000
0.500000 0.743750 0.000000
0.575000 0.743750 0.000000
0.650000 0.743750 0.000000
0.725000 0.743750 0.000000
0.800000 0.743750 0.000000
0.875000 0.743750 0.000000
0.950000 0.743750 0.000000
1.000000 0.743750 0.000000
1.000000 0.743750 0.000000
1.000000 0.743750 0.000000
1.000000 0.743750 0.000000
0.050000 0.796875 0.000000
0.125000 0.796875 0.000000
0.200000 0.796875 0.000000
0.275000 0.796875 0.000000
0.350000 0.796875 0.000000
0.425000 0.796875 0.000000
0.500000 0.796875 0.000000
0.575000 0.796875 0.000000
0.650000 0.796875 0.000000
0.725000 0.796875 0.000000
0.800000 0.796875 0.000000
0.875000 0.796875 0.000000
0.950000 0.796875 0.000000
1.000000 0.796875 0.000000
1.000000 0.796875 0.000000
1.000000 0.796875 0.000000
1.000000 0.796875 0.000000
0.050000 0.850000 0.000000
0.125000 0.850000 0.000000
0.200000 0.850000 0.000000
0.275000 0.850000 0.000000
0.350000 0.850000 0.000000
0.425000 0.850000 0.000000
0.500000 0.850000 0.000000
0.575000 0.850000 0.000000
0.650000 0.850000 0.000000
0.725000 0.850000 0.000000
0.800000 0.850000 0.000000
0.875000 0.850000 0.000000
0.950000 0.850000 0.000000
1.000000 0.850000 0.000000
1.000000 0.850000 0.000000
1.000000 0.850000 0.000000
1.000000 0.850000 0.000000
0.050000 0.000000 0.050000
0.125000 0.000000 0.050000
0.200000 0.000000 0.050000
0.275000 0.000000 0.050000
0.350000 0.000000 0.050000
0.425000 0.000000 0.050000
0.500000 0.000000 0.050000
0.575000 0.000000 0.050000
0.650000 0.000000 0.050000
0.725000 0.000000 0.050000
0.800000 0.000000 0.050000
0.875000 0.000000 0.050000
0.950000 0.000000 0.050000
1.000000 0.000000 0.050000
1.000000 0.000000 0.050000
1.000000 0.000000 0.050000
1.000000 0.000000 0.050000
0.050000 0.053125 0.050000
0.125000 0.053125 0.050000
0.200000 0.053125 0.050000
0.275000 0.053125 0.050000
0.350000 0.053125 0.050000
0.425000 0.053125 0.050000
0.500000 0.053125 0.050000
0.575000 0.053125 0.050000
0.650000 0.053125 0.050000
0.725000 0.053125 0.050000
0.800000 0.053125 0.050000
0.875000 0.053125 0.050000
0.950000 0.053125 0.050000
1.000000 0.053125 0.050000
1.000000 0.053125 0.050000
1.000000 0.053125 0.050000
1.000000 0.053125 0.050000
0.050000 0.106250 0.050000
0.125000 0.106250 0.050000
0.200000 0.106250 0.050000
0.275000 0.106250 0.050000
0.350000 0.106250 0.050000
0.425000 0.106250 0.050000
0.500000 0.106250 0.050000
0.575000 0.106250 0.050000
0.650000 0.106250 0.050000
0.725000 0.106250 0.050000
0.800000 0.106250 0.050000
0.875000 0.106250 0.050000
0.950000 0.106250 0.050000
1.000000 0.106250 0.050000
1.000000 0.106250 0.050000
1.000000 0.106250 0.050000
1.000000 0.106250 0.050000
0.050000 0.159375 0.050000
0.125000 0.159375 0.050000
0.200000 0.159375 0.050000
0.275000 0.159375 0.050000
0.350000 0.159375 0.050000
0.425000 0.159375 0.050000
0.500000 0.159375 0.050000
0.575000 0.159375 0.050000
0.650000 0.159375 0.050000
0.725000 0.159375 0.050000
0.800000 0.159375 0.050000
0.875000 0.159375 0.050000
0.950000 0.159375 0.050000
1.000000 0.159375 0.050000
1.000000 0.159375 0.050000
1.000000 0.159375 0.050000
1.000000 0.159375 0.050000
0.050000 0.212500 0.050000
0.125000 0.212500 0.050000
0.200000 0.212500 0.050000
0.275000 0.212500 0.050000
0.350000 0.212500 0.050000
0.425000 0.212500 0.050000
0.500000 0.212500 0.050000
0.575000 0.212500 0.050000
0.650000 0.212500 0.050000
0.725000 0.212500 0.050000
0.800000 0.212500 0.050000
0.875000 0.212500 0.050000
0.950000 0.212500 0.050000
1.000000 0.212500 0.050000
1.000000 0.212500 0.050000
1.000000 0.212500 0.050000
1.000000 0.212500 0.050000
0.050000 0.265625 0.050000
0.125000 0.265625 0.050000
0.200000 0.265625 0.050000
0.275000 0.265625 0.050000
0.350000 0.265625 0.050000
0.425000 0.265625 0.050000
0.500000 0.265625 0.050000
0.575000 0.265625 0.050000
0.650000 0.265625 0.050000
0.725000 0.265625 0.050000
0.800000 0.265625 0.050000
0.875000 0.265625 0.050000
0.950000 0.265625 0.050000
1.000000 0.265625 0.050000
1.000000 0.265625 0.050000
1.000000 0.265625 0.050000
1.000000 0.265625 0.050000
0.050000 0.318750 0.050000
0.125000 0.318750 0.050000
0.200000 0.318750 0.050000
0.275000 0.318750 0.050000
0.350000 0.318750 0.050000
0.425000 0.318750 0.050000
0.500000 0.318750 0.050000
0.575000 0.318750 0.050000
0.650000 0.318750 0.050000
0.725000 0.318750 0.050000
0.800000 0.318750 0.050000
0.875000 0.318750 0.050000
0.950000 0.318750 0.050000
1.000000 0.318750 0.050000
1.000000 0.318750 0.050000
1.000000 0.318750 0.050000
1.000000 0.318750 0.050000
0.050000 0.371875 0.050000
0.125000 0.371875 0.050000
0.200000 0.371875 0.050000
0.275000 0.371875 0.050000
0.350000 0.371875 0.050000
0.425000 0.371875 0.050000
0.500000 0.371875 0.050000
0.575000 0.371875 0.050000
0.650000 0.371875 0.050000
0.725000 0.371875 0.050000
0.800000 0.371875 0.050000
0.875000 0.371875 0.050000
0.950000 0.371875 0.050000
1.000000 0.371875 0.050000
1.000000 0.371875 0.050000
1.000000 0.371875 0.050000
1.000000 0.371875 0.050000
0.050000 0.425000 0.050000
0.125000 0.425000 0.050000
0.200000 0.425000 0.050000
0.275000 0.425000 0.050000
0.350000 0.425000 0.050000
0.425000 0.425000 0.050000
0.500000 0.425000 0.050000
0.575000 0.425000 0.050000
0.650000 0.425000 0.050000
0.725000 0.425000 0.050000
0.800000 0.425000 0.050000
0.875000 0.425000 0.050000
0.950000 0.425000 0.050000
1.000000 0.425000 0.050000
1.000000 0.425000 0.050000
1.000000 0.425000 0.050000
1.000000 0.425000 0.050000
0.050000 0.478125 0.050000
0.125000 0.478125 0.050000
0.200000 0.478125 0.050000
0.275000 0.478125 0.050000
0.350000 0.478125 0.050000
0.425000 0.478125 0.050000
0.500000 0.478125 0.050000
0.575000 0.478125 0.050000
0.650000 0.478125 0.050000
0.725000 0.478125 0.050000
0.800000 0.478125 0.050000
0.875000 0.478125 0.050000
0.950000 0.478125 0.050000
1.000000 0.478125 0.050000
1.000000 0.478125 0.050000
1.000000 0.478125 0.050000
1.000000 0.478125 0.050000
0.050000 0.531250 0.050000
0.125000 0.531250 0.050000
0.200000 0.531250 0.050000
0.275000 0.531250 0.050000
0.350000 0.531250 0.050000
0.425000 0.531250 0.050000
0.500000 0.531250 0.050000
0.575000 0.531250 0.050000
0.650000 0.531250 0.050000
0.725000 0.531250 0.050000
0.800000 0.531250 0.050000
0.875000 0.531250 0.050000
0.950000 0.531250 0.050000
1.000000 0.531250 0.050000
1.000000 0.531250 0.050000
1.000000 0.531250 0.050000
1.000000 0.531250 0.050000
0.050000 0.584375 0.050000
0.125000 0.584375 0.050000
0.200000 0.584375 0.050000
0.275000 0.584375 0.050000
0.350000 0.584375 0.050000
0.425000 0.584375 0.050000
0.500000 0.584375 0.050000
0.575000 0.584375 0.050000
0.650000 0.584375 0.050000
0.725000 0.584375 0.050000
0.800000 0.584375 0.050000
0.875000 0.584375 0.050000
0.950000 0.584375 0.050000
1.000000 0.584375 0.050000
1.000000 0.584375 0.050000
1.000000 0.584375 0.050000
1.000000 0.584375 0.050000
0.050000 0.637500 0.050000
0.125000 0.637500 0.050000
0.200000 0.637500 0.050000
0.275000 0.637500 0.050000
0.350000 0.637500 0.050000
0.425000 0.637500 0.050000
0.500000 0.637500 0.050000
0.575000 0.637500 0.050000
0.650000 0.637500 0.050000
0.725000 0.637500 0.050000
0.800000 0.637500 0.050000
0.875000 0.637500 0.050000
0.950000 0.637500 0.050000
1.000000 0.637500 0.050000
1.000000 0.637500 0.050000
1.000000 0.637500 0.050000
1.000000 0.637500 0.050000
0.050000 0.690625 0.050000
0.125000 0.690625 0.050000
0.200000 0.690625 0.050000
0.275000 0.690625 0.050000
0.350000 0.690625 0.050000
0.425000 0.690625 0.050000
0.500000 0.690625 0.050000
0.575000 0.690625 0.050000
0.650000 0.690625 0.050000
0.725000 0.690625 0.050000
0.800000 0.690625 0.050000
0.875000 0.690625 0.050000
0.950000 0.690625 0.050000
1.000000 0.690625 0.050000
1.000000 0.690625 0.050000
1.000000 0.690625 0.050000
1.000000 0.690625 0.050000
0.050000 0.743750 0.050000
0.125000 0.743750 0.050000
0.200000 0.743750 0.050000
0.275000 0.743750 0.050000
0.350000 0.743750 0.050000
0.425000 0.743750 0.050000
0.500000 0.743750 0.050000
0.575000 0.743750 0.050000
0.650000 0.743750 0.050000
0.725000 0.743750 0.050000
0.800000 0.743750 0.050000
0.875000 0.743750 0.050000
0.950000 0.743750 0.050000
1.000000 0.743750 0.050000
1.000000 0.743750 0.050000
1.000000 0.743750 0.050000
1.000000 0.743750 0.050000
0.050000 0.796875 0.050000
0.125000 0.796875 0.050000
0.200000 0.796875 0.050000
0.275000 0.796875 0.050000
0.350000 0.796875 0.050000
0.425000 0.796875 0.050000
0.500000 0.796875 0.050000
0.575000 0.796875 0.050000
0.650000 0.796875 0.050000
0.725000 0.796875 0.050000
0.800000 0.796875 0.050000
0.875000 0.796875 0.050000
0.950000 0.796875 0.050000
1.000000 0.796875 0.050000
1.000000 0.796875 0.050000
1.000000 0.796875 0.050000
1.000000 0.796875 0.050000
0.050000 0.850000 0.050000
0.125000 0.850000 0.050000
0.200000 0.850000 0.050000
0.275000 0.850000 0.050000
0.350000 0.850000 0.050000
0.425000 0.850000 0.050000
0.500000 0.850000 0.050000
0.575000 0.850000 0.050000
0.650000 0.850000 0.050000
0.725000 0.850000 0.050000
0.800000 0.850000 0.050000
0.875000 0.850000 0.050000
0.950000 0.850000 0.050000
1.000000 0.850000 0.050000
1.000000 0.850000 0.050000
1.000000 0.850000 0.050000
1.000000 0.850000 0.050000
0.050000 0.000000 0.100000
0.125000 0.000000 0.100000
0.200000 0.000000 0.100000
0.275000 0.000000 0.100000
0.350000 0.000000 0.100000
0.425000 0.000000 0.100000
0.500000 0.000000 0.100000
0.575000 0.000000 0.100000
0.650000 0.000000 0.100000
0.725000 0.000000 0.100000
0.800000 0.000000 0.100000
0.875000 0.000000 0.100000
0.950000 0.000000 0.100000
1.000000 0.000000 0.100000
1.000000 0.000000 0.100000
1.000000 0.000000 0.100000
1.000000 0.000000 0.100000
0.050000 0.053125 0.100000
0.125000 0.053125 0.100000
0.200000 0.053125 0.100000
0.275000 0.053125 0.100000
0.350000 0.053125 0.100000
0.425000 0.053125 0.100000
0.500000 0.053125 0.100000
0.575000 0.053125 0.100000
0.650000 0.053125 0.100000
0.725000 0.053125 0.100000
0.800000 0.053125 0.100000
0.875000 0.053125 0.100000
0.950000 0.053125 0.100000
1.000000 0.053125 0.100000
1.000000 0.053125 0.100000
1.000000 0.053125 0.100000
1.000000 0.053125 0.100000
0.050000 0.106250 0.100000
0.125000 0.106250 0.100000
0.200000 0.106250 0.100000
0.275000 0.106250 0.100000
0.350000 0.106250 0.100000
0.425000 0.106250 0.100000
0.500000 0.106250 0.100000
0.575000 0.106250 0.100000
0.650000 0.106250 0.100000
0.725000 0.106250 0.100000
0.800000 0.106250 0.100000
0.875000 0.106250 0.100000
0.950000 0.106250 0.100000
1.000000 0.106250 0.100000
1.000000 0.106250 0.100000
1.000000 0.106250 0.100000
1.000000 0.106250 0.100000
0.050000 0.159375 0.100000
0.125000 0.159375 0.100000
0.200000 0.159375 0.100000
0.275000 0.159375 0.100000
0.350000 0.159375 0.100000
0.425000 0.159375 0.100000
0.500000 0.159375 0.100000
0.575000 0.159375 0.100000
0.650000 0.159375 0.100000
0.725000 0.159375 0.100000
0.800000 0.159375 0.100000
0.875000 0.159375 0.100000
0.950000 0.159375 0.100000
1.000000 0.159375 0.100000
1.000000 0.159375 0.100000
1.000000 0.159375 0.100000
1.000000 0.159375 0.100000
0.050000 0.212500 0.100000
0.125000 0.212500 0.100000
0.200000 0.212500 0.100000
0.275000 0.212500 0.100000
0.350000 0.212500 0.100000
0.425000 0.212500 0.100000
0.500000 0.212500 0.100000
0.575000 0.212500 0.100000
0.650000 0.212500 0.100000
0.725000 0.212500 0.100000
0.800000 0.212500 0.100000
0.875000 0.212500 0.100000
0.950000 0.212500 0.100000
1.000000 0.212500 0.100000
1.000000 0.212500 0.100000
1.000000 0.212500 0.100000
1.000000 0.212500 0.100000
0.050000 0.265625 0.100000
0.125000 0.265625 0.100000
0.200000 0.265625 0.100000
0.275000 0.265625 0.100000
0.350000 0.265625 0.100000
0.425000 0.265625 0.100000
0.500000 0.265625 0.100000
0.575000 0.265625 0.100000
0.650000 0.265625 0.100000
0.725000 0.265625 0.100000
0.800000 0.265625 0.100000
0.875000 0.265625 0.100000
0.950000 0.265625 0.100000
1.000000 0.265625 0.100000
1.000000 0.265625 0.100000
1.000000 0.265625 0.100000
1.000000 0.265625 0.100000
0.050000 0.318750 0.100000
0.125000 0.318750 0.100000
0.200000 0.318750 0.100000
0.275000 0.318750 0.100000
0.350000 0.318750 0.100000
0.425000 0.318750 0.100000
0.500000 0.318750 0.100000
0.575000 0.318750 0.100000
0.650000 0.318750 0.100000
0.725000 0.318750 0.100000
0.800000 0.318750 0.100000
0.875000 0.318750 0.100000
0.950000 0.318750 0.100000
1.000000 0.318750 0.100000
1.000000 0.318750 0.100000
1.000000 0.318750 0.100000
1.000000 0.318750 0.100000
0.050000 0.371875 0.100000
0.125000 0.371875 0.100000
0.200000 0.371875 0.100000
0.275000 0.371875 0.100000
0.350000 0.371875 0.100000
0.425000 0.371875 0.100000
0.500000 0.371875 0.100000
0.575000 0.371875 0.100000
0.650000 0.371875 0.100000
0.725000 0.371875 0.100000
0.800000 0.371875 0.100000
0.875000 0.371875 0.100000
0.950000 0.371875 0.100000
1.000000 0.371875 0.100000
1.000000 0.371875 0.100000
1.000000 0.371875 0.100000
1.000000 0.371875 0.100000
0.050000 0.425000 0.100000
0.125000 0.425000 0.100000
0.200000 0.425000 0.100000
0.275000 0.425000 0.100000
0.350000 0.425000 0.100000
0.425000 0.425000 0.100000
0.500000 0.425000 0.100000
0.575000 0.425000 0.100000
0.650000 0.425000 0.100000
0.725000 0.425000 0.100000
0.800000 0.425000 0.100000
0.875000 0.425000 0.100000
0.950000 0.425000 0.100000
1.000000 0.425000 0.100000
1.000000 0.425000 0.100000
1.000000 0.425000 0.100000
1.000000 0.425000 0.100000
0.050000 0.478125 0.100000
0.125000 0.478125 0.100000
0.200000 0.478125 0.100000
0.275000 0.478125 0.100000
0.350000 0.478125 0.100000
0.425000 0.478125 0.100000
0.500000 0.478125 0.100000
0.575000 0.478125 0.100000
0.650000 0.478125 0.100000
0.725000 0.478125 0.100000
0.800000 0.478125 0.100000
0.875000 0.478125 0.100000
0.950000 0.478125 0.100000
1.000000 0.478125 0.100000
1.000000 0.478125 0.100000
1.000000 0.478125 0.100000
1.000000 0.478125 0.100000
0.050000 0.531250 0.100000
0.125000 0.531250 0.100000
0.200000 0.531250 0.100000
0.275000 0.531250 0.100000
0.350000 0.531250 0.100000
0.425000 0.531250 0.100000
0.500000 0.531250 0.100000
0.575000 0.531250 0.100000
0.650000 0.531250 0.100000
0.725000 0.531250 0.100000
0.800000 0.531250 0.100000
0.875000 0.531250 0.100000
0.950000 0.531250 0.100000
1.000000 0.531250 0.100000
1.000000 0.531250 0.100000
1.000000 0.531250 0.100000
1.000000 0.531250 0.100000
0.050000 0.584375 0.100000
0.125000 0.584375 0.100000
0.200000 0.584375 0.100000
0.275000 0.584375 0.100000
0.350000 0.584375 0.100000
0.425000 0.584375 0.100000
0.500000 0.584375 0.100000
0.575000 0.584375 0.100000
0.650000 0.584375 0.100000
0.725000 0.584375 0.100000
0.800000 0.584375 0.100000
0.875000 0.584375 0.100000
0.950000 0.584375 0.100000
1.000000 0.584375 0.100000
1.000000 0.584375 0.100000
1.000000 0.584375 0.100000
1.000000 0.584375 0.100000
0.050000 0.637500 0.100000
0.125000 0.637500 0.100000
0.200000 0.637500 0.100000
0.275000 0.637500 0.100000
0.350000 0.637500 0.100000
0.425000 0.637500 0.100000
0.500000 0.637500 0.100000
0.575000 0.637500 0.100000
0.650000 0.637500 0.100000
0.725000 0.637500 0.100000
0.800000 0.637500 0.100000
0.875000 0.637500 0.100000
0.950000 0.637500 0.100000
1.000000 0.637500 0.100000
1.000000 0.637500 0.100000
1.000000 0.637500 0.100000
1.000000 0.637500 0.100000
0.050000 0.690625 0.100000
0.125000 0.690625 0.100000
0.200000 0.690625 0.100000
0.275000 0.690625 0.100000
0.350000 0.690625 0.100000
0.425000 0.690625 0.100000
0.500000 0.690625 0.100000
0.575000 0.690625 0.100000
0.650000 0.690625 0.100000
0.725000 0.690625 0.100000
0.800000 0.690625 0.100000
0.875000 0.690625 0.100000
0.950000 0.690625 0.100000
1.000000 0.690625 0.100000
1.000000 0.690625 0.100000
1.000000 0.690625 0.100000
1.000000 0.690625 0.100000
0.050000 0.743750 0.100000
0.125000 0.743750 0.100000
0.200000 0.743750 0.100000
0.275000 0.743750 0.100000
0.350000 0.743750 0.100000
0.425000 0.743750 0.100000
0.500000 0.743750 0.100000
0.575000 0.743750 0.100000
0.650000 0.743750 0.100000
0.725000 0.743750 0.100000
0.800000 0.743750 0.100000
0.875000 0.743750 0.100000
0.950000 0.743750 0.100000
1.000000 0.743750 0.100000
1.000000 0.743750 0.100000
1.000000 0.743750 0.100000
1.000000 0.743750 0.100000
0.050000 0.796875 0.100000
0.125000 0.796875 0.100000
0.200000 0.796875 0.100000
0.275000 0.796875 0.100000
0.350000 0.796875 0.100000
0.425000 0.796875 0.100000
0.500000 0.796875 0.100000
0.575000 0.796875 0.100000
0.650000 0.796875 0.100000
0.725000 0.796875 0.100000
0.800000 0.796875 0.100000
0.875000 0.796875 0.100000
0.950000 0.796875 0.100000
1.000000 0.796875 0.100000
1.000000 0.796875 0.100000
1.000000 0.796875 0.100000
1.000000 0.796875 0.100000
0.050000 0.850000 0.100000
0.125000 0.850000 0.100000
0.200000 0.850000 0.100000
0.275000 0.850000 0.100000
0.350000 0.850000 0.100000
0.425000 0.850000 0.100000
0.500000 0.850000 0.100000
0.575000 0.850000 0.100000
0.650000 0.850000 0.100000
0.725000 0.850000 0.100000
0.800000 0.850000 0.100000
0.875000 0.850000 0.100000
0.950000 0.850000 0.100000
1.000000 0.850000 0.100000
1.000000 0.850000 0.100000
1.000000 0.850000 0.100000
1.000000 0.850000 0.100000
0.050000 0.000000 0.150000
0.125000 0.000000 0.150000
0.200000 0.000000 0.150000
0.275000 0.000000 0.150000
0.350000 0.000000 0.150000
0.425000 0.000000 0.150000
0.500000 0.000000 0.150000
0.575000 0.000000 0.150000
0.650000 0.000000 0.150000
0.725000 0.000000 0.150000
0.800000 0.000000 0.150000
0.875000 0.000000 0.150000
0.950000 0.000000 0.150000
1.000000 0.000000 0.150000
1.000000 0.000000 0.150000
1.000000 0.000000 0.150000
1.000000 0.000000 0.150000
0.050000 0.053125 0.150000
0.125000 0.053125 0.150000
0.200000 0.053125 0.150000
